/* XPM */
static char *btn_play_menu[] = {
/* columns rows colors chars-per-pixel */
"200 85 254 2 ",
"   c #030405",
".  c #06070A",
"X  c #08070C",
"o  c #07080B",
"O  c #090A0D",
"+  c #0C0E12",
"@  c #0B0E1A",
"#  c #0E1114",
"$  c #0D111C",
"%  c #101013",
"&  c #111113",
"*  c #13151A",
"=  c #19171D",
"-  c #241B1D",
";  c #281A1D",
":  c #351E1B",
">  c #33221E",
",  c #0E1422",
"<  c #131523",
"1  c #191724",
"2  c #151924",
"3  c #1C1B24",
"4  c #151B2B",
"5  c #1C1D2B",
"6  c #1B1E31",
"7  c #231D24",
"8  c #2B1E26",
"9  c #231D2B",
"0  c #311F26",
"q  c #271E32",
"w  c #1C2127",
"e  c #1E212D",
"r  c #1C2233",
"t  c #1D283A",
"y  c #242226",
"u  c #2B2325",
"i  c #24232C",
"p  c #2B252B",
"a  c #27282C",
"s  c #2C2A2D",
"d  c #332424",
"f  c #3A2626",
"g  c #3C2B25",
"h  c #33252B",
"j  c #342C2D",
"k  c #3B2C2C",
"l  c #35312E",
"z  c #3C322D",
"x  c #232433",
"c  c #2B2433",
"v  c #262935",
"b  c #2C2B33",
"n  c #24253A",
"m  c #2B253A",
"M  c #252A3B",
"N  c #2B2C3C",
"B  c #342434",
"V  c #332C32",
"C  c #3B2C33",
"Z  c #382639",
"A  c #322C3A",
"S  c #2D313B",
"D  c #343235",
"F  c #3C3333",
"G  c #34333B",
"H  c #3A353B",
"J  c #37393D",
"K  c #3C393C",
"L  c #421E18",
"P  c #4C271C",
"I  c #6E341E",
"U  c #472B27",
"Y  c #432C2B",
"T  c #542D2E",
"R  c #44332D",
"E  c #4B352C",
"W  c #57372C",
"Q  c #472D36",
"!  c #423532",
"~  c #493537",
"^  c #443A35",
"/  c #4B3C34",
"(  c #443C3B",
")  c #4A3D3A",
"_  c #573837",
"`  c #533C34",
"'  c #68392A",
"]  c #753C27",
"[  c #663A35",
"{  c #763D36",
"}  c #5A412D",
"|  c #48403A",
" . c #4D423C",
".. c #564437",
"X. c #53443B",
"o. c #5B453A",
"O. c #5C4A3D",
"+. c #69422D",
"@. c #78442D",
"#. c #684637",
"$. c #624C3D",
"%. c #774836",
"&. c #6A513E",
"*. c #79553B",
"=. c #1F2A42",
"-. c #252C42",
";. c #2B2D42",
":. c #272C49",
">. c #332C43",
",. c #3A2C45",
"<. c #2D3243",
"1. c #283649",
"2. c #2B344A",
"3. c #333443",
"4. c #3B3543",
"5. c #3B3B43",
"6. c #33354A",
"7. c #383649",
"8. c #343A4C",
"9. c #3B3C4B",
"0. c #2C3755",
"q. c #2C3C54",
"w. c #333C53",
"e. c #383956",
"r. c #363D63",
"t. c #462D46",
"y. c #542E45",
"u. c #483747",
"i. c #423C43",
"p. c #563847",
"a. c #473856",
"s. c #573957",
"d. c #663A46",
"f. c #6E3D4F",
"g. c #4C3D61",
"h. c #563D63",
"j. c #683D65",
"k. c #3D4149",
"l. c #2C4358",
"z. c #304751",
"x. c #3C4354",
"c. c #36445A",
"v. c #384865",
"b. c #3C526A",
"n. c #3D5572",
"m. c #3F676E",
"M. c #4B4443",
"N. c #484447",
"B. c #43434C",
"V. c #4C4A4C",
"C. c #544A44",
"Z. c #5B4C43",
"A. c #564848",
"S. c #5C524A",
"D. c #4A4C53",
"F. c #464858",
"G. c #574857",
"H. c #4A525B",
"J. c #585557",
"K. c #644B44",
"L. c #645243",
"P. c #695547",
"I. c #6C5B4B",
"U. c #735A45",
"Y. c #775B47",
"T. c #664957",
"R. c #764D51",
"E. c #665856",
"W. c #7A624B",
"Q. c #6A625A",
"!. c #786757",
"~. c #7E705E",
"^. c #474766",
"/. c #584567",
"(. c #475568",
"). c #585A67",
"_. c #584975",
"`. c #435A76",
"'. c #545575",
"]. c #66466A",
"[. c #665766",
"{. c #664A76",
"}. c #725273",
"|. c #566472",
" X c #686668",
".X c #746C68",
"XX c #6B6B74",
"oX c #757070",
"OX c #757477",
"+X c #8F4C2C",
"@X c #864A35",
"#X c #875738",
"$X c #975637",
"%X c #AA5539",
"&X c #8E633D",
"*X c #99643B",
"=X c #A7663A",
"-X c #B56C37",
";X c #B7733C",
":X c #C85D38",
">X c #CC6E38",
",X c #D67738",
"<X c #E1742A",
"1X c #855845",
"2X c #8E504E",
"3X c #AE564E",
"4X c #87674A",
"5X c #966946",
"6X c #98734D",
"7X c #866C54",
"8X c #966D53",
"9X c #8A7358",
"0X c #977856",
"qX c #AF6F4E",
"wX c #BA7746",
"eX c #8D546F",
"rX c #A75964",
"tX c #887866",
"yX c #92706C",
"uX c #AD716E",
"iX c #C4664F",
"pX c #C67845",
"aX c #C9714A",
"sX c #D9843C",
"dX c #E1873B",
"fX c #A6845A",
"gX c #B78655",
"hX c #998468",
"jX c #8F8471",
"kX c #A68965",
"lX c #AC926A",
"zX c #B89768",
"xX c #AE9272",
"cX c #C98549",
"vX c #D78847",
"bX c #C78857",
"nX c #D28F58",
"mX c #E2A05D",
"MX c #C99467",
"NX c #D0A76D",
"BX c #5F4A80",
"VX c #705784",
"CX c #54708A",
"ZX c #72748A",
"AX c #8F7388",
"SX c #9B7082",
"DX c #738494",
"FX c #5A8AA5",
"GX c #6B8EA7",
"HX c #8C8B8C",
"JX c #898A94",
"KX c #ACA090",
"LX c #CC958F",
"PX c #C6AF87",
/* pixels */
"o o . . . . . . . X X X o X X X X X X X o o o X X X X X X X X X X X X + X X + O + + + + + + + + + + + + + + + + + + + + + + + + # # # # # # # # # # * * * * & & * * * * * * * & * * * * * * * * * * * * * * * * * * * * * * * * * * * * * * * * * * * * * * * * * * * # # # * # # # # # # # + + + + + + + + + + + + + + + + + + X X + + + O O + X X X X X X X X X X X X X X X X X X X X X o . . X . . . . . . . ",
"o . . . . . . . . . . o X X X X X X X o o o X X X X X X X X X X X X X X X X + + + + + + + + + + + + + + + + + + + + # + + + + # # # # # # # # # & & * * * * * & * * * * * * * * * * * * * * * * * * * * * * * * * * * * * * * * * * * * * * * * * * * * * * * * * * * * * * * * # # # # # # # + + + + + + + + + + + + + + + + + + X X + + O + + X + X X X X X X X X X X X o o o X X X X X o . . . . . . . . . . ",
". . . . . . . . . . X o X X X X X X o o o X X X X X X X X X X + + + O O X + + + + + + + + + + + + + + + + + + + + # + + # # # # # # # # # # & * * * * * * * * * * * * * * * * * * * * * * * * * * * * * * * * * * * * * * * * * * * * * * * * * * * * * * * * * * * * * * * * * * & # # # # # # + # + + + # + + + + + + + + + + + + + X O O X + X X X X X X X X X X X X X o o o X X X X X o o o . . . . . . . . ",
". . . . . . . . . X X o X X X X X X o o X X X X X X X X X X + + + + O O X + + + + + + + + + + + + + + + + + + + + # + + # # # # # # # # * * * * * * * * * * * * * * * * * * * * * * * * * * * * * * = * * = * * * * * * * * * * * * * * * * = * * * * * * * * * * * * * * * * * * * # # # # # # # # # + + # # # + + + + + + + + + + + + + O X X X X X X X X X X X X X o X X X o X X X X X X o o . . . . . . . . ",
". . . . . . . . o X o X X X o o o X X X X X X X X X X X X + + + X O O O + + + + + + + + + + + + + + # + # # # # + + # # # # # # # # # # * * * * * * * * * * * * * * * * * * * * = * * * * = = * = * * * = = = = = * = = = = * = = = = = = * * * * * * * * * * * * * * * * * * * * * # # # # # # # # # # # # # # + + + + + + + + + + + + + + X X O O + + X X X X X X X X X X X X X X X X X X o o . . . . . . . . ",
". . . . . . . . o o X X o o o o X X X X X X X X X X X X + + O O X X + + + + + + + + + + + + + + + + # + # # + + # # # # # # # # # # # * * * * * * * * * * * * * * * * * * * * * * * * = = = = = = = * * = = = = * * = = = = * = = = = = * * * * * * * = = * * * * * * * * * * * * * * # * * # # # # # # # # # # + + + + + + + + + + + + + + + O O O + + + X X X X X X X o o X o o X X X X X o o . . . . . . . . ",
". . . . . . . . X X X X o o o o o o o o o o o o o o o X X O X X X X X O O O O + O + + + + + + + + + + + + + + + + + # # # # # # # # # # # # # # # # # * * # # & * * * * * * * * * * * * * * * * * * * * * * * * * * * * * * * * * * * * * * * * * * * * * * * * * * * * & * * * * * # # # # # # # # + + + + + + + + + + + + + + + + O X O X X X X X X X O o X o o o o o o o o o o o o o X X X o o X . . . . . . ",
". . . . . . . . o X X X = i s b b b b b b b b b b b D b D D D D D D G G G G G G H J J J J 5.5.5.J 5.5.5.5.5.5.5.5.5.k.k.k.k.k.k.k.9.k.k.k.k.B.B.B.B.B.B.B.B.B.B.D.D.D.D.D.D.D.D.D.D.D.D.D.D.D.D.D.D.D.D.D.D.D.D.D.D.D.D.D.D.D.D.D.D.D.D.D.D.D.D.D.D.D.D.D.D.F.D.D.D.B.B.F.B.B.B.B.B.B.k.k.k.5.k.k.5.5.5.5.5.5.5.5.5.5.5.J J J J J J J J H G H G G D D G G D D D D D D D D D D D b b a = X X X X o X . . . . . . ",
". . . . . X X o X X . y 5.N.N.N.V.V.V.V.D.D.D.D.D.D.D.D.D.D.D.J.J.J.J.J.J.J.J.J.).).). X X X X X X X X X X XXXXXXXXXXXXXXXOXOXOXOXXXOXOXOXOXZXZXZXDXJXZXJXJXJXJXJXJXJXJXJXJXJXJXJXJXJXJXJXJXJXJXJXJXJXJXJXJXJXJXJXJXJXJXJXJXJXJXJXJXJXJXJXJXJXJXJXJXJXJXJXDXDXDXZXZXZXZXZXZXZXZXZXZXOXOXOXOXXXXXXXXXXXXXXXXXXX X X X X X).).).).).).).).J.J.J.J.J.J.D.D.D.D.D.D.D.D.V.V.V.V.V.V.N.N.N.J y o X X X o o . . . . . ",
". . . . o o o o X o X J.J.i = i i i i i i i i i i a a a a a a a a a a a b b b b b b D D D D D D F D D D D D S G G G G G J G G G G G G J G J 5.5.5.5.5.5.5.N.N.B.V.V.V.A.Z.A.S.S.S.V.V.V.D.V.D.D.D.D.D.D.D.D.D.D.D.D.D.D.D.D.D.D.D.D.F.B.B.B.B.B.B.B.k.k.k.5.5.5.5.5.5.5.5.5.5.5.5.5.5.5.4.4.4.G J J H J J 4.4.J G G G G A A b b b b b b b b s D b s l a i y i i i s l s i y y y y 3 s E.E.O X X X X o . . . . . ",
"X . . o o o o X X o +  X X3 v v x v v v v v x N x v N N N N N N v b b S J J K ( M.C.Z.L.I.I.W.!.S.C.A.N.5.5.6.<.<.6.6.6.7.6.7.7.8.8.8.1.N N 8.x.x.x.x.x.x.x.x.B.F.D.G.S.T.T.T.T.T.J.G.G.H.H.H.H.H.H.H.H.^.H.H.^.H.H.H.H.H.H.F.x.F.F.F.F.F.F.F.F.F.F.x.x.x.x.x.x.x.x.x.x.x.x.9.7.x.x.x.e./.{./.8.6.6././././././././.a./.F.a.4.G 4.4.4.G G S J H D I.| N N Z.P.V ( P.U.$.^ D X. .i S y oXOX+ o X X X o X . . . . ",
"o o o X X o o X o o +  X Xi x e e e e e i 4 1.x.J e x i x x i j  . .L.b K ( )  .O.U.X.) U.9X7XX.K ( L.M.H N b H i.K N N <.1.1.1.1.-.t v N x M 8.w.6.6.3.<.S 3.4.i.p.K.#.%.#X#X%.#.$.A.u.i.9.9.8.8.8.8.8.8.7.5.8.8.8.8.8.8.8.6.5.<.8.6.6.8.8.8.6.8.6.6.6.6.6.<.S 6.8.6.6.6.6.3.G 6.6.6.6.e.].{.a.N M h./.a.>.6.a.h.h.a.h.a.a.4.G H G G G b N b i O.X.x v a 4X6X4XW.$.....o.$.&.O.i N a  X.X+ o X X X o o X . o . ",
"o o X X X X X o o o +  X Xi x e e e e e i e l.c.H.b 5 x x x F | p ^ X.b F  .Z.W.4XW.F E.C.Z.| D.!.D C.( S.I.W.I.C.N.V.5.1.8.w.1.M G J.E.H.H n c.v.8.6.6.G C.4.i.M.K.#XwXcXcXcXcXwX#X%.K.A.N.i.9.9.9.9.9.7.N.!.7.8.8.w.8.8.8.3.!.M.6.8.8.8.8.8.8.8.8.8.8.6.6.N H 1.6.6.8.8.6.N 4.6.6.6.6.<.6./.]./.a.a.a.N C.M.N e.h.a.a.a./.u.C. .( K H G N v ^ I.i i i F 7X4XO.a 3 D i 5 j ..O.l i a  XoX+ o X X X X o o o . . ",
"o X X X X o X o o o + oX Xi x e e i i b x e l.v.b.J.b e v i L.X.C.( i s D o.U.L.O.X.G H. XH k. XQ.V Z.K M.Z.W.E.k.w.x.(.v.q.M 3.Q.jXoX).).S.M v.v.w.6.<.V.!.i.u.$.#XcX;X*XqXqX5XwXnXqX@X#.A.M.i.9.9.9.9.7.K W.A.3.9.9.8.8.8.3.7X7X4.6.6.6.8.8.8.8.8.8.8.7.6.G N.<.6.6.6.6.6.K J N 6.6.6.6.6.g.a./.{.a.;.M.0X0XH ;.a.h././.G.C.X.| ( 5.H b b b P.( v I.W.W.4XF r r r 5.b r e 5 ^ X.X.l  XOXO . o X X X X X o . o ",
"X X X X X X o o o o + OX Xi i i i e M H.5.4 1.v.b.(. XN.i e s D a b V 7XP.L.O.M.Q.P.W.H k.D.F.|.Q.D L.i.b I.!.G.c.n.n.v.-.3.E.jXtX X X X X!.N v.v.c.1.w.).Q.( p.%.cX=XfXPXKXPXPXkX*XcXnX=X%.K.A.) 5.9.9.9.5.M.A.5.8.8.8.8.8.4.E.R.!.3.6.N 8.8.6.6.6.6.6.6.6.( C.<.8.6.6.6.3.M.H G 3.6.8.3.e./.;.;././.;.i.9X7XJ 6.a.G.A.N.( i.D.H.(.H.H.J.G.K | v b 7X0X7X .x.<.x D ( D i r M v ) &.F oXOX+ o X X X X X X o o o ",
"X X X o o o o o o o + oX Xi x i i 5 -.v.z.v -.b.b.b.(.|.S.a x e Z.7X!.9XI.W.W.I.!.O.7X7XM.x.(.XXQ.D C.D Y.7XN.w.b.v.1.9.Q.hXhXtX~.~.~.tXQ.tXG v.b.c.q.n.F.) ~ [ 5XpX0XPXHXHXKXKXPXPX6X=XnXcX$X%.#.` i.i.9.i.C.J 3.8.8.8.8.8.5.A.v E.A.G H 6.8.6.6.6.6.6.<.N M.Z.<.6.6.6.6.N C.K K 3.6.8.6.6./.a.S a.].a.N J A.u.a.G.G.I.K 4.5.S v x r r M x.).V.i e  .7XW.V. Xk.I.9XW.U.O.b 6.w.G O.z .XOX+ o o X X X X X X o o ",
"X X X o o o o o o o + OXoXi x a 9 u -.c.v.1.M b.(.B.c.b.).V.D ( 7X7X!.!.I.X. .P.W.L.O.Z.L.3.|.XXQ.b F Y.9XV.1.c.v.M J.hXkXhXkXkX0XhX7XM.b tX( v.n.v.n.b.<.X.K.[ wX=XPXHXxXxXxXxXxXxXPXzX5X;XnXqX$X%.Z.M.Z.W.L.N 7.8.8.8.8.8.i.A.M i.T.G K <.6.6.6.6.<.6.N H C.L.G 6.8.8.6.V L.M.M.S 6.6.6.3.a.e.J.H.a./.h.a.E.T.a.K.W.C.B.A D ( J.Q.Q.D.1.r r k.J.i L.9XX.4.V.W.9Xz w s X.) 6.e.3. .l oXOXO o X X X X X X X X o ",
"X X X X X o X X o o # OXoXi i a u E N v.b.8.r c.(.V.4 c.(.J D P.9X( ( Q.Q.i I.fXfXfX0X7XZ.v (.|.Q.b W.0XP.7.w.v.v.r 9XkX0XkXkXkX9XZ.x r r ~.C.q.n.`.n.x.S Z.8X@.pX*XPXhXxXzXMXNXNXMXMXNXNXfX$XpXnX=X%.#.6XgXO.5.9.9.8.8.8.7.i.N.<.G A.H K N <.6.6.3.J 6.4.Z.L.I.J N 3.6.<.M.I.Z.Z.v 4.6.6.6.6.;.H.OXF.e././.T.G.N.7XU.G G i..XKXKXxXlXtX|.(.-.4 5.A.| 7XF x b 0X| e x e i ..D 9.5. .l oXOXO o o X X X X X X X o ",
"X o o X X X X X o o # OXoXi r e i _ V v.(.N 4 <.(.J.v 8.M i D J.!.V b D.V.S S.fXfX~.!.| S.M.F.|.Q.^ 7XI.W.M.8.v.v.r I.kX0X0X9XC.i 4 -.v.1.E.I.1.`.n.w.6.3.Z.8X$XpX&XNXfXgXNXNXfXNXNXNXMXfXzXNX6X$XcXcX$X@X*.` u.i.9.9.9.8.6.a.a.;.m ( C.( ( <.6.6.G i.<.M.Y.Y.W.K K G S N Z.!.Y.I.( K N 6.6.6.N H.).|.(.<.6.i.S.7X8X) x H ~.KXzXzXzXzXzX~.|.`.1.4 b b P.D x D 0XF x v x i &.F S b O.F oXOXO o o X X X X X X X X ",
"X o X X X X X X o o # OXoXv 3.;.i _ k l.b.9.5 5 x.H.V.D.D.G.K V.Q.F ( N G i.I.I.!./.J.t <.5.^.'. XD 5.-.i.!.9.c.b.t C.kX7XC.i 4 t c.n.n.l.N.tX1.`.v.6.S N X.6XqXvX#XNXgXMXNX#.~ _ W.MXNXgXMXNXNXgX*X;XnXwX@X#.o.u.i.5.4.G J F.7.x x  .L.P.L.N <.N ( M.b I.7X7X7XC.Z.| ( ( I.7X7X7XW.C.K b N <.;.H.F.r c.^.;.B.4X0XW.v b S.xXzXzXzXzXzXzXtX|.|.w.r e V.( F x a 4XX.e x e ! W.j e i L.l oXoXO . o X X X X X X X X ",
"X X X X X X X X O o # OXoXb c 5 j _ Y ;.c.F.x m a.G.G.G.G.G.E.V.Q.K i n v E.L.J S.F.J.r ^.e.^.'.[.m v.0.-.C.N 1.v.1.K yXb < 6 q.n.`.`.`.v.4.tX4.n.`.v.6.N ) 6XqXvX#XNXbXMXfX~ ~ ~ ~ o.#XgXmXMXMXMXNXzX*XwXcX*X%.%.K.) M..X.X[.i.Z.P.7X8X7X7XS.C.S.7X!.W.0X0X0X0X0X0X0X9X7X0X0X0X0X0X0X9X7XI.C.( D.'.c.t w.5.I.0X4X( 5.4..XxXzXzXzXzXzXzXkX|.|.c.;.x 5.G | i i ! &./ F ) W.O.i e s L.s .X.XO o o X X X X X X X X ",
"X X o X o X X X o o # OX Xa t.p h ` h 9 a.s.u.s.s.s.t.5 m G.M.5.J.A.b r ( I.i G N.B.J.v e.e./._.[.N v.1.r G M 1.l.q.v tXG -.l.n.`.`.`.`.n.;.Q.H v.`.`.`.F.Z.5X$XvX#XzXwXnX0XY #X;X*._ p.$.fXNXmXbXnXmXNXqX*XcXcX$X%.#.7X}.[./.! Y.4X4X4X4XY. .( C.W.W.Y.7X8X7X8X4X7X7X7XW.7X0X0X8X0X9X7XI.M.( V D.3.1.c.<.4.Z.4XC.J.J.B.jXxXlXlXzXzXzXkXtX(.|.w.;.G F F U.F v ( / $.&.U.X.i i w O.O.s  XoXO o o X X X X X X X X ",
"X X X X X X X X O o + oX Xi 9 Q C p 3 Z p.s.p.Z q d._ 5 A A.p a S.S.!.| I.V D C.i N F.4.7.F._.{.[.v :.8.8.M -.6.8.q.e 9XC.q.n.n.n.`.`.n.n.-.J.u.q.b.`.`.(.7X1X%.cX#XMXwXbX5XW cX-XvXgX&.p._ Y.zXmXnXnXnXNXNXqX-XnXwX$X2XR.T.p.V V O.K.o.O.o.m ;.M F ( x L.Y.Y.W.^ ) ^ D D L.7XW.Y.L.) b M ;.3.N J.<.x N x.N P.L.S.J.B.Q.V.E.xXtXlXtXtXhX X(.c.r n G C.Z.U.W.) Z.O.^ / X.i x e F L.) D  X.XO o o X X X X X X X X ",
"X X X X X X X X O o # oXXXi 4 1 Q T p Q y.Z p 5 1 [ %.p ) j O.Z.I.I.W.W.C.x D fXW.a 6.8.i b x >.F.N w.e.6.-.M <.8.c.r L.S.1.b.b.`.`.v.1.3.3.G.G.1.q.c.`.8.Z.&.%.cX#XgXwXbX4XW cX$X%XwXnX6X#.~ _ 4XNXmXnXnXmXNXMX=X;XcXwX@X[ ~ ) H ^ )  .F F N 1.<.b H M ( L.Z.L.V V v v x  .P.Z.K.V b M <.<.3.N J.N 3.M 7.3.W.K.N.7.<.V.4 4 J..X XtXjX.X).|.-.< x ;.K I.P.6X4X$.O.O.) ) s 5 ) L.` / j  X XO o X X X X X X X X X ",
"X o X X X X X X X o # OXoXi e 2 1 h T k 3 1 _ C 5 T 1X_ k f p j X.Y.8XW.C.D i L.X.!.A e.C.9XJ 5 4 :.1.-.1.5.V.E.G c.-.( E.M c.w.n.v.5.!.7X[.[.G.-.-.r w.x.i.p.@XcX#XbXqXbX4XW cX%X@X+.@XcXnX&X_ p.K.0XNXmXbXbXMXNXfX*XcXpX$X%._ ) C F ) D v N <.<.N A <.N ) ^ ) b M <.6.m F o.D ( x N 3.<.<.<.N H.M <.N ;.3.Y.Z.<.1.M J.5 4 4 D.D.).7.5 r c.<.4 B.B.N.C.) 8X4XU.P.P.X.^ X.O.$.` / ) j  X XO o X X X X X X X X X ",
"X o o o o o X X X o # oX Xy i p [ _ h k Y 7 [ T 9 T %._ %.1XU.p y / P.j i ( a C.i F i ;.6.| H V.V.6 x i.E.[.J.S.<.v.1.D !.b n 1.v.4.0XzXtX]././.n -.x x N F.A.%.cX#XwXqXwX8XW cX$X#._ _ #.$XbXgX*.p.p.P.fXNXbXqXqXMXNX6X=XnXwX@X[ ` Y k V M ;.<.<.N m 7.,.b H K x <.<.6.;.a ( b D m 3.3.;.N N v D.M <.v x 4.Z.U.N -.i..X4 < v ~.B.4 < < < n w.N 9.E.9XY.V U.4X$./ / / ..O.` / z 3 i a  X XO o X X X X X X X X X ",
"o o o X o o X X X o # oX Xj [ ' %.[ k h T T _ E h _ [ @X$X{ *.O.V V 3 2 O.U.a Z.i t -.t :.4 M.!.P.N E.E.a.6.H N w.c.1.v !.H M c.q.K.zXyX/././.].m 1.1.;.m 9.p.%.cX@.5X3XqX4X_ cX$X_ ) u.~ [ %.qXbXwX#.p.p.U.gXMXqXuXuXMXfX@X=XcX=X%._ p.u.7.<.3.a.s.].].].h.,.H M <.<.<.<.N ( x b v N v V..X XH.H.x N x N 4.N.W.K.i Q.xX!.S.V.G 9.r < < < ;.8.9.9.!.I.u.s L.U.F ! ` ..` ^ / ` z 3 x a  X XO o X X X X X X X X X ",
"X o o X X X X X X o # oX XY @X[ U W [ %.[ Y F H K K ! T %.{ [ P.5 4 Z.F a ! F ) N v.^.r.x A.I.8XI.c E.G.^.^.r q.v.c.v.x P.H -.`.1.T.tXG.a.g.h.s.-.`.v.<.<.9.p.R.uX#.5X2XqX4X_ cX+X_ i.5.u./.VX}.eXwXbX5X_ y.A.7XzXuXeXeXeX7XK.@.wXqXeX].].}.s.].].s.u.B.B.s.j.m n N ;.;.;.m G x x N v J.OXXX'.'.F.n N N N N 5.C.Z.Z.N.J..XhXH 4 H.F.<.4 5 x.M 3.9.E.A.G.V ^ p < < ! O.j 4 y z p 5 x i  X XO o o X X X X X X X X ",
"o o o o X X X X X o # oX Xh Y E Y { @.U H 5.G x i i i x p T @X` < F 4Xa b ^ k K.G e.v.:.S.P.8X0XW.5 e.^._.7.M c.q.N G V Z.i.M `.<.G./.a.a.g.a.m q.`.v.<.3.a./.{.a.j / ~ _ ` E wX@X_ u./.{._.a.7.s.eX$XwXMX4X_ p.Z.4X4Xp.( s.eXR._ _ p.E.G.t.eXs.9.|.DXGXGX4.j.T.C.M.N <.;.v v r N <.5.XX_._._./.6.m ;.N N N J M.5.S.) 5 5.~.i 5 H.'.oX.XJ.F.5 r ;.;.4.4.F P.5 < < 9 j 3 i e 1 5 e V V  X XO o o X X X X X X X X ",
"o o X X X X X X X o # oX X9 d T { [ h 9.G 9 k _ T Y 7 , 4 4.~ i r i o.y / X.0X8XH r.^.-.V ! W.0X7XN ^.^.F.x 1.-.V 9XkX9XQ.A.e v.q.A G.s.a.a.x r c.c.2.a._.BXBX7.T.yXyXyXyXG.h rX2X].BX^.7.T.SXKXu.{.R.%.=XbXqXp.A C A.AXAXZ ].s.p.9XxXMXKX[.t.4.yXHXGXFXGXZXt.eX9XW.v M N M r r <.<.G E.[./.g.7.x N N N N N 4.V.S 5.Z.H S.xX!.S.).c.7.J..XH.r 4 -.6 N m / $.F , , < 4 5 e e 5 5 j O.b  X XO o o X X X X X X X X ",
"X o X X X X X X X o # oX Xp [ { { h 9.G p _ E V D M.J.N.v x <.x M A X./ V L.7XZ.N v.v.A i.x V 0X7X>.e.a.a.t 1.x 9XNXkX[.].T.i 1.n.-.5 9 x 6 r 1.1.<.e.BXa.>.u.S.uXnXnXnXMXeXF s.}.BX,.s.eXuXuXLX}.a.]._ [ %.eXu.T.yXKXKXSXV ,.p.qXuXwXvXbXyX3 8.yXDXFXFXFXJXC eX7XY.( K J N n n N v v b H A v x N N N N N N S G N M i.H J.tXhXjX X^.n < <.<.5 5 M <.e ^ ..k L.F 2 , 2 5 e 4 4 i X.b i  X XO o o X X X X X X X X ",
"X o o X X X X X X o # oX Xi h ' T <.i.d T p w.).~.~.hXxXxXQ.v < x V &.) n v i 4 0.v.3.A.a.^.>.Y.7Xm x 3.M l.-.Z.kXkXT.s.h.G.c M c.b.l.-.r M -.1.N N _.g.Z.) uXnXvXvXvXvXvXMXxX.Xi.c u.eXeXrXrXuXyX,.{.! ) T.h.y.eXuXqXuXSXF 9 %.,XaXwXvXnXtX< ^.GXGXGXOX[.OXB }.7X0X0X0X9XE.G e H L.D M N G H N N N N v b m m M m m N.J E.~.E.D.F.e.n r 6 a K./ F X.&.K.D j o.o.Z.j i 5 e s ) i j i a  X XO o X X X X X X X X X ",
"o o o X X X X X X o #  X Xa C [ h a.V h x c.'.tXzXxX9XzXzXxX~.4 r H 4Xb 0.e.6 -.v.:.A.u././.a.G.A.A x 2 r v.v E.!.R.a.a.a.p.4 <.6.1.v.n.1.x M N N N _.e.U.&.qXsXsXpXvXvXvXvXcXMXxXZ.V u.eXrX3XuXyXm _.3.4.{.u.2XrXpXaXqXuXM.9 R.qXR.qXsXnXI.* `.GXDXHX!.7 A m ].K.4X0XkXlXfXI.S.9X!.W.S N K K m N N N b K v N ( K G N m v C.E.D.B.6.n m G ( ) O.U.Y.$.o.V F ) i j L.) a a L.4Xz i i a  X XO . X X X X X X X X X ",
"X o o o X X X X X o #  X Xi Y U B u.3 5 6.(.).kXzXzX9XhXzXzXxXE.x V O.n r.r.-.:.0.u.A.a././.a.4.a.4.< 4 M 1.4 A.T.u.t.u.s.Z r <.<.N <.1.v x M N N m /.a.W #X$XdXdXvXvXvXsXsX,XpXvXMXP.c eXqXiXiXuXm _.3.9._.C 2XiX>XpXpXuXI.3 B p R.vXvXnX) * `.HXhXkXP.= = Z R._ o.Z.L.!.kXkX9XkXY.7XD M ( F x m m M V ( M b L.)  .| F v r v A v x x x v G x i ^ F D ) V ^ / s e 9 U.4XW.7X4XY.$.$.z  X XO . X X X X X X X X X ",
"X X o X X X X X X o #  X Xp _ f >.i.1 ;.e.(.E.0XfXlX9XI.W.zXxXtX5.V.D :.r.v.-.:.>.E.G.N.H m x 4 u.G.4 r M r 4 C T.p.s.T.Q 4 1.<.N v m N x M N N m x e./.Y $X@XaXaXsXsXvXaX,X,XdXvXpXMX) 2XaX>XaXuXc _.3.a./.g qX>XvXpX,XaX7X3 3 i 8XvXvXbXh 3 ).uXqXkXL.Z p.R.d.U f k u.A.P.kXfXzXfX^ r M (  .i m m m D | x x ( b i a F C.K G M.M x i F ^ F i V F D D ) V / / j 5 3 $.4X4XU.$.$.&.$.F  X XO . o X X X X X X X X ",
"X X X X X X X X O o #  X Xu _ 0 A ( 9 ;.e.^.E.0XfXfX0XhXW.kXhXxXQ.K S.6.v.^.:.t 6 x 9 V r 0.e.A j N 4 r x x M 4 9 ~ p.9 4 <.6.;.v K v N x v N m M x ,._.8 2X{ _ 1X,X,XnX#.%.>XdXpX>XvX4XR.aX,XpXyXc _.>.a.a.*.vX,XwX5X,XpXgXV A ~ pXdXvX6X7 A ).kXqXkXS.p d.qXwX@.P f 7 V A.K.fXfXW.i M M ^ Z.b v N N D ) a b V F ( C.V x ^ D M.a  .U.O.X.L.$.^ F | b ) p / / p z o.Y.4X..F y 3 R o.j  X XO o o X X X X X X X X ",
"X X X X X X X X X o #  X[.9 Y d x b x 6 -.c.^.!.9X9X0XhX9X~.tX!.S.i.V.5.r.v.0.:.1.-.C ) 1.v.8.` 9 4 r 5 x ) N 1.-.N v e <.<.N N v X.N N x D v M v x A VXm h = 0 2X,X,XnXR = Y 3X,X,X,XqX[ ,X<XvXeXc _.N _.4.qXsXvX5X[ ,X,XnX` m p.vXdXvXY.9 t.H.HXtXyXE.b K.1XqXcX$XT d 3 i u.K.fX0X .5 e ( U.V i v v D ) D V x  .s ) L.o.i i a L.U.b x x x F Z.( S.F K.o./ j i ) 4X1Xo.3 F ^ w 9 ..j  X XO o o X X o X X X X X ",
"X X X X X X X X X o #  XJ.9 W U x G x 2 6 r w.F.Q.7X9X~.Q.E.Q.w e G 4.N e.v.0.0.v.0.! a t 0.3./ < v v 5 x  .v 7.7.7.3.<.N N m M v X.b N v ( v M v x s _.e.1 5 0 3X,X<XnX/ 9 3 [ aX>X>XwX{ ,X<XnXT.m ^.7._.) vX<XvX#.C aX>XvX&./ ` wXdXvX4XB ,.9.DXZXZXDX|.Q yXkX*XnX+XU 8 = v u.7XfXU.V D ^ Y.s ( i i  .) ! X.x G  .x i ^ Z.b ! Y.3.-.M x x F ) p P.! K i b 2 9 5 / &.k e k U.p 5 ! F  X XO o o X X o X X X X X ",
"X X X X X X X X X o +  XJ.u { ' m F.x 5 4 6 r E.9XQ.tXhXtXF.v , N 5.n n v.v.0.0.0.M D S.G :.F j 4 v x 4 a X.x N N G N N N v v v e Z.v v i X.v M v x p ,.{.{._.B 2X>X<XvX$.a.a._ aX:XaXuX@X,X>XuX~ >._._.g.U.sX<XqXf p qX,XpXaXbX7X$X,X,XuXC.B.ZXGXFXDXCX|.V [.KXxX=XwXI : 3 1 i.P.fXW.| l F W.j  .s i P.) ^ P.b v D X.D x D ) &.u.q.w.6.m v o.X.F  .( 4.5 4 1 4 3 F ` j i j ` i 3 / F J.Q.O o o X X X X X X X X ",
"X X X X X X X X X o +  XJ.u { @.h 8.v A 4.x x E.i < 5 S G V.N.< 5 E.x 1.v.r.1.N N.E.!.tX( r ! 9 5 v x 5 ) K.i V Z.v v m v b v v a L.i x V K.x v v i F z A ,.{.c 2X:X>XpX*.q H 5X,X>XaXeX+X>X3XuXB a._.,.Y =X,X>X3X1XqXaX,X>X:X,X8X$X,X>XaXxXHXGXGXGXFXZX3.c ).ZXPX#XcX+X: 7 < A A.0X4X) j / Y.z O.Z.p U.X.X.Y.F x x b ) v x p P.9.v.c.1.N F ^ X. .V I.A K V F 7 j ..` ! 3 1 5 e p o.j J.J.O o X X X X o X X X X ",
"X X X X X X X X X o +  XJ.u [ ' 8 c ! Z.i.i.N 3., , , $ < B.S.N.E.~.G 0.1.4.S.Q.[.).).Q.M.4 C < 5 v x V O.$.F j O.i x v x o.b F o.U.X.j Z.L.j D b F X.X.u m _.c 2X3X:XiX6X&.qX>X:XiXuXd.-X:XiXeX7 _.a.%.3X:X:X:X:XaX>X:X:X>X>X>X2X2XaX-XwXuXAXDXCXGXGXGXF.c '.ZXPX4XwX=XP 7 < 9 u.4X4XF y ..Y.P.U.Y.o.W.U.U.Y.$.j i 5 b v r i ! <.w.e.6.b X.x C.b ( 9X^ ) ` W %.f u ! ` ! y i j ..o.j J.J.O o o X X X o X X X X ",
"X X X X X X X X o o + E.J.y k h 3 A A.Z.A.4.N N 5 , , < N 9.2 V.Q.N 4 K P.Q.[././.E.E.7XX., V 5 i a F U.U.L.O.X.X.X.a b j P.X.U.W.4XW.O.Y.U.$.Z.) O.o./ j G.g.y.eX3X3X3XiXiX3X:X3XuXu.d.:X:XiXR.9 BX,.2X3X3X:X:X3X3X{ { 3XiXaX1X7 u.uXuXuXAXZXx.7.GXZXGXZXm '.ZXPX%.-X=XU 7 < 5 i.Y.4X$.h X.4X4X4X7X4X9X4X4X4X4X4XP.X.)  .V Q.N.a ( ( V ) b K M.G F F F ! o.@.$X%.T j o.../ ` o.o.` p J.J.O o o o X X o X X X X ",
"X X X X X X X X X o # E.J.9 i 3 5 >.,.E.A.H m c 5.e V S. XV.< i N.6 v 7XR.T.T.R.1XY.) / Z.< V j F O.Y.4X4X&.4X4XP.Y.O.Z.U.U.L.Y.4X8XY.U.P.W.U.K.$.o.o.^ z /.a.p.eXeXrXrXrXrXrXeX}.t.3 R.:X%XuXu.>.VXm s.}.f.3X3XeXq * h 3X3XqXuX7 1 A G.G.B.v = v ZXZXZXZXb '.HXNXT wX=XU p 5 i u.4X1X1X..X.Y.Y.Y.U.O.W.U.Y.4XU.` j j V a 3 V.jXJ.b 3 p s a | b C.V ( ( o.W +X$X$X+.R ` k ! / R k / p J.J.O o X o X X X o X X X ",
"X X X X X X o o X o + J.J.y 3 9 9 >.7.4.4.c m m E.!.9X!.J.J.H S.~.G x 1X2X2X1X#.C x 5 D L.4 < i 1 p / / 4X$.P.F O.X.s 1 X.X.i V o.4X&.K.O.4Xo.j j O.O.F z a.a.Q eXeXrXrXeXeXj.Z 3 * 3 2X3X3XSX7 ,.g.F P.Y.Z.d.rXSX9 3 0 rX3XrXSXH 3 z 7X!.7 9 ,.v ZXZXVXDXG .XPXY._ cX+X` 4.;.b Z.8XU.o.C / U...O.) p L.....U./ 5 5 r x x e a .XoX.XE.i.4 D i ) K D M.F X.g @X@X@X@XT U Y h ! 3 3 y i J.J.O o o o o X o o o X X ",
"X X X X X X X X X o + J.J.3 3 f g q m >.>.x 4 x G.Q.N.v 7.J.~.hXtXi.9 #X@X_ p n 0.0.m j L.4 6 i s 2 4 y R O.X.5 s i x x ) o.x x F U...F ` Y./ i i ^ ! a y ,.h.7 t.eXeXeXeXOX3 * 9 >.m 2X3XuX[.s A.R.rXuXuXuXp.eXSXB a.Z eXeXeX.XF.j kXMXyXc _.{.N ZX}.}.JX5.P.Z.y.#XcX%.E.G.6.H L.Y...j 2 z P.j ) 9 9 O.! R &.i e x x x x x 4 S.G.u.K.E.G.5 V ^ V C.c o.b 4 8 d 8 @X$X+X@XU 3 i i i i D.V.X o o o o o X o o X X ",
"X X X X X X o X X o O J.J.3 5 g { 7 m A m n < 1 m m < x a.G.E.L.S.V.x #.h -.0.r.r.r.-.i P.x 0.5 ) 1 4 i i $./ 5 x x v x ^ X.x x a o.! 3 F O.^ x i V ( i.A /._.1 q ].eXeXeXJXA ,.{./.a.eXeXyXoXSXuXeXeXeXeXSXT.T.SXZ a.B }.eX].XXXXK.uXrXuXJ.4.4.XXAX{./.ZXK B t.#.cX$X1X[.(.4.M.U.$.! 9 i z P.p F i 5 / ! j X.i x x x x x x 4 F E.< 1 p u.i.i 3 F b / z < < , i 3 { +X+X$X@Xd f T W p G.V.O o o o X X X X o X X ",
"X X X X X X o o X o O J.J.3 3 d { ' 0 1 5 2 8 T * $ $ 5 >.3.N.E.C.v n #.m r.v.r.0.-.n x L.x 0.t / j w i i K.^ x x x x v V F x x x ) ! r w j j D S.G.e.m a./.A i 9 /.}.eX}.AX).a.VX,.{.eXeXAXSXeXeX}.eXeXeXAXR.p.AX,.,.A {.{.].VXZXs.eXeXyXJXJXJXAX}././. Xj f *.bXqX1X[.).9.) O.&.#.! 3 i F $.i i i 5 p F p p 5 x x i x x 5 D j S.v b 4 9 t.i ( 5 F ` ) a 9 3 s 3 W U T @X$XW @.$X@Xj V.V.o . o o X X X o o X X ",
"X X X X X X o o X o O J.J.3 3 u W @.@X{ T - T W 3 $ $ $ 9 v N b x 0.-._ V r.r.-.m a.a.v Z.v w.i.y O.p p 5 O.^ x x 1.<.M e 5 r M x ( ! v r p Z.A.7.6.x 5 /.,.XXD.= a.].VXVXZXAX3.h.>.VX}.}.}.}.}.{.}.ZXZXVXVX}.u.].9 m e.VX'.'.CXZXa.VXVXVXVXZXVXVX{.h.).V.f 2XpX*XR.E.).9.! o.P...O.p 5 e F o.i 5 x i p F 1 3 e x x i 5 a  . .3 ( i.5 v 9 A H m V / ` Z.P.4X*.X.= @.@.; @.$X' E @.@Xg V.V.o o o o X X o o o X X ",
"X X X X X X o o o o O J.J.3 i 3 g W ' { @.d Q y.Z 5 1 < @ $ $ < ;.-.6 ` h :.n ,.h.h.a.m ` u n P.p ^ K.a e ^ V i i <.N 1.N n q.v.t V F x b E.G.;.1.:.M v ].4.VXOXb 4.a._.'.|.ZX(.3 F.ZX{.}.{.{.ZXZXZX'.c.6.>.A s.A 5 m c.CX'.`.CXDXa.{.}.}.}.{.{.]./.(.OXj _ 2X' _ p.i.H ) Z.P.../ o.F i x j F 1 x x i a F 5 5 s e 5 a  .Z.F p D i A.5 x e x r F ) x F $.#X#X&.3 7 @X$XU @.+XU 7 Y T p V.V.X o o X X o o o o X X ",
"X X X X X X o o o o O J.J.3 v i d T g E _ h u.t.Z a.B t.9 q 1 m a.m < ` h 4 t.h.s.s.a.>.! d , V K.9 L.V 4 i 5 x i i x x x v.`.n.v.v y s T.F.;.F.N e 5 3 ].,.'.ZXZXXX'.b.CXCXGX(.* 5 (.CXXXZXZX|.3.3 * * A h.].,.7 t.>.3 e.CXFXCXCX8.'.VX{.].]./.F.(.(.J 7 ].d.P f k !  .L.P.$...` ! o.j i j j 4 x x i i D 4 i Z.j  .X.F p | X.s i ) c 1 < 5 ^ / ;.v.1.A F ! p 2 3 g @XW @X$X+.7 9 3 y V.V.X o o X X o o o o X X ",
"X X X X X X o o o o O J.J.3 i i u E u p j p ,.>.Z s.Z s.q ,.q >.s.,.4 E Y ,.s.s.s.Z C C _ k h 1 ^ O.j X.l 1 i i i v c.N M v.v.q.v.w.1.u.u.5 e XXG i i 9 s.Z F.CXCXCXCXCXCXJX|.1 9 3 1 (.CX|.3.= * 3 x 9 * m t.8 B {.a.= = x (.CX|.8.b.1.c.(.(.`.m.z.w = t.].T W ` X.O.K.$.` / P...j / o.e s a 5 i i s z (  .X.Z.U.p p ^ X.j i ( D c u.1 9 ! k m c.v.v.v.0.:.< < 1 3 g U @.+X' = 2 1 y V.V.X o o X X X o o X X X ",
"X X X X X X o o X o O J.J.y y 3 d E 7 i 3 h m ,.t.t.Z s.q ,.q >.,.q 1 Y E t.s.s.Z O.fX5X1XY ` ! * X.! u Z.D M v i x 1.;.w.-.4 1.b.b.v.c.x 2 1.(.5 i i 5 s.t.v CXCXCXCXCXCX9.3 9 ].].9 3 n = * m g.].].].,.= 3 B j.s.u.4.9 = = M S 1.1.* * 3 w w 2 * 1 t.].Q f R ! / ~ ~ ! ~ V 3 F / X.y i F  .Z.Z.X.O.^ z j s F Y.^  .s y j F y b C p.i F b n V J.q.w.v.0.n x 5 < 1 1 d @.@XE Y ~ V i V.V.o . o X X o o o X X X ",
"X X X X X X X X X o O J.V.u p 3 p E 9 n 9 ~ Z t.t.t.B a.q B t.m h U.%.[ U ,.s.t.k 8X5XK.p.k = &.k 3 j $.p L.J q.N 1.v <.v.t r v.c.1.-.q.<.v v.1.5 i 9 i u.j.= 3.|.CXCX|.S * = f.2XT./.9 = m h./.u.C U _ eXf.9 t.u.E.}./.a.t.7 = * x 3 Z t.B 8 7 9 ,.].h.c ; d k ! ! ! ! k u 5 x 5 j ^  .O.) z j j F L.) ^ |  .F ^ j V ( ) V 1 Z.!.K.s.m n 8.N j V.0.l.v.-.q >.H S.i V Y { %.~ Z h p i N.N.o . X X X X o o X X X ",
"X X X X X X X X X o O V.V.3 = = 3 _ V n n ~ B t.t.,.0 K._ 9 t.h 8XkX5Xd.k Z s.t.E R.d.u.p.8 4 h *.j , k o.j Z.-.q.q.-.1.q.1.c.v.q.q.m ;.N ;.`.N 5 x 9.D.4.].C = i S z.J - 7 f qX] f t._._.{.t.8 > U ' +XpX2X( [.}.}.VX}.eXK.C ,.9 7 8 eXeXeX}.].].s.Z = * = - g ! / / p i x x i ! X.~ z ! V ) ) ^ F ) o.b V j D F p j V v 5 Z.0XP.G.e.6 M G !.Z.A.q.v.e.>.H S.7X9Xi 9 B Q Q h } *.^ 3 N.N.o o o X X X o X X X X ",
"X X X X X X X X X o O V.V.3 3 = 1 Y ~ ~ H ~ k B B B d W f c Z W 5XR.K.p.h Z s.Z 7 _ d.d.C r 0.=.h %.p $ ! h p p J N.V.V.V.V.G 1.w.1.v ,.x q.b.9.9.|.|.c.b C ].t.3 * = 7 _ #.~ gX] U ; c A p 8 U T +X;XwX%.I.AXAX}.}.yX8X#.( u.~ %.R.R.2XI P Y 0 8 9 9 9 < < 3 y 7 d p i m v ^ o.z y i X.P.! b a j F ^ X.! ) ( D p j = V ! u !.!.G.e.6.2 5 $.0XC.A.c.v.>.^ W.W.4X!.= o.Y.P.O.#.*X&X! y N.N.o o o X o o X X X X X ",
"X X X X X X X X o o O V.V.3 3 y p x ;.A E k Y R Y g 8 h y.Q _ g [ _ p._ 3 ,.s.Z 6 5 9 9 t 0.r.r.r d &.3 < a ( S.V.5.<.M M <.x 4.9.-.1.>.A q.q.x.(.`.(.3.3 - Q R.2Xk k Q #X#.Y gX+XU 8 - ; f U ] -XpX$X#.yXyXeX2X8X4XY.) u.Q ' ;XpX2X2X] ' W W g = 5 c 5 v J.~.9X!.( = 4 i X.X.i b K.! j z ^ ! ) F s i j p 5 5 i o./ p p C 9 i.9.e.6.9 x / 5X6XZ.M.F.c.A / *.#.4XS.k *X5X&X&X&X&X#.j p K | o o X X o o o X X X X ",
"X X X X X X X o o o O V.V.y j > g i ;.x R *.} W W #.f [ %.*.#.f T [ T 7 q Z t.,.n 0.0.:.:.:.0.r.0.4 ~ R 5 V.D.;.t =.1.1.1.-.=.r M 7.1.1.x v.v.v.v.(.6.1 3 V ! ' wX' #._ 5X1XY wX+XU f f U ' $XpX=X#XY.yXrX2X3XwX4X/ u.u._ *XsX-X] P L L g Y / &.^ 3 5 3 .X9X9XO.X.!.Q.a j ! 5 5 ) Y.C b !  .7 5 a F ^ / j ! k #.1XR ^ p V x 5 x r < 5 O.5XqX6X*.! A >.p %.#X#X5X! +.*.f d u h g ; g y K | O o o o o o o X X X O ",
"X X X X X X X X o o O V.V.y u E *.) 6 R #X#.g &.#.#.U @X+.U d Y U Y Y g C Z q u.q 6.1.6 4 4 :.0.r.-.4 a u.N 6 -.l.1.N J 5.5.5.-.r 4 x -.1.v.v.v.x.7.< i F.H.p.@.cX+.1X{ qX&XU wX+XW P ' +XpXwX@X6XMX3X2X3XbXbX%.y.t.Q @X>X-X$X] : ; - = = j p z U.9 2 V.tX7Xl $ 3 p X.!.K < 9 ` R g a ! s V ! ^ / F j i 1 Z V ` g p a i A p o.O.3 = d ..&XqXqX*.*.1X#.g #X*X*X4Xd %.#X*.*.*.&.#.$.) y K K o o X o o o o X X X X ",
"X o o X o X X X o o O V.M.7 3 W #X&.7 +.#Xh i ..} W +.%.W [ T T h Z B ..! t.q B Z ~ ) m v x =.0.0.:.6 7.n 4 t M x X.7X0XtX~.hX~.| 2 4 m 1.v.v.l.F.4 e (.(.B.g I ;X@.qX$XpX1XT wX+X] +X-XpX$X5XgXqX3X$XqXbX6XK.s.y.+.;X;X+X] @X#./ u 9 9 9 9 G s U.9 4 Q.9X7X2 * 5 V C ~ W.F j / 3 u / V 5 ..$.B c H N.S.C.i.k 5XK.B 9 Z h ` 5X6XF = R / #X*X&X` = g ` W #X#X$X%.7 f d g E #.%.@X#X*.h K K o o o o X X X X X X X ",
"X o o o o o X o o o O N.N.u j ; *.#X/ W %.u 6 u E E ' W ] +.Y Z.F t.t.B / Z C j B 8 f C.I.4.t S D i 5 x r 1.t i Y.8X6X6X0X!.7XhXxXS.4 3.N l.q.x.<.2 F.(.B.= : I >X#XMX%XpX5XT pX%X-X>X$X#XgXaX%X%XqXqX6X#.p.u.[ =X,X+XI @.W U o.X.W.V i F C.4.F O.x 5 !.7X7X3 $ 3 p V ! ! Y.D 5 ! ..p 5 u #.~ q A.8XY.#X5X5X*.*X1XB 7 7 R U.#X5X*.g E E %.#.%.#.1 < $ W #X#X@.W @ * ; : = & U +.@.@.d K K o o o o X X X X X X X ",
"o o o o o o o o o o O N.N.- g u +.#X*.R W R 9 = - ; f @.@X+.Y.7Xj B t.B R u 1X~ B ~ *.4XP.t K 4X6XF n r q.1.r J.9X6X6X6X0XW.hXhXxXjXN.x i N N x.4 v (.).a = Y @.>X#XMX-XaXfXU qXvX=X@.qXbXiX%X:XaXgX#.~ t.Q #XpX-X] P +.#.d = X.= I.I.3 F !.K O.j M 2 Q.W.9Xj $ @ # 9 ! A...I.p / i 9 / k 1 m b 1X=X=X=X=X=X=X=X5X_ C 1 7 &.+.=X$XE d d g W #X#.B ,.8 @.+X*.' %.= U @.@.f @ & W @.W u H H o o o o X X X o X X X ",
"o o o o o o o o o o O N.N.u #.%.@.@.@.*.} f ; U } / R U [ W #XU.#.$.c Q Y +.$Xh Z ` 5X5X^ a #X*X#.v N -.l.r i.D.W.6X6X6X0X9XhXlXkX!.E.b V.V.V.N < <.(.(.3 v A.@X>X#XMX%X%XbX4X+.%.5XbXwX%X%XiXnX5X/ t.Q +.;X-X+X] : g *.g a 3  .y L.!.3 a P.O.X.1 M $ P.7X4XX.@ a S.F V K.K.O./ * 9 ~ V n N >.a %.$X%X$XE +.*X%X$X[ h ~ 7 ..+.$X@XE = u ! #.%.#.k Z g +X@X` ' *.; T ' f * 7 8 g ' W u K H o o o o o X X o X X X ",
"o o o o o o o X X o O N.N.7 f U W W @.@X#X%.d W $X#X5X*.Y > #XY.` 4XY W U $X#XZ t.Y #X*.k #.*X*.y N x q.1.v 4.9.S.0X0X0XfXfXkXkXfXI.N.a V.B.Q.N.$ 1.b.(.2 G p.%.>X#XMX2X2X%XaXMXbXaX%X%X3XbX0X#.~ Q W =X>X+X] ' U 7 f Y./ i 5 ^ L.$.^ 3 j O.P.y x N <  .4XY.W.3 Z.xXxX^ ~ K.` $.7 j b M N v n 3 U +.@X$X8 @ E $X$X_ p W f d W @X@X+.- 7 d %.#.&.Y B W @X%.d ' %.g f Q p.1 3 0 U W W u F D o o o o X X X X X X X ",
"o o o o o o o X o o O 5.5.y / ` Y ; W ' W U - E #Xd W @X*.g @X4XR #X&.8 %.@X%.c Z 7 #.+.Y.#X%./ t 5 4 q.t m 3.9.4.!.fX0XfX9XhXtXhXtXC.3 m G N.V.4 1.v.(.i 3 ~ ' ;X@XzX7XR.2X@X2X2X2X3XaXzXU.Q Q U #XpX=X] T W W R 9 3 R Y.U.P.W.&.R 3 3 / o./ X.x r N.| 4X*.Y.X.z Y.0X&.f K.Z.O.^ r 1.N >.5 1 p ; U W %.K.C 1 _ @X! 8 @X[ ; f ' @X@XT = 7 { { R.> 7 { { K.= U { T = Q d.7 @ h _ U T 8 D D o o o X X X X X X X X ",
"o o o o o o X X X o O J J 3 a / = * f [ T 8 E [ [ Y U ] %.W %.1X..#.#X+.W U W j _ E 8 #.#X%._ S 1.N r r , 9 3.F.F.J.E.I.!.E.L.tXtXE.S.| 5 n N 5.x M c.b.x.= ; P ;X+X0XxXG.p.p.G.oXKXPX0X_ Z Y @.;X;X+X' T k f E R V n 5 p R / / / 1 y X.O.g u $.b w ~.) U.4X} U.d f #.*.z ^ u.^ o.w 1.7.q ) U.%.E 3 k ` d.R.T.p.C * 0 { { [ Y T { @X1X7 3 [ [ R.u ; [ [ d.Q _ [ _ 0 f y.B A y.Q B Q 7 V V o o o X X X X X X X X ",
". . o o o o o o o o O J J 3 x v h 1 3 Q p.h Z _ T W [ _ g _ %.#.&.R %.%.f T #.#.%.#.7 _ %.E ) -.1.v i v x 9 A 3.F.D.J.S.V.B.V.E.i , , K i 4 M x e t q.v.b.F.( _ =X;XP kX0XE.J.DXKXxXP.Q C W =XpX=X' T Q B 9 = z R / D v r 4 < = ) u O.) V / z R ^ ( 7Xo.! Y.} #.o.y F ..u a V j O.p -.e.1 K.1Xk p.T.T.T.f.d.d.d.d.p.Q _ d.d._ Q d.d.f.p.= Q y.p.= C _ Q Q Z c Q y.h B y.t.t.t.t.,.5.3 s s o o o X X X X X X X X ",
"o . . o o o o o o . O J H 3 5 6 V i < p 3.D 6 4.V * 7 h _ d._ Q _ z ~ p.~ C 9 t.p.k < Q ) 9 C.9.<.3 ) K B.9 A x B.~.!.E.E.H 5.v @ @ @ b b , x 5 t t r q.l.w.9.~ ] cX' P 4XkXkXkXY._ Q U #XcX;X+X@.W T k 9 1 5 3 g X.O.L.O.o.X.j / u u H ! X.s  .l 9X#X&.k ..#.` *./ y 3 $ 2 9 y ` z N m Q 8 V A.f.s.p.t.Z B Z Z u.p.p.y.y.y.u.B y.p.y.T.C Z t.s.9 y.t.( * @ @ q 9.G c ,.Z m >.6.9.w = s s o o o X X o o X X X X ",
"o . . o o o o o o o X H H = u u g p 5 1 x H i 6.A m x r 7.u.7 q t.! A e.i.3 m a.u.q 9 p.y * u b m ^ Y.| G v x 9 J.5.2 < x G E.a @ $ @ V I.3 4 r q.-.4 r q.q.<.C [ $XcX' : g R ~ Q T @.;X-X+XI P f U g ` ../ z F j u z / ../ ! p  .3 j  .! j i j ~.0X&X#X` k .._ _ *.g @ @ * = 3 ` g n 1 Q 7 A s.u.t.a.5 $ 2 1 < < 3 B u.a.a.t.A t.y.t.t.s.t.t.s.A t.u.N.9 B q $ x 4.x >.;.;.;.<.2 8 - b b o o o o o o o X o o o ",
"X X . . o o o o o o X H H = u g E 9 q 9 9 A 1 n 5 5 6 ;.4.p @ 4 3.F c 0.B.3 ;.a.V 9 A ! 1 5 1 ! 9 F U.X.J ;.< x 9.$ @ @ $ G M.N.D F C.I.9XV , 1.l.1.4 4 1.q.S 9.p.' =XcX$X' T W @.-X>X+XI L g Y k R 9 5 i j z / $.X. .^ p i x r  .z | K 4.a y ( 7X4X5X1Xo.~ j / ~ o.&./ = @ @ = ..u x ;.* * 7.a.a.>.n 6.6.4.m x 5 < @ 5 9.e.-.N ,.a.a.m a.a.6.e.3.>.e.B.Z ,.9 < 5 9.x ;.1.8.M = 8 ; = s s o o o o o o o o o o o ",
"X X X . o o o o o o O H G = * & z ; p Z Z p p A A b c a y < n 6.6.A 1 :.6.i 1.9.B 9 4.p ,.Z 9 B p p M.u.G x < 4 G $ @ @ < J < w E.!.I.C.M.w =.q.l.1.4 -.q.<.c.c.4.g W @.=XcXcXcX>X$XI P P ; 8 c a R z ! V c x x D x 5 1.x v i y / p G i.( z I.I.$.&.*.%._ ~ h u / o._ #...g u R E u t w.>.< N e.e.e.>.n ;.e.9.9.F.9.N M 6.w.-.<.>.e.e.x r q.q.w.9.:.c.9.q 9 n -.M x.i 4 r v S ; ; * = s s o o o o o o o o o o o ",
"o o o X o o o o o o O H D = * & g d f B c 4.7.>.x 9 9 x m A A m n 7 0 3 <.x 1.3.p n i.9 A C c Z B c A >.m 5 5 5 b i @ 3 ( V.2 $ D E.s * < t q.q.q.q.-.q.1.x.v.1.3 v C : P ] @.' ' P : : U = u A A k 9 p F ) ) ) ) ( F | ( z $.W.U.p H F F !.4X*.W ` _ ` ! k 9 1 u ` _ ~ R W ` g g p 1.l.w.6 4 q.w.8.;.n ;.6.,.6.;.e.e.l.l.l.1.M 6.c.q.3.@ t l.q.F.-.c.S 6 :.:.1.x.k.< @ 4 r 5.7 - * = s s o . o o o o o o o o o ",
"o o o o . o o o o o O J D = = & g g d 3 n x < $ 5 q x x 9 3 9 v c 8 E Y 5 5 0.;.9 3.V B Z B c p B 9 m n n 4 < < A P.O.I.V.V.i D ( E.( 1 5 2 M -.t 1.q.q.N c.q.4 < 8.x 7 F i.C > Y 8 = - E * * = p k c m n n n m ( b v N 4 z 5X4X&.u y j !.8X%.#.W / C k h u 7 9 * 3 f R Y g g R R e l.l.1.6.6 4 1.1.1.-.q.8.e.e.<.l.c.l.c.z.r , q.l.l.x.= 1 1.l.c.S w.N -.1.x.z.r = - * @ @ @ + * * * s s o o o o o o X X o X X ",
"X X o o . o o o o o O 5.D = * # ; E 8 9 5 ; g 1 m x 9 C u U U 7 8 C f Y f i 0.6.i H = 9 = * 1 B Q 9 5 n m 6 @ $ G P.I.D m i.V.S.I.L.M.i 2 7.F.F.^.1.1.-.k.l.r + r l.r M c.1.<.3 = k #.E E u u x m c 7 j ) u.( x s b G i.j / 4X*.g 2 *  .#.%.W _ k u ! _ E k 7 = = * # & - u d 7 1 1.q.1.v H M 2 $ 2 -.-.z.q.c.v.1.z.z.z.1.e d * 4 1.z.b.s g * t l.8.x.S 1.z.e * - > - - 8 = * + & * * p s o o o o o X o X o X X ",
"o X X o o o o o o . X K H * * & & d 7 c 7 d U E > ; > d P @.@.' T 7 k f U f :.8.b ! 7 - g * 1 B Z c 1 5 m 5 $ $ 1 i i # e 4.N.M.( ( N.a N 8.m m 7.F.M t c.1.$ < -.l.t r l.q.t $ - &.%.' W ; j C C A x x x p g ../ h z F V 7 R u 9 ! y E +.[ f h h = u / u * @ u ..u 7 = j = 7 u b l.1.t y V -.-.x , $ $ , 4 t 1.t e r < = d f f * $ M H.D > d + r 1.x.M t 3 ; - * & + - 8 = # & & * * s s o o o o o X o o X X X ",
"o o X o o o o o o . o D G.y + & & u 7 9 7 * ; W E W } E E U E T T Y - f f ; 4 x x h Y u d 8 1 8 9 5 c 9 < 1 < 3 q 3 1 * < i a D ( M.V 2 N m x 4 x m v t 1.r < t M 1.-.2 4 4 * * d T U T Y 3 1 3 7 h C V m 9 R z u 1 x x x 3 y k R j y u E Y h 7 y u y * 3 1 * z R j 3 y k 7 d f h S v 4 9 j n x M 4 x 9 1 * @ @ @ # * 3 i 3 1 7 d # @ 2 w ; d r t M 8.4 = u = # & & # = ; = # & * # s M.p o o o O O o o o o X X ",
"o o X X X o o o o . . y ( J.5.D b s i y y y y u y u u y y y y u p p i y u y i i i i p p i p a a a a b b b b b b b b V b b b b D D D b b S b b b D G G G G G G G G J J J J J J J K i.i.i.5.5.5.5.5.5.5.i.i.i.i.5.i.5.i.i.5.5.i.( H J J H H H H J H H G H H H G H H H G H G D D D D D b b b V b b b b b b a a a a a a a a i i i i p i i i i i i i i i i y y y y w y y y y 7 7 3 y a D J.F 7   o o J s o o X X X o ",
"X o o X X X X o o o . X = s D l j s u u y y y y i i a s p i i y i i i i i s p p a a s s s s s s s s b b b b b b b b b b b b b b D D D D D D D D D D D H H H H H H H H H H H H H H H J H H H H H H J J H H H J H H H H H H H D D H H D D D H H H H H D H D H D D D D D D D D D D D D D D V V V V b b s s s s b b s a a a s s a a s s s s s p i p s i y y y y y y i p j z l u y u s l s = o . . w oX X= o o X X o ",
". o o o X X X X o o .   o O O O O O O O O O O O O O O O O O O O O O + + O O # O # + O O O % % & O O O + + + + O # # + O + + + # # # O # # # # # & & & & & & & & & & & & & & & & & & & & & & & & & & # & & & # # & & & & & & & # # # + # # # # # & & & & # # # # # & % & # & & & & & # & & & & & # + O O O O % % O O O O O O O O O O O O O O O O O O O O O O O O % O & & & % O % % % % o   O D oXHXHX Xb O o o o ",
". o o o o X X X X o o                                                                                                                                                                                                                                                                                                                                                                   . X a  XHXHXJ.y X o o o ",
". . o o o X X X X X o o o . . .             . . . . . . . . . . .   . .     .   .       .   . . . . .     . . . .   . . . . . o . . . . . . . . o o . . . . . . . o o o o o o o o o o o o o o o o o o o o o o o o o o o o o o o o o o o o o o o o .     . . .   . . . . . . .     . . . o . . o . .     . .   . . . . . .                                         .                   o o o . *  XJ.& o o o o o ",
". . . o o X X X X X o o o o o o o o o o o o . . . o . . . . . . . o o o . . . . . . . . . . . o . o o o . o o o o o o o o o o o o o o o o o o X X X X X X X X X X X o o o o o o X X X X X o o X X X X X X X X X X X X X X X X X o X o o X X X X X X X o X X X X X o o o o o o o o o o o o o o o o o o o o o . o o o o o o o o o o o . . . . . . . . . o o . . . . . . . . . . . . o o o o o o . s y . o o o . . ",
". . . o o o X X X X X o o o o o o o o o o o o . . X X o o . . X . . o o X . . . o o o X X X X X o o o o o o o o o o o o X X X X X X X X X X X X X X X X X X X X X X X X X X X X X X X O + + O O X O O O O O O X + O O O + + O + X X X X X X X X X X X X X X X X X X X X X X X o o o o o X X o o o o o o o o o o o o o o o o o o o o . . . . . . . . . . . . . . o . . . o o . . o o o o o o o o X X o o o o . . ",
". . . o o o X X X X X o o o o X o o o o o X X . . X . . . . . X . . o X . . X . X X X o X X o o X X X o X X X X o X X X X X X X X X X X X X X X X X X X X X X X + + + X X X X X X X X + + + O O X X + + O + X X + + X X O O + + X X X X X X X X X X X X X X X X X X X X X X X X X X X X X X X X X X o o o o o o o o o o o X o o o o X X . . . . . . . . . . . . . . . . . . . . . . o o o o o o X o o o o o o . ",
". . . . o o X X X X X X X X o o X X X X X o o . . . X . X X . X X X o X . . X o o X X X o o o o o X X o o X X X X X X X X X X X X X X X X + X X X X X X X X X X + + + + X X X X X X X + + + + + + + + + + + + X + + O X X X X + X X X X X + + + X X X X X X X X X X X X X X X X X X X X X X X X X X X X o X X o o X X X X X o o X o X X X . . . . . . . . . . X . . . . . . . . . . o o o o X X X o o o o o o . ",
". . . . o o o X X X X X X o o o X X X X X X o o o o X . X o . X . . o o o . o o o o o X o o o o o X X o o X X X X X X X X X X X X X X + + + + + X X X X X X X X + + + + X X X X + + + + + + + + + + + + + + O X + + + X X X X O X X O O O + + + X X X X X X X X X X X X X X X X X X X X X X X X X X X X o X X X o o o X X X o o X o X X X . . . . . X . . . . . X o o o o o . . o o o o o X X X X o o o . . . o "
};
