/* XPM */
static char *fundo_plateia_xpm[] = {
/* columns rows colors chars-per-pixel */
"800 600 256 2 ",
"   c #030100",
".  c #0B0101",
"X  c #0A0209",
"o  c #130101",
"O  c #1B0101",
"+  c #190408",
"@  c #1C0012",
"#  c #230102",
"$  c #2B0102",
"%  c #280408",
"&  c #330202",
"*  c #3B0202",
"=  c #380509",
"-  c #360D11",
";  c #430202",
":  c #4B0201",
">  c #470707",
",  c #540301",
"<  c #5B0401",
"1  c #580904",
"2  c #52100D",
"3  c #630501",
"4  c #6C0A01",
"5  c #680703",
"6  c #740B01",
"7  c #7C0C01",
"8  c #770602",
"9  c #7A1302",
"0  c #6B140B",
"q  c #6E2812",
"w  c #734725",
"e  c #830D01",
"r  c #8B0D01",
"t  c #860704",
"y  c #950D01",
"u  c #841201",
"i  c #8C1301",
"p  c #8A1805",
"a  c #931401",
"s  c #9B1501",
"d  c #941A01",
"f  c #9C1B01",
"g  c #99190A",
"h  c #8F1813",
"j  c #A21501",
"k  c #A31C01",
"l  c #AA1D01",
"z  c #A61A08",
"x  c #B41C03",
"c  c #A7150B",
"v  c #9A2404",
"b  c #912D0C",
"n  c #A42202",
"m  c #AC2302",
"M  c #AD2A01",
"N  c #A82609",
"B  c #B32402",
"V  c #B42B01",
"C  c #BB2C02",
"Z  c #B72808",
"A  c #AA3504",
"S  c #B43201",
"D  c #BB3402",
"F  c #BD3A01",
"G  c #B83709",
"H  c #B23114",
"J  c #A13326",
"K  c #C42C04",
"L  c #C23402",
"P  c #C33C01",
"I  c #CA3C02",
"U  c #C73709",
"Y  c #D43B04",
"T  c #C83813",
"R  c #D03110",
"E  c #BA4604",
"W  c #B44E0F",
"Q  c #B2512A",
"!  c #AB5E20",
"~  c #C54301",
"^  c #CB4401",
"/  c #CC4B01",
"(  c #C84807",
")  c #D34C02",
"_  c #D54705",
"`  c #CD5201",
"'  c #C95804",
"]  c #D25401",
"[  c #D45B01",
"{  c #DA5C02",
"}  c #D95606",
"|  c #D05015",
" . c #E35A06",
".. c #E45511",
"X. c #D56301",
"o. c #DA6401",
"O. c #DC6B01",
"+. c #D86906",
"@. c #DD7301",
"#. c #DC7906",
"$. c #D16C11",
"%. c #E26C02",
"&. c #E56706",
"*. c #E27402",
"=. c #E37C03",
"-. c #E47C0A",
";. c #E97807",
":. c #E77815",
">. c #ED6F13",
",. c #D05428",
"<. c #D26F2C",
"1. c #EC722C",
"2. c #E65A26",
"3. c #DA764D",
"4. c #AE684E",
"5. c #DB870F",
"6. c #E58303",
"7. c #E68A05",
"8. c #E98A06",
"9. c #E4840B",
"0. c #E58B0C",
"q. c #EA8C0B",
"w. c #EA8408",
"e. c #EA930D",
"r. c #E7930B",
"t. c #E58C12",
"y. c #EA8D13",
"u. c #E78716",
"i. c #E69214",
"p. c #EA9413",
"a. c #EB9A15",
"s. c #EA941A",
"d. c #EB9C1B",
"f. c #E6971A",
"g. c #F39818",
"h. c #F38B0F",
"j. c #ECA11D",
"k. c #E9A518",
"l. c #F3A519",
"z. c #D68E2E",
"x. c #EB9D23",
"c. c #E99A26",
"v. c #F59926",
"b. c #F08E30",
"n. c #ECA323",
"m. c #ECA42B",
"M. c #EEAA2C",
"N. c #EAA726",
"B. c #F1AC2C",
"V. c #F3A626",
"C. c #EDAB33",
"Z. c #EDAC3B",
"A. c #EAA634",
"S. c #F1AD33",
"D. c #F5AA38",
"F. c #EEB33C",
"G. c #EDB436",
"H. c #F2B334",
"J. c #F2B43C",
"K. c #F4B93B",
"L. c #F2B22C",
"P. c #DBA730",
"I. c #F3C538",
"U. c #F3934D",
"Y. c #EDB443",
"T. c #EDB949",
"R. c #F2B543",
"E. c #F3BB43",
"W. c #F2BC4B",
"Q. c #F8B849",
"!. c #ECBA55",
"~. c #F2BD53",
"^. c #F7BB58",
"/. c #F2AA4A",
"(. c #F7B36C",
"). c #DD9B5B",
"_. c #F4C24C",
"`. c #F6C347",
"'. c #EDC458",
"]. c #F3C354",
"[. c #F3C45B",
"{. c #F5CA5C",
"}. c #F9C857",
"|. c #F3CB53",
" X c #ECC767",
".X c #F4CB63",
"XX c #F4CD6B",
"oX c #F7C865",
"OX c #F5D26C",
"+X c #F9D368",
"@X c #EBCB76",
"#X c #F4CD72",
"$X c #F8CB78",
"%X c #F5D374",
"&X c #FAD474",
"*X c #F5D47B",
"=X c #FAD57B",
"-X c #F8DA7B",
";X c #EDD476",
":X c #F7DF76",
">X c #B88B4A",
",X c #F8B48B",
"<X c #E4A88F",
"1X c #F5D583",
"2X c #F6DA84",
"3X c #FADB84",
"4X c #F5DB8C",
"5X c #FADC8C",
"6X c #F9D587",
"7X c #F6DD93",
"8X c #FADD94",
"9X c #FADE9A",
"0X c #F7DA99",
"qX c #F1D08E",
"wX c #FAE28A",
"eX c #FAE295",
"rX c #F6E29C",
"tX c #FAE29C",
"yX c #F8E597",
"uX c #F7ED95",
"iX c #F9DCA5",
"pX c #EFDAB0",
"aX c #F6E3A3",
"sX c #FAE4A3",
"dX c #FBE5AB",
"fX c #FBE9AD",
"gX c #F8E7A9",
"hX c #FBE6B3",
"jX c #FBEAB4",
"kX c #FBEBBB",
"lX c #F6E7B9",
"zX c #FEF4B9",
"xX c #F3E8B1",
"cX c #DBCC93",
"vX c #FCECC3",
"bX c #FCEDCB",
"nX c #F6E8C6",
"mX c #FDF1C4",
"MX c #FDF1CC",
"NX c #FCF9C9",
"BX c #FCEED3",
"VX c #F8EDD8",
"CX c #FDF2D4",
"ZX c #FDF4DC",
"AX c #FDFAD8",
"SX c #EDE4CA",
"DX c #FDF5E4",
"FX c #FDF6EA",
"GX c #FEF9EC",
"HX c #FDF9E4",
"JX c #FEFBF4",
"KX c #FEFEFD",
"LX c #FDF7F3",
"PX c #F6EDE4",
"IX c #F3D9C8",
"UX c #D0BEC0",
/* pixels */
"3 3 3 5 3 3 5 5 5 5 5 5 3 3 5 5 5 5 4 4 4 4 4 4 4 4 4 4 4 4 4 4 4 4 4 6 6 6 6 7 7 7 7 7 7 7 7 7 7 7 e e e e e e e e e e e e e e e e u e e e e e e e e e u u e e 7 7 7 7 7 7 7 7 7 7 7 7 7 7 7 7 7 7 6 6 6 6 6 6 6 6 6 6 6 6 6 6 6 6 6 6 6 6 6 6 6 6 6 6 6 6 6 6 6 6 6 6 6 6 6 6 4 4 4 4 6 6 4 4 4 4 4 4 4 4 4 4 4 4 4 4 5 5 5 5 4 4 4 4 5 5 5 5 5 3 3 3 3 3 3 3 3 3 3 3 5 5 3 3 3 3 3 3 3 3 3 3 3 3 3 3 3 3 3 3 3 3 3 3 3 3 3 3 3 3 3 3 3 3 < 3 3 3 < < < 3 3 3 3 3 3 3 3 3 3 3 5 5 5 5 4 4 4 4 4 4 4 4 4 4 4 6 4 4 4 4 6 6 6 6 6 6 6 6 6 6 6 7 7 7 6 6 6 6 6 6 6 6 6 6 7 7 7 7 7 7 7 7 7 7 7 e e e 7 7 u u u u u u u u u u u u u u u u i i i i i i i i i i i i i u u i i i i i i i a a p p a a p p a a p p p p p p p p a a a a p p p p a a a p i i i i i i i i i i i i u i i i i i i i i i u i i i i u u e u u u u u u u u u u e e e e e e e e u u u u e e e e u u u e e e u u u e 7 7 7 7 7 7 7 7 7 7 7 7 7 7 7 7 7 7 7 7 7 7 7 7 7 7 7 7 7 7 7 7 7 7 7 7 7 7 7 7 7 7 u u u u u u u u u u u u u u u u e e u u u u u 9 7 7 7 7 7 7 7 7 7 7 7 7 7 7 7 7 7 7 7 7 7 7 7 9 9 9 7 7 7 7 7 9 9 7 7 7 7 7 6 6 6 7 7 7 7 7 7 6 6 6 7 7 6 6 6 6 6 6 6 6 6 6 6 6 6 6 6 6 6 6 6 6 6 6 6 6 4 4 4 4 4 4 5 5 3 3 3 3 3 3 3 3 3 3 3 3 3 3 3 3 3 3 3 3 3 3 3 < 1 1 1 1 1 1 1 1 1 1 < < < < < < < < < < < < < < < < , , , < < < < < < , , , < , 1 , , , , , , , , , < < < < < < , , < , , , < < < , , , < < < , , , < < < , 1 1 , , , , , , , , , , , , , , < , < < < < < < < < < < < < < < , , , , , , , , , , , , 1 1 1 1 1 1 , , , , , , 1 1 1 1 1 1 1 1 1 1 < < 1 1 < < 1 1 1 1 1 1 1 1 1 1 1 1 1 1 1 1 1 1 1 1 1 1 < < < < < < < < 1 1 1 1 1 1 1 1 1 , , , , , , , , , , , ",
"3 3 3 3 3 3 5 5 5 5 5 5 3 3 5 4 5 5 4 4 4 4 4 4 4 4 4 4 4 4 4 4 4 4 4 4 6 6 6 7 7 7 7 7 7 7 7 7 7 7 e e e e e e e e e e e e e e e e u e e e e e e e e e u u e e 7 7 7 7 7 7 7 7 7 7 7 7 7 7 7 7 7 7 6 6 6 6 6 6 6 6 6 6 6 6 6 6 6 6 6 6 6 6 6 6 6 6 6 6 6 6 6 6 6 6 6 6 6 6 6 6 4 4 4 4 6 6 4 4 4 4 4 4 4 4 4 4 4 4 4 4 5 5 5 5 4 4 4 4 5 5 4 5 5 3 3 3 3 3 3 3 3 3 3 3 5 5 3 3 3 3 3 3 3 3 3 3 3 3 3 3 3 3 3 3 3 3 3 3 3 3 3 3 3 3 3 3 3 3 3 3 3 3 < < 3 3 3 3 3 3 3 3 3 3 3 3 5 5 5 5 4 4 4 4 4 4 4 4 4 4 6 6 4 4 4 4 6 6 6 6 6 6 6 6 6 6 6 6 7 7 6 6 6 6 7 6 6 6 6 6 7 7 7 7 7 7 7 7 7 7 7 7 e e e e u u u u u u u u u u u u u u u u i i i i i i i i i i i i i i u u i i i i i i a a p p a a a a p p p p p p p p p p a a a a p p p p a a a p i i i i i i i i i i i i u i i i i i i i i u i i i i i i u e u u u u u u u u u u e e e e e e e u u u u u e e e e u u u u e e u e u e 7 7 7 7 7 7 7 7 7 7 7 7 7 7 7 7 7 7 7 7 7 7 7 7 7 7 7 7 7 7 7 7 7 7 7 7 7 7 7 7 7 7 u u u u u u u u u u u u u u u u e e u u u u u 9 7 7 7 7 7 7 7 7 7 7 7 7 7 7 7 7 7 7 7 7 7 7 7 9 9 9 7 7 7 7 9 9 9 9 7 7 7 7 6 6 6 7 7 7 7 7 7 7 6 6 6 6 6 6 6 6 6 6 6 6 6 6 6 6 6 6 6 6 6 6 6 6 6 6 6 6 4 4 4 4 4 4 4 4 3 3 3 3 3 3 3 3 3 3 3 3 3 3 3 3 3 3 3 3 3 3 3 < 1 1 1 1 1 1 1 1 1 1 < < < < < < < < < < < < < < < < , , , < < < < < < , , , , , 1 , , , 1 1 , , , , , , < < < < , , < , < < < < , , , , < < , , , , < < < , , , , , , , , , , , , , , , , , < < < < < < < < < < < < < < < < , , , , , , , , , , , , < < , , , , , , , , , , , , , , < < 1 1 < < < < < < < < < < < 1 1 1 1 1 1 1 1 1 1 1 1 1 1 1 1 < < < < < < < < < < < < < < 1 1 1 1 1 1 , , 1 1 1 1 1 , , , 1 ",
"3 3 3 3 3 3 5 5 5 5 5 5 4 5 4 4 5 5 4 4 4 4 4 4 4 4 4 4 4 4 4 4 4 4 6 6 6 6 7 7 7 7 7 7 e e e e e e e e e e e e e e e e e e e e u u u u u u u u u u u u u u u e 7 7 7 7 7 7 7 7 7 7 7 7 7 7 7 7 7 7 7 7 7 7 7 7 6 6 6 6 6 6 6 6 6 6 6 6 6 6 6 6 6 6 6 6 6 6 6 6 6 6 6 6 6 6 6 6 8 8 4 4 6 6 6 6 4 4 4 4 4 4 4 4 4 4 4 4 5 5 5 5 5 5 4 4 4 5 4 5 3 5 5 5 3 3 3 3 3 3 3 3 5 3 3 3 3 3 3 3 3 3 3 3 3 3 3 3 3 3 3 3 3 3 3 3 3 3 3 3 3 3 3 3 3 3 3 3 3 3 < < 3 3 3 3 3 3 3 3 3 3 3 3 5 5 5 5 4 4 4 4 4 4 4 4 4 4 6 4 6 4 4 4 6 6 6 6 6 6 6 6 6 6 6 6 7 7 6 6 7 7 7 7 6 6 7 7 7 7 7 7 7 7 7 7 7 7 7 7 e e e e u u u u u u u u u u u u u u u u i u u u i i u u u u i i i i i i i i i i i i a a a a a a a a a a p p p p p p p p a a a a a a a a a a a a p i i i i i i i i i i i i u u i u u i i i u i i i i i i i u u u r u u u u u u u u u u u u u e e u u u u e e e e e e e e e e u u u e 7 7 7 7 7 7 9 9 7 7 7 9 9 9 7 9 7 7 9 7 9 9 9 9 7 7 7 7 7 7 9 9 9 9 7 7 7 7 7 7 9 u u u u u u u u u u u u u u u u u u u u u u u u u u 7 7 7 7 9 9 9 7 7 7 7 9 9 9 9 9 9 7 7 7 7 7 7 9 9 7 7 7 7 9 9 9 9 7 7 7 7 7 7 7 7 7 7 7 7 7 7 6 6 6 6 6 6 7 7 6 6 6 6 6 6 6 6 6 6 6 6 6 6 6 6 6 6 6 6 4 4 4 4 4 4 4 4 5 5 3 3 3 3 5 3 3 3 3 3 3 3 3 3 3 3 3 3 3 3 3 < < 1 1 1 1 1 1 1 1 1 1 1 < < < 1 1 1 1 1 1 1 < < < < , , < < < < < < < < 1 1 1 1 1 1 1 1 1 1 1 1 , , , , , , < < < < < < < < < < < < < < < < < < , < < < < < , , < , , , 1 1 1 1 1 , , , < < < < < < < < < < < < < < < < < < < < < < < < < < < < < < < < < < < < < < < < < < < < , < < < 1 < < < < < < < < < < < < < < < < 1 1 1 1 1 1 1 1 < < < < < < < < 3 3 3 < < < < < < < < < < < 1 < < < < 1 1 1 1 1 1 1 1 ",
"3 3 3 3 3 5 5 5 5 5 5 5 4 3 4 4 5 5 4 4 4 4 4 4 4 4 4 4 4 4 4 4 4 4 6 6 6 6 7 7 7 7 7 7 e e e e e e e e e e e e e e e e e e e e u u u u u u u u u u u u u u u e 7 7 7 7 7 7 7 7 7 7 7 7 7 7 7 7 7 7 7 7 7 7 7 7 6 6 6 6 6 6 6 6 6 6 6 6 6 6 6 6 6 6 6 6 6 6 6 6 6 6 6 6 6 6 6 6 8 8 8 4 6 6 4 6 4 4 4 4 4 4 4 4 4 4 4 4 5 5 5 5 5 4 4 4 4 4 5 3 5 5 5 5 3 3 3 3 3 3 3 3 5 3 3 3 3 3 3 3 3 3 3 3 3 3 3 3 3 3 3 3 3 3 3 3 3 3 3 3 3 3 3 3 3 3 3 3 3 3 < < 3 3 3 3 3 3 3 3 3 3 3 3 5 5 5 5 4 4 4 4 4 4 4 4 4 4 4 4 4 4 4 4 6 6 6 6 6 6 6 6 6 6 6 6 7 7 6 6 6 7 7 7 6 6 6 7 7 7 7 7 7 7 7 7 7 7 7 7 e e e e u u u u u u u u u u u u u u u u u u u u i u u u u u u i i i i u i i i i i i a a a a a a a a a a p p p p a a p p a a a a a a a a a a a a p i i i i i i i i i i i i i u i u u u u i i i u i i i i u u u u u u u r u u u u u u u u u u e e u u u e e e e e e e e e e e e u u e u 7 7 7 7 7 9 9 7 7 7 9 9 9 7 7 7 7 9 9 9 9 9 9 7 7 7 7 7 7 9 9 9 9 7 7 7 7 7 7 u u u u u u u u u u u u u u u u u u u u u u u u u u u 7 7 7 7 9 9 9 7 7 7 9 9 9 9 9 9 9 7 7 7 7 7 7 7 7 7 7 7 7 9 7 7 7 7 7 7 7 7 7 7 7 7 7 7 7 7 7 6 6 6 6 6 7 7 7 7 6 6 6 6 6 6 6 6 6 6 6 6 6 6 6 6 6 6 6 4 4 4 4 4 4 5 4 4 5 3 3 3 3 3 3 3 3 3 3 3 3 3 3 3 3 3 3 3 3 3 < < 1 < < 1 1 1 1 1 1 1 1 < < < 1 1 1 1 < 1 < < < < < < < < < < < < < < < < 1 1 1 1 1 1 1 1 1 1 1 , , , , , < < < < < < < < < < < < < < < < < < < , , < < < < , , < , , , , , 1 1 , , < < < < < < < < < < < < < < < < < < < < < < < < < < < < < < < < < < < < < < < < < < < < < < < < < < < < < < 3 < < < 3 3 < < < < < < < < 1 1 1 1 1 1 < < < < < < < < < 3 3 3 < < < < < < < < < < < < < < < < < < < < < < < < ",
"3 3 5 5 3 3 5 5 5 5 5 5 4 4 4 4 4 4 4 4 6 6 6 6 4 4 4 4 4 4 4 4 6 6 6 6 6 6 7 7 7 7 7 7 e e e e e e e e e u u u e u u u u u u u u u u u u e u u u u u u u u u u u 7 9 9 7 7 7 7 7 7 7 7 7 7 7 7 7 7 7 7 7 7 7 7 6 6 6 6 6 6 6 6 6 6 6 6 6 6 6 6 6 6 6 6 6 6 6 6 6 6 6 6 6 6 6 6 6 6 6 6 6 6 6 6 4 4 4 4 4 4 4 4 4 4 4 4 4 5 5 5 5 5 4 5 4 5 4 4 4 5 4 4 3 3 3 3 3 3 3 3 3 3 3 3 3 3 3 3 3 3 3 3 3 3 3 3 3 3 3 3 3 3 3 3 3 3 3 3 3 3 3 3 3 3 3 3 3 3 < < 3 3 3 3 3 3 3 3 3 3 5 5 5 5 5 5 4 4 4 4 4 4 4 4 4 4 4 4 4 4 6 6 6 6 6 6 6 6 6 6 7 7 7 6 7 7 7 7 7 7 7 7 7 7 7 7 7 7 7 7 7 7 7 7 e e u u e e u u u u u u u u u u u u u u u u i i p p p i p p i i p p p p p p p i i i i i a a a a a a a a a a a a d d d a a a d p p a a a a a a a a a a a i i i i i i i i i i i i i i i i i i i i i i i i p i i i u u u u u u u u u u u u u u u u u u e e u u u e r r r r e r r e e e u e u u u u u u 9 9 7 7 7 7 7 7 7 7 7 7 7 7 7 7 7 7 7 7 7 7 9 7 7 7 7 7 7 7 7 7 7 7 7 7 u u u u u u u u u u u u u u u u u u u u u u u u u u u 7 7 7 7 7 9 9 7 7 7 7 7 7 9 7 e e e e e e e e e e e 7 7 7 9 e e e e 7 7 7 7 7 7 7 7 7 7 7 7 7 7 7 7 7 7 7 7 7 7 7 7 7 7 7 7 6 6 6 6 6 6 7 7 7 6 6 8 6 6 4 4 4 4 4 4 4 4 4 5 5 5 5 5 5 5 5 3 3 3 3 3 3 5 4 3 3 3 3 5 3 3 < < < < < < < < < < < < < < < 1 1 1 1 < < < < < < < < < < < < < < < < < < < < < < 1 1 1 1 1 1 1 1 1 1 < < < < < < < < < < < < < < < < < < < < < < < < < < < < < < < < < < < < < < < < < < < < < < < < < < < < < < < < < < < < < < < < 3 < < < 3 3 3 3 < < < < < < < < < < < < < < < < 3 3 3 3 3 3 3 3 3 3 3 3 3 < < < < < < < < < < < < < < < 3 3 3 3 3 3 3 3 3 3 3 3 3 3 3 3 < < 3 < < < < < < < < < < < < < ",
"3 3 5 5 3 3 5 5 5 5 5 4 4 4 4 4 4 4 4 4 4 6 6 6 4 4 4 4 4 4 4 4 6 6 6 6 6 6 7 7 7 7 7 7 e e e e e u u u u u u u e e u u u u u u u u u u u u u u u u u u u u u u u 7 7 9 7 7 7 7 7 7 7 7 7 7 7 7 7 7 7 7 7 7 7 7 6 6 6 6 6 6 6 6 6 6 6 6 6 6 6 6 6 6 6 6 6 6 6 6 6 6 6 6 6 6 6 6 6 6 6 6 6 6 6 6 4 4 4 4 4 4 4 4 4 4 4 4 4 5 5 4 5 4 4 5 4 5 4 4 4 5 4 4 3 3 3 3 3 3 3 3 3 3 3 3 3 3 3 3 3 3 3 3 3 3 3 3 3 3 3 3 3 3 3 3 3 3 3 3 3 3 3 3 3 3 3 3 3 3 < 3 3 3 3 3 3 3 3 3 3 3 5 5 5 5 5 5 4 4 4 4 4 4 4 4 4 4 4 4 4 4 6 6 6 6 6 6 6 6 6 6 7 7 7 7 7 7 7 7 7 7 6 6 7 7 7 7 7 7 7 7 7 7 7 7 e e u u e e u u u u u u u u u u u u u u i i i i i i p p i i i i p p p p p p i i i i i i i a a a a a a a a a a a d a a a a a a p p a a a a a a a a a a a a i i i i i i i i i i i i i i i i i i i i i i i i i i i u u u u u u u u u u u u u u e e u u u u u u e e r r r r r r r r r e u e u u u u u u 9 9 7 7 7 7 7 e 7 7 7 7 7 7 7 7 7 7 7 7 7 7 7 7 7 9 7 7 7 7 7 7 9 9 7 7 u u u u u u u u u u u u u u u u u u u u r r u u u u u 7 7 7 e e 7 7 7 7 7 7 7 7 9 9 u e e e e e e e e e e e e e e e e e e 7 e e e 7 7 7 7 7 7 7 7 7 7 7 7 7 7 7 7 7 7 7 7 7 7 7 7 7 7 6 6 7 7 7 7 7 6 6 8 6 6 4 4 4 4 4 4 4 5 4 5 5 5 5 5 5 5 3 5 5 5 3 3 5 4 4 5 5 3 3 5 3 3 < 3 3 < < < < < < < < 1 < < < 1 1 1 < < < < < < < < < < < < < < < < < < < < < < < 1 < 1 1 < < 1 < < < < < < < < < < < < < < < < < < < < < < < < < < < < < < < < < < < < < < < < < < 3 3 < < < < < < < < < < < < < < < < < < < < < 3 3 3 3 3 3 3 3 3 3 3 3 3 3 3 3 3 3 3 3 3 3 3 3 3 3 5 5 5 5 5 5 5 3 5 5 5 5 3 3 3 3 3 3 3 3 3 3 3 3 3 3 3 3 3 5 5 3 3 3 3 3 3 3 3 3 3 3 3 3 3 3 3 3 3 3 3 3 3 3 3 3 3 3 3 3 ",
"5 5 5 5 5 4 4 4 4 4 4 4 4 4 4 4 4 4 4 4 6 4 6 6 6 6 6 6 6 6 6 6 6 6 6 6 6 6 7 7 7 7 7 e e e e e u u u u u u u u e e u u u u u u u u i i u u u u u u u u u u e u u u u u 7 7 u u 7 7 7 9 7 7 7 7 7 7 7 7 7 7 7 7 7 7 7 7 7 7 7 7 7 7 6 6 6 6 6 6 6 6 6 6 6 6 8 8 6 6 6 6 6 6 6 6 6 6 6 6 6 6 6 6 6 6 6 6 4 4 4 4 4 4 4 4 4 4 4 4 4 4 4 4 4 5 4 4 5 5 4 5 4 5 5 5 3 3 3 3 3 3 3 3 3 3 3 3 3 3 3 3 3 3 3 3 3 3 3 3 3 3 3 3 3 3 3 3 5 5 5 5 3 3 3 3 3 3 3 3 3 3 5 5 5 5 3 3 5 5 5 5 5 5 5 5 4 4 4 4 4 4 4 4 6 6 6 6 4 4 6 6 6 6 6 6 6 6 7 7 7 7 6 7 7 7 6 6 6 6 6 6 7 7 7 9 7 7 7 7 9 9 9 7 7 7 9 9 e e e e u e u u u u u u u u u r a a a a i i i i i i i i i i i i i i i i i i i i a a a a a a a a g g a a a a a s a a d d i a g g a a a a a a a a a a a a p a a a i i i i i i i i i i i i p p i i i i i i i i i i i u u u u u u u u u u u u u u u u e e r r r r r r r r r r r r u u u u u u u u u u u 9 u u e u u u u u u u u u u u u u u u u e e e u u u u u u u e e u u u u u u u u u u u i u u u i u u u u u u r r u u u u e u e e e e u u u u e u u u u e e e e e e e e e e e e e e e e e e 7 e e u e 7 u 7 7 7 7 7 7 7 9 7 7 7 7 7 7 7 7 7 7 7 7 7 7 7 7 7 7 7 7 7 7 7 7 7 6 8 6 4 4 4 4 4 4 4 4 4 5 5 5 5 5 4 4 4 4 4 4 4 4 4 4 4 4 4 4 4 3 3 3 3 3 3 3 3 3 3 3 3 < 1 1 < < < < < < 3 3 3 3 3 3 3 3 3 3 3 3 3 3 3 3 < < < < 3 3 < < < < < < < < < < < < < < < < < < 3 3 3 3 3 3 < 3 3 < < < < < 3 3 3 3 3 3 < < < < < < < < < 3 3 3 3 3 < < < < < < < < < < < < < < < < < 3 3 3 3 3 3 3 5 3 5 5 5 5 5 5 5 5 4 5 4 4 4 4 4 4 4 4 4 4 6 8 6 6 4 4 4 4 4 4 4 4 4 4 4 4 4 4 5 4 4 4 4 4 5 4 4 4 4 4 4 4 4 4 4 4 4 8 4 4 4 4 4 4 4 4 4 5 3 3 3 3 3 3 3 3 3 3 3 3 ",
"4 4 4 4 4 4 4 4 4 4 4 4 4 4 4 4 4 4 6 6 6 6 6 6 4 4 6 6 6 6 6 6 6 6 8 6 7 7 7 7 7 7 7 e e e u u u 9 9 u u u u u u u u u u u u u i i a i u u u u u u u u u u e e u u u u e e u e 7 7 e e e e 7 7 7 7 7 7 7 7 7 7 7 7 7 7 7 7 7 7 7 7 6 6 6 6 7 7 6 6 7 7 7 8 8 8 6 6 6 6 6 6 6 6 6 6 6 6 6 6 6 6 6 6 4 4 4 4 6 4 4 4 4 4 4 4 5 5 4 4 4 4 5 5 4 4 4 5 4 4 4 5 5 5 3 3 3 3 3 3 3 3 3 3 3 3 3 3 3 3 3 3 3 3 3 3 3 3 3 3 3 3 3 3 3 3 5 5 5 5 3 3 3 3 3 3 3 3 5 5 5 5 3 3 5 5 5 5 5 5 4 4 4 4 4 4 4 4 4 4 6 6 6 6 6 6 6 6 6 6 6 6 6 6 6 6 7 7 7 7 7 7 7 7 6 6 7 6 6 6 7 7 e u e 7 7 7 e u 7 e e e u e e e e e e e e r u u u u u u r y y a a a a i i i p p p i i p a a i i i a a a i i a a a a a a a a a a a a a a s s s a g a a a g a a a a a a a a a a a a a i a a a a a a a i i i a a a a i u u i i a i i i i i i i r u u i u u u u u u u u i i u u r r r r r r r r r r r r r r u r e i u u u u e u i u u u u r u u u u u u u u u u u u u u u e u e e u u u u e e e e e u u r u u u u u u u r r u u r u u u u u r r r r r e u e e e e e e u e e u u e u u u e e e e e r e e r r r r r e e e e e e e e e u e e u u 7 7 7 e u u 9 7 e e e 7 7 7 7 7 7 7 7 7 7 7 7 7 7 7 7 7 7 7 7 7 7 8 8 8 6 6 4 4 4 6 4 6 4 4 4 4 4 4 4 4 4 4 4 4 4 4 4 4 4 4 4 4 5 5 3 5 5 5 5 5 5 5 3 3 3 1 1 < 3 3 < < 3 3 5 5 5 3 5 5 5 5 3 5 5 3 3 3 3 3 3 3 3 3 3 3 < < < 3 < < 3 3 < < < < < < < 3 3 3 3 3 3 5 5 3 3 3 3 3 3 3 3 3 3 5 3 5 3 3 3 3 3 3 3 3 3 3 3 3 3 3 3 3 3 3 3 3 3 3 3 3 3 3 3 3 3 3 3 3 3 5 5 4 4 4 4 4 8 8 8 4 4 4 6 4 4 4 6 6 6 6 6 7 7 7 6 7 7 7 7 7 e e e e 7 7 e 7 7 6 6 6 6 6 6 6 6 6 4 6 6 6 6 6 6 7 7 8 7 7 7 8 7 7 8 8 8 8 8 8 8 6 8 6 6 4 4 5 5 3 5 4 4 4 5 5 5 ",
"4 4 4 4 6 4 4 4 4 4 4 6 6 6 6 6 6 6 6 8 6 6 6 6 4 4 6 6 6 6 6 8 8 8 8 7 7 7 7 7 7 7 7 e e r e e u u u u i y r u u u u u u u u u u i y a i u i i i a i a a y r r u u u e e e e e e e u u u e e u e e e e e e e e e e e e e e e e e 7 7 7 7 7 7 7 7 7 7 7 7 7 7 7 8 8 8 7 7 7 7 7 7 7 7 7 7 7 7 7 7 7 6 6 6 6 6 6 6 6 6 4 4 4 4 4 4 4 4 4 4 4 4 4 4 4 4 4 4 4 4 4 5 5 5 5 5 5 5 5 5 5 5 5 5 5 5 5 5 5 4 4 5 5 5 5 5 5 5 5 4 4 4 4 4 4 4 4 5 5 5 5 4 4 5 5 5 4 4 4 4 4 4 4 4 4 4 4 4 4 4 4 4 4 6 6 6 6 6 6 6 6 6 6 6 6 7 7 7 7 7 7 7 7 7 7 7 7 7 7 7 7 7 7 7 7 7 7 e u u u u u u u u e u u u u u r r r r r i r a a a i p i h h h g g a a a a a a p p p d d d d a r a a a s f s s a a s s s s s s s s f v d a a s k k j s s f N s s s s d d f f f a a a a a a a a a a a s a a a a s s s a a i p a a a f r i a i i a i i i i i i a a i i a a a a a a a a a a a a a a a a a a a a a i i d d i i i i i p i i i i i i u u u i i p p i i p p p p p u i i a p p p a r e p p u e u y a d p d d d a s s s a d i d p u d f a a a a d a a a a a a a a a i p p p p p p p d g a a a a a a a a a a a a a p p a a a a a a a y a r e g a i u u u i i u i u u u u e e e e e e e e e e e e e e e e e e 7 7 9 7 7 7 7 7 6 9 7 6 6 6 6 6 6 6 6 6 6 6 6 6 6 6 6 6 6 4 4 4 4 6 6 6 6 8 8 8 8 8 8 5 3 3 3 5 3 3 4 4 4 4 4 4 4 4 4 4 4 4 5 5 5 5 5 4 4 4 4 5 5 5 5 5 5 5 5 4 4 4 4 4 4 5 5 4 4 4 4 4 4 4 4 4 4 4 4 4 5 4 4 4 4 4 4 4 4 4 4 4 4 4 4 4 7 7 8 4 4 5 4 4 4 4 4 4 4 4 4 6 6 6 6 6 6 6 6 6 6 6 6 6 8 7 7 7 7 e t t 8 e i v d 7 t t e i p p v d v A | | | <.,.A n n n f a a g a H <.$.S V M f r 8 4 8 v G G ( H N a r r r a i r r e t e e e e e t e e e e t r 8 8 4 6 7 e 7 8 8 4 ",
"6 6 6 6 6 6 6 6 6 6 6 6 6 6 7 7 6 7 7 7 7 7 7 7 7 7 7 7 7 7 7 7 8 8 8 7 7 7 e e e e u u i i i i i i p u y y y r u u r r r r i i i r y a a i a a a a a a y a a a p u u u u u u u u u u u i i i i u u u u u u u e e e e e e e r r e u 9 9 e e e u u u e e e e e e e e 7 7 7 7 7 7 e 7 e 7 7 7 7 7 7 7 7 7 7 7 6 6 6 6 4 6 6 6 4 4 6 6 6 6 6 6 6 6 4 4 4 4 4 4 4 4 6 6 4 4 4 4 4 4 4 4 4 4 4 4 4 4 4 4 6 6 4 6 4 4 4 4 4 6 6 4 6 6 6 6 6 6 6 6 6 4 6 6 6 6 6 6 6 6 6 6 6 6 6 6 7 8 7 7 7 7 7 7 7 7 7 7 7 7 7 7 7 7 e e e e e e e e e e e e e e r e e u u u u u p i i p u p a a p i i i a a a a a a a a s s f f f j s s a g g y g p i p d s s s s d d a g f f f f n k k k l m m l k k k k k l l l l m n n v p d f k m m k s f n k z k k f f k k k k k k k k k k k k k j z j j j j j z z z f d d s s s f N a i a a a a a a a a a a a f f f s s s s s f f f f f f f f f f f f f f d d f f f s f f f a a a a a a a a a f d f f g f f f f f f f g f f f f f v v k s f A A p e r s M A E W W A M m V V V G ( W ' ( ( F G G G F G F ( ( G H Z N f a f H W H v f f M G H N N N z k k k k k k f f f f f f f j j f f z s s a d Q v e u u g g p g g g a a a a a p p p p a a a i p p i i p p p p p p u u p p p p u g r e 7 7 9 6 6 6 7 6 6 7 6 6 6 6 6 6 6 6 6 6 6 9 7 7 7 i d v N g 7 5 3 5 4 4 5 4 6 6 6 6 6 4 4 4 4 4 4 4 4 4 4 4 4 4 4 4 4 4 4 4 4 4 4 4 6 7 6 6 9 9 6 4 4 6 6 6 6 4 4 4 4 4 4 4 4 4 4 4 4 4 4 4 4 6 6 6 6 8 7 7 e u d g i e 8 4 6 7 6 7 7 7 7 7 7 7 7 e e e e e e e e e 7 7 e r i i i g g y r f G | H a r r a f n M G S E ' :.>.:.U.b.| L U G Z k k m m W U.u.~ F | 1.,.s 8 e M | >.1.| G l s s g z g g a a a a a a a a i i r r r y j g t e e a a a e 8 8 ",
"6 6 6 6 8 8 6 6 6 6 7 7 7 7 7 7 e 7 e e e e e 7 e e e 7 e 7 e e e e e 7 e e r r r r a a a d a a d g h h s j s s s s s s s f f f f f f k z z z z k z z z s s a a a p i u u i i i i i p p p p i i i i i i i i u u r r e e u u u u i u u u r r r u u u u u r r e e u e e e e e e e e e e e e e e e e e e e 7 7 7 7 7 7 7 7 7 7 8 8 7 7 7 7 7 7 7 7 7 7 7 7 9 9 7 7 7 7 7 7 6 7 7 7 7 7 7 7 7 7 6 6 6 6 7 8 7 7 7 7 7 7 7 7 7 7 7 7 7 7 e e 7 7 u e u u 9 9 e 7 e 7 e e e e e e e e e e e e e e e e e u u u u i p i p p a a a a a a a a a a a a a a a a d d d d g s a a a d f f s s s f k k k k k k l m m m B B B B C B m m x Z J 4.).<.W S V B m l k j z m S ( | | ~ L L I I I I I L L L L L U U U L ~ ~ W ).).<.' ~ C l s f A T Z m m m m m m m m B m B B B B B B B B B B B B B B B B B m m n m n n M n f a a a a a a f f f f j j k k k k k k k k k k k k k k k n n n n n n v v n n n l C U D n f k k l k n n k l l k m m m m m m m m m m l z l l l m n m B B F ' | n i y f ' :.D.^.U.:./ ^ Y I ^ $.b.m.D.h.&.) _ / / ) ) } >.>...| | G f p ,.iX1.| M k l L _ | U C Z Z B B m m m m m n n n n n n m N N N l k l G ).6X3.a a g g g g g g g g g g a a a a d d a a d a i a a g g p p d d d d d N v v p d B l a u u u 9 9 9 7 7 7 7 7 6 6 6 6 7 7 7 7 e u 9 u u e d S | | Z e 4 5 4 4 6 4 7 h 9 6 6 6 6 6 6 6 6 6 6 6 4 4 4 4 4 4 4 4 4 4 6 6 6 6 6 7 u e p v p 9 9 9 7 7 7 7 6 6 6 6 6 6 6 6 6 6 6 6 6 6 6 6 8 8 8 8 7 e a f M G Z n d 7 7 9 9 7 e e e e e r r r r r r r r r r r r r r r g g g N N H s y m | _ T k y s k B C I _ ~ ' #.c.c.c./.b...} ) / I C C B C $.A.5.' E z.$X3.m 8 7 E u.u.u.1.U Z x k N Z N l j k k f f f d a a p a s k m S N g a s k l k y t t ",
"8 8 8 6 8 8 6 7 7 7 7 7 7 7 e u u u r u u u u r r r u u u i i e e e e e e e r a s a s s d d f k k f g g n M Z Z B B V Z V B M H H H G V Z Z Z Z C Z H H Q W A n f f a a a a d d d d f d g a a a a a a a a a a a a a d a a a p p i i i a y y a i d p a i i i i i r r i i i i i i u u u u u u r r e e e e e e e e e e u u e 7 e 7 7 7 7 e u e 7 u 7 7 7 7 u u e e e e 7 7 7 7 7 7 7 7 7 7 7 7 7 7 7 7 7 e e e e e u u r r r r r e e e e e e u u u u u u u u e e e e r r r r r r r r r r i r a i r i g a a a a a a a a s s s s s s s s s s f s j j f f f f j j z j j k A G G m k k k k l l m m B B V C C C K C L L I U U ( | 2.(.hXhX(.<./ L C U C B j l Z ( b.U.b.' } } } } } ....} _ _ _ _ _ _ _ ) } :.z.jXdX/.#.>.^ B f W qX3.D C V V V C C C C D D D D C C C C C C C C C C C C C C V V B B Z Z H U.,.f a a g g s f f f k z z z l l l l l l l l m m m n n n n n n n n n n n n M m m m D b./ n M V C C C m m B B B B B B B B B B B B Z B B m B B B B V V C D ` :.b.W a y M $.-.D.b.z.$.' / ) _ ] :./.P.N.-.&.&.} ] ] ] ] { >.>.} ~ ( E p Q iX6X$.' F m l } } _ I U U C C Z Z Z Z B M M m M m m M N N N N B l G <.0XjX<.a j c g g g g g g g g g g g d d d d g a a g d d d a a g a a d d v n G H v i n ( | V a a u u u 7 7 7 7 7 7 9 9 9 7 7 7 7 7 e u u u a f ( b.U.1.F a 8 6 6 4 8 8 9 h h 9 9 6 6 6 6 6 6 6 6 6 6 0 0 0 0 0 0 0 4 6 6 7 7 7 7 7 r f N v u u 9 9 7 9 u 7 6 6 6 6 6 6 6 6 6 6 6 6 6 6 6 6 6 6 7 7 e i k S _ | | T f e 7 u u u u r r u u i i i a a a a a a a a a i i a a g N N H H z y l | 1.2.Z s j l C L _ | ] +.D.Q.Q.}.wX$X1.>.....| U K B C 1.&X^.D.}.uXzXb.n 8 8 E U.D./.U.1.G B l Z Z Z N n k k n f f f d a a f N G b.1.H s s s l l l j y t ",
"8 8 6 6 7 7 7 7 7 e p 7 e e u p p i i a a a a a a a g g g g g r t t r r r r a j z j j N Q (.3.j l l G (.$Xb.| I U U U U U U G ,.sXU.` ^ ^ ^ Y Y _ Y | (.jX6X<.| M f f s f k k k k n n n k f f f f f f f f f f f f f f f f g g f g g g g y s d ,.N v v a a a a i i r i i i i i i a i i i i i i i i i r r r r r r r i a N H e e e e e e e p u u e e e e e u e e e e e e e e e e e e e e e e e e t u u e e e u p v v f s a a a r r r r e e r e e e e e u e e r u u u r r r i r a a a a a a N A i r g g a a a a a a f s f f s s s s j j z z z z z z l l z z l l l l j Z | 3.( m l l l B B B B B C C L L U U U I Y I T ( ~ ~ } $.(.mXjX<.$.~ I P ) ( V k m G | b.b.b.$.[ [ / /  .>.&.] ) } } } { { }  .>.#./.fXsXz.#.X.F V n ).kX| L D D D D D D D D L U U U U U L L L L L C C C C V V V S C K K Z N 4.jX,.v a s j j s f z N N N N N m m l l l l l l m m m m m m m m m m m m m m M M m M A /.Q.' A M P _ Y L V m m B B B B B B B Z Z Z Z Z B B B B B B B V B C ( <./.3X<.d r S <./.$X6X(.b.:.&.&.} } b.$X6XeX^.b.b.>.&.>.:.:.b.D.D.b.:.:.$.! hXmXoXb.:.} V m ..1.1.| U U C C Z Z Z Z B M M M M M M N N N N N C G ,.iXvXMXQ f z c c s f f g g g g g s f a d d a d a a a a a a a a a a a d f n A ( G v r v 2.} | m r u u u e 7 7 7 7 7 7 7 7 7 7 7 7 7 7 e r a y D U.^.Q.v.:.v 6 4 6 6 6 8 7 h h 9 6 6 6 6 6 6 8 6 6 6 6 4 4 4 6 6 4 4 6 6 6 7 t t t r N ,.H d e e 7 7 u p u 7 6 6 4 4 6 6 6 6 8 4 4 4 4 4 4 4 4 8 8 7 r a m | 2.2.2.| n u 7 e e e e e e e u u u u u u i i i p i u u u u e u g N N N N m s j N ,.,.T j j k m M Z H P P ' 1.U.U.U.,XU.| F T H H z c z n U.&X:X+XuXtX(.A u 8 e ,.1.1.1.T m k k k j j f f g g f d d d d d p v Q (.6XU.T j g g j l k s a r ",
"8 8 6 6 7 7 7 7 u g v u e r i a a a s s s s s s s f z z z N g y r r r r r r j N l j l H 3.kX3.s x B <.(.^.z.} _ ) } | | ( | F U.8X<.X.] ] } }  ...} E (.sX).<.| D n f s k m m m m m m m n n n n z z k k k k k k k k k k k j f f j j k j s z v (.H n M k f f a a a a a g a a a a a a a a a a a a a a a a r r i a a a d Q H u p e e e t e p g p i u u u u i i u i u u u u u u i i u u u u e e r r e r u u u v ,.N H M s s g g y y r i i i i i i i i i i u u e r r e r r r i r i i i i i a ,.G t t J g g a a g g g g g g g g z z z z z z z z z N N z z N z z z B B B G <.6XS m V l x B Z Z B Z C U R T | | T T Y _ | | ` ` ..b.qXmXmX(.b.+.) ) ..2.S n m G | U.oX(.b.:.:.>...>.1.b...[ &.1.1.>... .>.>.u.$XzXzX(.b.b.} V W hXmX<./ ^ U L D L L L L L U U U U U U U U U G C C C C V S G G G K K Z ,.iXmX<.v a a j j j f N N N z z z z k k k k l l l l l m m m m m m m m m m m m m m m F <.Q.Q.$.F k T 2...| F k s l l k l l m m m m m m m m m m m l k k k k C | z.6XfX).b r n A 3.6X0X6X/.b.+.} | ( ,.U.0XqX6XU.1.1.......$.1.U.U.b.1.$.<.tXvXiX6X^.:.| D V S ) 2.U V B m l l k k k k k k k k k k k j z g f B W ,XZXBXAX,XH j c j s s s s a a a a a a a i a a a y y r r r r y y y r y s k m G G S f r 8 W U.| ( d i e e 7 7 7 7 7 7 7 7 7 7 7 7 7 6 4 8 r y D U.^.^.Q.v.:.A 7 6 4 7 8 8 7 u 7 8 6 6 4 6 8 8 8 8 6 6 4 4 4 4 6 6 4 4 4 6 6 7 t t y s 2.,.G a e e t 8 t r p u 6 6 4 4 4 4 4 4 8 8 8 8 8 8 8 4 4 8 7 e d n G | ..| | | M r 7 7 7 7 7 7 7 7 7 e e e e e e e u u e e e 7 7 8 8 e a a f f f s a y y y s k l k a t t s f a a a p 7 4 7 a s y y r t t t y k A P.'.'.-X=XoX<.9 4 8 y y y k s a y r r y y y y r r r r i i i u e Q 6XsX8X).H c g g g z j s i r ",
"8 6 6 7 7 7 e 7 p H N a r r a s f f g g f f f j j z N N N N z y y y y y y y k H Z l m H (.kX3.N m S z.3X$X).1.} +.+.$.$.' } / U.9X).z.O.o.&.&.&.&.>.$.=XzX@XA.>.| m k s M M M M M M M m m m l l k k k k k k j j j j f f f f f f l l l l j k b iX| M V M m k k s s a a a a a a a a a a a a a a a y a a a i r i i g p p <.,.i u e e e t e a N i i e e e e u u u u e e e e e e e e e e e e e e e e e e 9 9 J (.v M ,.G f s g g g y r r i r u u u u u u u u u e e e e e u u u r i i u u i i ,.| e e J h g i a a a a d d d g g a g g g g g g g g g f f f z g j z l B Z T U.qXW m m l B B B B l l B Z Z C U T T T T T | ( ( / | ,.).0XkXkX(.2.T | ,.(.E n j Z L 2.U.(.U.2.| ..| | 2.1.1.( P | 2.2.| ( ( ..<.<.,XiXqXU.1.2.W ).kXjXqX,.F U U U U G C V V Z Z B B m m m m m m m m m m l k k k k x j N ).bXBXU.M p a j j j k N N k f f f k k f j j j k k k k k k k k k k k k k k k k k l m ( b.D.v.:.V j s 1.1.b.~ k y g a a s s s f j f f g g g g g f d d p a a M | ).dXzX(.b a n f p p u 9 e s j j l N f u u 7 e t a r y y y s y t t t y p ).fXsX9X0XW t y l L D V k y s s s s s s s s s s j j j j j j s s s d A ).AXDXZXbX9XG f s s s s s s s s s y a a y y a y y y y r r r r y y r y y s N N Z Z n s t 8 3 3.(.| ( f r e 7 7 7 8 7 7 7 7 7 7 7 7 9 9 7 e y m 1.Q.Q.^.D.:.+.E e 8 r g u 8 8 7 6 6 6 6 4 4 4 8 4 8 6 6 4 4 4 4 6 6 6 4 6 6 7 e r y y B 1.| f e t t t t t h h p 9 6 6 6 4 4 4 4 8 8 8 8 8 8 8 6 7 7 e p N H | | _ ( U G N r 7 e e e e e r r r r r r y r y y a a y y r e e 8 8 7 a g d a a f f k n f f S F ~ F k y s M A A M v n v n m l j j j y y s j M $.T..X[.}.^.b.W u 8 d W G m S V B m l k k k k k k k f s s s a a u ).iXsX6X(.,.y r i s s s s i u ",
"8 6 6 7 7 7 7 e i Q H f r y a s j j z z z z j j j z N m m N z s y y y y y s m G T B k v ,XkXiXH m m W $XfX6XU.>.>.>.>.1.2.| ' <.jXfX/.:.1.>.>.>.1.1.:./.zXzX$Xb.2.Z k s M m m m M M M m m m m m k k k k k k j j f f f f f f f s l x x l z d ! iX,.V S G m n k f s s a a a a a a a a a a a a a a y a i r r r r r r e 9 <.U.d e r t r t t a H a u e e e 7 7 7 7 7 7 7 7 7 7 7 7 7 7 7 7 7 7 7 e e e e e 9 ,X<.v ,.1.U s a g g s y e 7 7 7 7 7 7 7 7 8 7 7 7 7 7 7 7 7 7 7 e e e e u u u a | ,.p i h h r e e e r e e u u u i i i i i i i i a a a y y y y y y y z l Z | (.U.<.k a f m l l k s y j j j j k k j s j j j j k k s d p 9 q 0 i y k M W qX<.m l B C m d v v n m j s k n f f f f s s s s k k f v v v 9 6 7 n G W hXkXhX(.n M C L U F C m k k k k k k k k k k k k k k k k k k k k l l k W qXHXDX,Xv d f M M k j N z j s s s k k f k k j k k k j k k k k k k j j j j j j j k V ..u.u.:.| j j y n U./.<.G a y y a a s s s s s s a a a s s f a a a a a | <.iXmXfX(.b f u p p i d k l j j j l n d d v v c y j j j j j s y y s y j ,.dXdX6X6X,.f j j f S ( D k k k l m m m m m m m m m l l l l j j j j f W $XZXDXZXiXU.v d f f k k k k k j j k j j s s s s s s s a s a s s s s a a s k Z Z l s y r e 6 4 ).(.<.<.f t t 7 6 6 7 7 7 7 7 e e u u u p p f | /.D.D.b.1.' ) D t t b ,.u 8 8 7 6 6 6 6 4 4 4 8 8 8 8 6 4 4 4 4 6 8 6 6 6 6 7 r y y l G 1.2.k g t t t t e h h h p 9 6 6 6 6 7 7 7 e t t e e 9 9 u e p n G ,.2.| I D C Z N r 7 e a a a a a s s s s s j j j j j j z z k s i e 8 u g g g f M | | $.:.1.b.b.D.D.1.` M M ' b.^.(./.U.v.:.] ) } 2.2.| T Z Z G z.}.:X+X}.v.$.A u 7 ,.6XU.$.' ~ ^ I P L D C C S C C V B m k k f v (.0XsX0XU.,.s r i a s s a i e ",
"8 8 7 7 7 7 e e p ,.G f y y y a s s s s g s s s s j k k k k s s y y y y y s l G U V l v ).vXiXW m l n A ,.3.( L D D D D S n G N Q <.E C B B V M B V m A Q Q A A Z N c c H m k j s j l N z l l z k k k j s s f s f g g s s a a a a s l x y u Q mXU.d f H W n m a y y a a y y a i r r y y r r r r r r r r r r r r e u 9 3.3.v 7 i r h t 8 y H a r e e e e e e e e e e e e 7 7 7 7 7 7 7 e e e e e 8 t t 2.(.W v 1.| G a 8 g N k f i 7 7 7 e e e u 9 9 9 9 9 9 9 9 9 9 9 9 u u u u u e r n | | d u h h i r r r r r r e r e e e u r u u i i r y y r y y y y y s m M m 1./.$.E s a k M H Z B j j k k j j k j j k l m l m B B l n M d v d s y s N <.iX2.B j l V l V n n m B B B C D n n M M M V C D D D D D D C k j l V v (.mXvXhXQ d m V D P ) P B k k k k k m m m m l l k k k l m m m m m x x k <.fXbXBXqXv f v | | a y c T H Z Z B m m m m m m B m m B B B B B m l l z z z z y y U _ } +.:.| Z y x c z W iXU.<.Z j B B C D D G G G D L L U U U L C l j l T | U.kXAXjX6XA p b ).>X3.G L L I 2.} ` ' <.).(.).N B j B I ) ....U C B k E (.zXjX5Xz.| U B Z z./.v.u.>.S m V U U I P D D G G G G G G D l z s x _ <.6XZXZXiXU.U.v d k Z G Z Z B Z B m m m m l l l k k z z z z n N N k f s m V D K l x x y a r e 8 4 (.(.z.| y y r 6 9 t t e e e e i p p a a r A /.D.b.b.| M m T T t 7 Q ).H 8 8 7 8 6 6 6 7 7 7 9 8 8 6 6 6 4 4 4 6 6 7 h p p d s j l B C ( 2.M a t t 7 7 e p g h h p 9 9 9 9 u u p p p p p p u u u u k ~ ] ..1.I D B B Z N r 7 r g z z f f j z z z z N N N N N N Z H Z z a r e i g g g f B _ &.:.y.u.c.D.K.D.p.&.M A $.Q.+X+X`.L.l.7.+.X.O.X.} | V V Z G b.}.}.M.#.+.$.S p 5 ).6XoX$.+.] } } _ ( ^ ( I P P U U L Z B m n v U.9X6X(.,.f r r i i a a a r r ",
"8 7 7 e e e e e d ,.G y y y y y y y y y y y y s y s s k k s s a y y y y y y k Z C B l n 4.vXiXb k B V M n k j B C C C C B m n v v A n B x l m m m m B M p b A n G l c c m V m k j j l m m l l l k k j s s s s s s s a a a a a a a s j x c g Q iXU.f y a V ( M n s a a a y y y y r r i r r r r r r r r r r r r r e u 4 (.,.p e r g g t t y H a i u u u u u e i u u u i u u e u e e e e e r r r r 8 g T 2.U.b.' / | G f t e f m m g i e t e r i p p p p p p p p u u u p p u u u u u e a G | | a r g g g a a a a a a i i i i i i i i i a a a a a s s s s s k Z M G V 1.b.>.S k m M V T G Z k l m B V V V V C G G U U I I ( ( | 1.U.1.G T K Z G <.iX3.m k S 1.1.1.} ( ) ......| ,.U.U.1.' } } } } } ' ' } } I C C K | Q iXmXhX,XA M F I / ] ..} ^ C m M m m M m m m m m m m V V G G G C K K V | U.eXNXvX).A f v b.<.d s z T H G G D D G G D D D D D D D L L C C C Z Z H H Z m j U | ^ ] o.>.F V B j Z T N 3.hXU.2.m C C D L I ~ ( ^ ^ ^ _ _ } _ _ Y K B C } +.z.hXmXtX).N d J hXjXqXE C ) b.v.v.v.D.=XfXfX6XS K K ..>.>.>.>...L B k :.&XzXdX/.E ^ ..B ,.^.].f.v.u.S M F ....} } ) ( | ( ( | | ( ( V m j K ..>.z.vXhXz.' 1.A d N Z G U G G G Z Z Z Z Z Z B M M N N N N N N N N N k k m M F | T j K x y r t 7 6 4 6X(.| U y t 7 9 7 e e e e u p d d a g d W (.b.$.( n s s K Z t 5 3.iXQ 8 7 e 8 6 7 9 9 9 h u 9 6 6 6 0 0 6 6 6 7 t h b v | V B T l B D U k r t 7 7 7 e u p h h b p 9 9 u p p h h h h h h p p 7 u m ) ] 1.2.U m k l Z N r 7 r c z N N N z z z N N N N N N N N H H H N s r e i g g g s L ..>.u.D.V.Q.}.].Q.V.b.v v $.&XwX&X}.}.I.l.r.e.y.u.b.1.| ( G M $.Q.D.f.u.:.1.S a 9 (.tX&Xz.:.+.......| | | | | ( T T T T T m f n G 1.1.S f a a i i i a a y r r ",
"7 7 7 u p i e e f 2.| f f s s s s y r r y y j z k n m m n k a a a a y y y s l Z Z x x N 4.vXkXQ m B S G | m B x _ ) / / _ _ W <.<.E E / ^ ^ ^ ~ ( E E $.! <.E $.~ k j z V ( ( D m V C G D C C C V B B m l l l k k k k k f s s s j l x x Z N Q (.U.B k s j ( U D M k k k y y y y a a a a a y r r a y y a y y g y i d b qX,.p e r H H r t y H g a a a a i i i a i i i a a a a a a a a a a a a a a r H 2.| $.(.S S G M f a t r k Z N f y t a a a a a a a a a a a a a a p p p p p i u u f U | | a r g z z j j j s s s a a a a a s a s s s s s j k k k k l l B U L _ C 1.1.&.V V D L U T T L l B D U U U P U ^ _ | } } } ..&.O.v.$X=XU.' ..} I W <.6XU.v f | eX/.u.-.*.*.;.;.%.:.U.eX6X/.9.w.*.%.>.;.*.*.*.>./ L L I 2.<.qXhXiXQ E S F I / ] &.>...D D D D G m B B B B V C D F L U P P U U U ( | b.oXsX(.,.S j f /.U.M s M T T U P P L L L L P P U U U U U P L L L L G G D D V L 2.} I ) { +.[ E m Z C T L S 1.$X$.$.| P I U ( ( _ ) ) ) ) }  . .} _ I C I ..:.z.qXfX$X<.W a Q bXiX).M P 1././.C.G.|.rXAXjX).G K I 1.-.6.:.:.>.D L I 1.(.8X$X$.] ..~ m ,.&X|.P.c.u.E S / 1.>.&. .} ] ) ) ) ) ) / ) S m l I >.&.$.<.3.A <.U.A d n Z G G G G D G G V Z Z Z Z Z M N N N N N N N H N n k k v E $.+.D K x y i e 7 3 4 q kXU.( S y e 7 7 7 e e e u p d d d u i W (.<.A n s y y C B g 4 ).vXQ e 7 7 8 6 6 6 6 9 9 9 9 6 6 6 4 4 6 6 8 8 u i b U.2.I ( | s l C B j y e 7 6 6 6 9 u p p h h u 9 u u u p p p p p p u u 9 u V } ^ ( 1.H s y s H N a t r g g g g g g g g g g g g g g z k z H H N s r r r i a a a M | 1.b./.^.(.$X6X3XoX(.2.v A /.fXfXfXsXyXoXM.x.D.D.U.U.1.| S k M <.b.b.b.^./.E a 8 Q hXzX$XU.1.2.2.,.| | | | ( G G T R T Z m a f d M f d i r r r i i a a r r r ",
"7 7 e u h h e t f 1.1.F m m M B m k y r y z N H G G G G D M n s a a a y y j l B Z x x H <.hXkX<.M C 1.(.qXW B | 1.:.-.;.>.1.U.8XsXb.:.;.&.&.&.&.>.$.u.^.uX&Xb.b.| m j k F ..2.) F P ( ( ( ( ( ( U U D C B Z Z B B m m m l l l l l B K K Z Z H U.1.L L C j C ..L F S n k y y y s g g g g a a y a a a g g g g g g g d 3.(.3.v e i H Q g t s T z s a a a a a a a a a a s s g g f f f a s s s s s s f 3.| ( ,.( e k n n f f r r s Z Z N k y s s s s a a a a a a a a a a a a a a a d u i n | | | a r f N N l z z z k j f f s s s s s s s f s k j k k l m B C C L ..| V I >.^ D U U I U | | U B C I _ _ _ ( _ _ ) } } o.&.>.>.q.N.XX3X<.$.+.o.P G | (.(.v f ,.6X/.c.5.#.=.6.6.h.b.U.uX3X/.x.8.=.;.;.;.6.6.;.;.o./ / ) 2.,.).9X(.W | F P ^ ) } ..>...S I U U T m B B B B V D L U ( ( ( ( ( Y ^ ~ $.u.$.z.! ( V s v U.$XW n V | T U U U P P P P I I U I U U P P P P P U U L L L D >..._ P ^ } +.#.b.M m F C T _ E (.(.<.b.| | | | | ) ] ] } } ......} } U D ^ &.[ $.z.(./.b.S s Q bXhXqXS M | (.&X}._.XXzXNXmXiXW C C >.v.D.D./.U.) L L 1.(.6X(.` &.b.U.| <.=XwX+X^.b.1.S ^ 1.1.&.&.....} | } | | ( ( F m B ^ 1.>.] E n v U.(.A d n Z G Z Z V V Z B B M M N N N N N N N N N N N N N n k s d W 1.:.1.C x z i e 7 9 0 0 J iX1.E F e e 8 7 e e u u i p p p e u W /.<.n n m s j K Z t 8 ).bX,.p e 7 8 6 6 4 4 5 5 5 6 6 6 4 4 4 4 8 8 7 u p <./.' ..1.D a s T l x z t 7 4 4 4 6 7 u u p h p u e e e e t 7 7 8 7 6 6 7 i S 2...D n s t t y H N a e e t t e e e u u e e e e e e e r r a k N z a r r r r r r r a n M n A W Q Q ! ! ! W H v p b b 4.4.! 4.! A A E A A A | | G k s e v p b ' 1.| s e 9 b 4.Q A v M n f f f d p a f k k l l l f i u a s a v u a g a i r r r r r r ",
"7 e e u h g i t a 2.U./ D S G G Z n s y y z H G T ( ( ( ~ F M f a a s y s j l B C x C F <.6XfX<.V U 1.(.qXv C 1.b.c.p.6.;.h.U.eX$Xz.u.;.;.>.>.;.:.u.c.+X=X!.D.v...D j k I 2.>.} ~ I ^ ( _ _ _ _ _ ^ U D C C C C Z B B B B m m m Z B U L T Z n | 2.I L K C x L 2.( U.3.n s y y y a a g a a a a a a g g g g g c g g d U.(.3.v u p G ,.N r s T z a g g s a a a a s a s s s g g g d d d f f j s j m | | E ' 2.f a e f k n k s y y f H N z z k s s a a a a a a a a a a a a a a a a p a i n | | ( d r s z z k z z z k k f s a a a s s s s s s s j j j l B C L L I .._ L L L L U L L P U T | | U C L _ _ _ ^ _ } ....&.;.;.>.:.s.A.tXzX(.c.#.:.( L ( 1.1.M k ,.jX6X$X/.v.g.g.g.v.b.(.tXzX3XE.V.s.g.g.h.y.h.g.v.>.[ ] >.| ,.<.U.b.| ( ( P ^ ) ) | ) | | L _ | U m m m l B B C D U I ( ~ ~ P I I F :.u.X.A P I D a v ! U.E f m G G G G D G G D D D D D D D D D D S S C V V C C L >.>.) I L C ( 1./.}.<.M m Z Z T T H (.6X<.$.| T T T ^ ( ( ( ( ( | | | | G m D b.>.' W W ,.(.| a 9 3.iXlX,Xf d ,.(.(.(.(.,X0XhXjX(.v n M <.U.U.1.1.,.C m v <.1.<.>.[ >.1.T n ! (.(.U.2.( C L C I _ ( ( T U U G G G G G V l s k 2.>.I C k p (.U.E d s s s k k k k f f g g f g g g g a s a a f n m N N n f f a 9 3.$X<.2.V a u 7 4 6 9 6 9 Q 0X1.b.S p 8 7 7 7 7 7 6 6 6 6 4 4 v 1.| n f s m B C T r 3 <XnX3.u e h 8 6 4 4 4 5 5 5 4 4 4 4 5 4 4 5 4 8 i n U.u.b.U._ U a 8 H Z x l y 7 4 3 4 4 4 6 6 9 p p p u 7 7 7 8 8 8 4 4 4 4 5 8 M 1.| F f t 8 8 8 d N a e 7 8 8 8 6 6 6 7 7 6 8 8 8 8 8 8 7 r a f f d u e u e e e e i f d i 8 4 8 5 5 4 6 7 7 u p p 9 0 0 4 4 4 6 6 7 7 e e a H G N a 7 4 6 r L _ P s t 6 9 4 6 7 e e e e e e e u e e a s j j s a i u r y y d u a N g a r r r r r r ",
"7 e e e i g a r a ,.U.} ( U ( T G k s y s z H T | | | | | ~ M f s s s s s j x B B x C D $.U.6XW G | U.6X0XW m | b.v.v.y.h.b.^.sXzX^.s.h.h.>.>.h.:.b.b.=XsXoXD.D.1.( k k P ..1.1.^ ~ ( ( ( _ _ _ ( ( U F C C C Z Z Z Z B B B B B l B _ | Z B k D | _ .._ I C B ~ 1.0X(.v f y y y a a a a a a a a a a g g g g g g g d ,.(.,.i u a A ,.H r y T z a a a a i i i i a i i a a a a p p i i p a s s l B ( | ' U.| f a r t a M U m s y r a H H g z g a i i i i p p p p p p p p p p i p p p u n | ( U f a a a s s f f f f f a i r y y a a a a a a a s y s k V D L ^ 2...L B B B B G U L D C C C C C V C L U L L L I ^ ( / ] [ } $.$.z.6XiX9X/.<.$.| U ^ } / D B N 3.0X(.U.1.:.:.#.+.$.! ).9X8X^.z.:.$.X.' X.+.>.>.>.>.&.} _ ( E | | | | ~ ~ ~ F D D D F F D U T G m m l l l l m B V V M M V V V V M ' $./ D I I C s v $.U.E f m G m m m m m m k k k f f f k k n n k k k k j m m &.>.) ^ I B j l G 6X(.U.S k j z z y g 9 ,X(.! W k l l k f f s s s f f f f n s k ..1.' E G n ,.| f v d 9 p i e n i N N N N b b b 9 b d n n d p v n G Z x k d v v n E 1.>.~ m k v p p d k l B B C D B l k s s k f f f f f f k k s T ..C C l v (.U.E d a a a a a a i r r u u r r r r r r r r a f k n N n f f y r 6 4 (.(.1.<.b u 9 9 7 9 9 9 < Q 6XU.U.v 7 8 8 6 6 6 6 6 6 4 4 5 b 1.( k k k m B C K r 3 <XhXU.a 7 7 8 4 4 4 3 3 5 5 5 5 5 5 5 4 5 4 4 7 v 1.b./.wX$.U K t 4 8 H Z x j r 8 3 5 5 5 5 4 6 6 9 p p e 7 8 7 6 6 4 4 5 5 5 4 v 2.| D k r 8 4 8 d N a 7 8 8 8 4 6 4 6 6 6 6 6 6 4 4 8 7 e i a g g d u e u u e e e r g v d e e e 7 4 0 4 6 7 e u p p u 7 7 8 8 7 7 t t t t a H Z N s 7 4 6 s Y _ I k e 6 9 6 7 7 e e e 7 7 9 u u u u a s j j s i u r r y r g u d N N s r r r r r r ",
"e e e e i g g y y T 1.1.| G G G M k s s s k H G T ( | | | G M n f f j k k l m B B l m S ( b.(.,.T S W (.jXqXG P 1.b.b.b.b.U.(.6XmXdX^.v.:.>.1.1.:.1.1.U.dXzX$XQ.U.,.m m S ( ....D D F P F D D D D G S V B B N N N N m m m m m m l m | | Z l j k l C >..._ U B f Q hX).J b g y y r r i i i u i i r i i i i i i i u i b (.3.i 7 v A ,.N r y H g r e e e 7 7 7 e e 7 7 e e e e e 7 9 9 e e r k B V S ~ (.<.S f i u 8 r m T D m s r 8 h J h g g p u e e e u u u u u u u u u u u 9 e e e n 2.( G f i i i i i u u u u u u e r r r u u u u u u i i y s k V F | | _ D F s s s s N G F F m m k s j l B m l k k k j k n k s s f f d p u u u u i d ( E ( ( ( m j Z H a i f n f v v f p v p 9 9 u p d f f n a n S L ^  . ._ ^ V n n l C _ ..( G B l m m m m C P U C m m l k k l l l l l l k k k k f n F / P L Y Y K j n ' D.F s l H s s s s s s s f f f f f f f f f f f s j j k ( b.{ ) _ l j y y i 4.dX/.:.G f s s g t p h qX).W V j j s f f f f f f f f f f a s ( 1./ F B m T T y N N N n v d v v f f f d d g N v f N v v m s k H Z B l j n a d d d | b.` ~ m f N v f k k m V G V m k s s y a s a a a a a d f s G ..L C n v (.U.E d d a a a a a i i i u u u u u u u e e r a f v n n f a a r 8 e 9 0 qX$X/.<.b 6 4 7 7 9 9 9 < ).iX(.<.N e 7 6 6 6 6 6 6 4 0 5 p 1.( k k m l B C K t 4 0X,X3.e e h 8 6 4 4 5 5 5 5 5 5 5 5 5 5 5 5 7 b (.<.' +XoXW Z c 8 5 3 4 H B Z s 7 8 4 5 5 3 5 5 4 8 p h i e 7 6 6 4 5 5 3 3 5 5 v | ( D n a 6 4 6 d N d 7 8 8 8 4 4 4 4 4 4 4 4 4 4 4 7 u p g g a a p u u u u 9 e e u v v N p i t 7 0 4 4 6 6 u u p h h i e e e e t t t t t a H G V j t 8 7 k | ..L k r 7 u u e e t e u 9 9 9 9 9 u i d g z s s a i r r t t g y f N H g r r r r r r ",
"e e e r i a g y s V | ..U m n n k f s f s a k m m m M V G V n k f f f k k l m B l l m V S S S G m T W ! Q Q V C D I F S S A E A 3.4.A A S D C S S F n M H Q b A S m l M m m n k k n m m n k k k k n k f f f f s f s f k k k l l Z m G G N k s j z y L >...| D p 4 ,XiXQ v f a y r e r r u u u u r r e u e e e u e 7 p <.W p i p S ,.N r y H g e 8 6 6 8 6 8 8 8 6 6 6 6 6 6 6 6 6 6 8 8 r z Z B m 1.b.E n m e e u e f G T G n a e 8 e h g g p u 7 7 7 7 6 6 6 6 7 7 7 7 7 7 8 7 7 e n 2.| G d i u p e e e e e e e e e e e e e u u u u u u r r s m M F ( ( P S n r r r r s N G F V m f a y k m k l l k k j k k k s s k k n N f N g g g d A E ( | | V l Z Z z z z z f f f f m n n n f k m H z z s s m U ( 2... ._ L M k l x l V ~ | T Z N z k k k V F F B m m l k k k l l l l l l k k f f k V ( P L I Y K j m ' D.F k l Z j s g s s s s s s s g g g g f f f s g g e ,.U.&.} ) m B y s c h 5 (.6X$.<.W k a g i r u 9 0X3.| l l k g g g g g g a f f g f s U &.` U B j T H k z N k a d a d M n n n z j z N z N s n n Z Z H T Z B l k s a H d v v $.b.} F m l k n M V M B G G Z N z z s s s s s s s f d a a G 2.L D M A $XU.E f f a a a a a p p u u u u u u u u e u u a f v n f f a r 8 e 7 4 0 0 8X=X^.W p p 7 7 7 6 5 5 1 ,XiX,.Q i 7 6 6 6 6 4 4 4 0 4 p 2.U k m N l B C C a 9 ).qX3.u 7 u 8 6 4 4 5 5 5 5 5 5 5 5 5 5 4 8 u U.(.$.b.oXQ.<.n t 3 5 < 3 8 H H l r 8 4 5 5 3 3 5 5 8 e p h i e 6 6 4 4 5 5 3 5 3 p | ^ C n f 8 4 7 v N d 7 8 8 8 4 4 4 4 4 4 4 4 6 4 4 7 p h g g a p i u u 9 9 9 9 9 7 v A H d a r t 6 6 6 6 6 9 u d g g a r r r e e t t e r a G D V j r t e M | ..L f r e u u p t u u u u 9 9 u u u d g z z s s a i r r r t g y d N H g a r r r r r ",
"e e e r a a s y s B G V M k f s a a s s s a s f f f f k k k k f f k k k k l l m l l m m m m m m B B G E G V m B B B B B m m m n n v n m m B B B M M M m n n n n m m m B B m m k k k k k k k k k f f f f f s s s s s s f k k l m Z B m n f f a i a r a ( 1.>.>.E p 9 ,X(.S S k y 8 8 r u u 9 u e e e u e e e e e 7 7 v Q H d a i S ,.N r y H a 7 8 6 6 6 6 6 6 6 6 6 6 6 6 6 6 4 4 4 8 7 a N V C ) b.| S H i 8 6 4 0 6 7 ,.| F f s r 7 u H k a p e 7 8 6 6 6 0 6 6 8 6 6 6 6 8 8 7 e n | | U a r u i e e 7 7 7 7 7 e e e e e e u u u u u u e y m Z S ( ( E S M a a a a a y s N H H G n s s s l N N N m k k s s k k k k k k k k k j j k k V ~ ~ } | D M G T m l z k k k k z n n n n n m m N l z m M U | >.&.{ ) ^ V m m m m l m V 2.( D m l k k k m V D D C m m z z z k l l l l k k k k f k V _ ~ F I U K l n ' ^.( k m C k j j s s s s s s s f g g g g f z f r u ! $X:.[ ~ S n d s s s g J 9 ,X6X1.<.S f d d i u p v (.2.( n N a g g g g f f f f f f s P &.] I C l | G s k k k k f f f f k k k k k k l k k k k m Z Z Z Z m k l k k k k k k s f 1.>.] F m k k k m M M Z H H H N z j s s s s s s s s a s D _ ^ D S W /./.S f f s a a a a i i u u u u u u u u u p a d g v f a a r r e e 7 9 0 3 ! dX(.<.| s e 7 8 8 8 6 6 0 iX,XQ W u 8 6 0 6 6 4 4 0 6 p ,.U j k N m B C G i 8 J ,X3.p 8 8 8 8 4 4 5 5 5 5 5 5 5 4 8 5 e 9 W $Xb.u.b.U./.<.4 8 5 3 1 3 4 e H N f a e 4 5 3 5 5 4 4 8 e p p i 9 6 4 4 4 5 3 5 3 p | U B m k a t t d N f 7 6 6 6 6 4 6 6 6 6 6 6 8 8 7 u h h g g a p u u u 9 9 9 7 7 7 u d N N f a r 7 7 7 7 7 e u e e r a a a r r r e e e r a G U V z t t a P _ ( F v u e u i i u i e u u e u e u d g g f f s s a a a i i i a a d a f f g N z a r a ",
"e e u i a s s y j Z G V n k f s a a a a s s s s s s s s s j j k k k k k l l l l l m m m m m m m B V G G T G C C B B B B B B B B m B B B B B B B B B B B m m m m m m m m m m m k k k k k k k k k k f f f f f f s s s s j k l m Z V V m k f d a u e i a f ,.(./.U.A u 7 U.$.| W b e r r i u 9 u u u e u 7 7 7 7 7 7 e d W G d a a S ,.N r a H d 7 8 6 6 6 6 6 6 6 6 6 6 6 6 6 6 6 6 4 8 h N N m I ..2.| G i t 8 0 0 0 0 6 p ,.( M k a e 7 p N n a u e 7 8 6 0 0 0 6 6 8 6 7 7 7 8 7 e f ( | T f i u i e e 7 7 7 7 7 e e e e e u u u u u u u a k Z G ( 2.F S M v i a a a a y y s N G G Z k k s s N N N m m k k s s f k k k k k k k k k k k C ^ ^ } | D M G G m l k k l l k n n m m m m m m m l m M D ( } >.{ } / F M m m m m m n n D 2.D D C B l k l m V D D S Z Z l k k k l l l z z z k k l C ..^ F I U C k n ,.(.| m m G n k k j s s s s f f f f f f f f j z d b 6X^.#.[ S n d p f f f g u b 9 qX$Xb.1.M f d p p f f G U.2.E A k g g g g f f f f f f s U  .) I D m | ( f k k k k k k k k k k k k k k l k k l m B Z Z Z Z m k k k k k k k k M j m 1.&.| F m k k k n N m Z H H H N z j s s j j j j s y j D ) ^ D S $././.E k j f s a a a i i r u u u u u u u p d f g v g a a r r e e 7 9 9 9 0 5 3.zXU.1.C r 7 t h 9 7 7 6 q iX(.Q A p 7 6 8 6 0 0 6 6 d ,.( k k z x B V G i 8 6 Q ,.p 8 7 6 4 4 4 4 4 4 4 4 4 4 4 8 7 4 W ^.b.oX3XE E <.v 4 5 3 3 1 1 3 4 e H H f i 7 4 3 5 5 5 4 4 6 u p p i 9 6 4 4 5 5 4 5 p | U B l k s t t f N g 7 6 6 6 6 6 6 6 6 6 8 8 8 8 e i h g g a a p u u u u 9 7 7 7 7 7 e d N N k a u e 7 7 e e e e e r a g g a i r u e r r y Z U C z y t k | / P S n i e u p p i i u u e r r r a g N N f s s s a a a a a a a a a a g a n H N f y a ",
"u u i a a s s y k Z G m k f a a a a a s s s s s f s s s j j k k k k l l l l l m m m m m m m m m m B Z G T T T C C C C C V B B B B B B B V V V V V V V B B m m m m m m B Z B m l k k l l k k k k k k k f f f f s s s j z m m B Z C Z m k f g p u e i a r u U.0XU.| j y t | <.(.,Xb a y r u 9 9 9 9 9 u u 7 7 7 7 u e a H H f i a S ,.N r a H d 7 6 6 6 6 6 6 6 6 6 6 6 6 6 6 6 6 4 7 p v N N S / ) ( | M 8 7 6 0 0 0 4 9 8 d ,.F V k a e 6 p N l a i e 7 8 6 0 6 6 6 7 7 7 7 7 7 7 e a S T T n a r i e e 7 7 7 7 7 e e e e e u u u r r y s m S D ( 1.( F M v a g a a a s s y y s H G H M l j s j k m N M m k k j k k k k k k k k k k k k C ^ ^ } ..D V U U B l k l l m m n n m m m m m m m m V S P ] >.>.} | U V m M m m m m m n M ~ | C ( D B k k l m V U U G G B m k k k k l l l l l k l C | ^ P U U L k n <.U.| m V F m k k j f s s f f f f f f f d f z l v U.&Xz.$./ k s a d f f f g v b d b 6X(.1.| C k d d N r d | U.| F f f g s s f f f f f f f U } ) I P V 2.| m k k k k k k k k k k k k k k l k l m B Z Z Z Z Z m k k k k k k k k m M y D 1...| D m k k k n m m Z H H H N k j j j j j j s y j D ) ^ D S b.D.b.~ k k f f a a a a a a a i i i i i a d f g z g g i r r r r e e 7 9 6 9 9 0 ).iX1.1.G r 8 h 6 6 7 7 5 0 0X).,.G p 6 6 6 7 7 7 7 a ,.( k k z B Z C G a 8 4 9 Q d 7 7 8 4 6 4 4 5 4 5 5 5 5 5 8 5 J 6Xz.U.zX).u v u 5 4 5 3 3 1 1 3 3 5 p N N g i 7 4 3 5 3 3 5 4 6 u i d i u 4 4 5 5 4 5 p | U B m k s t t f H v e 7 6 6 6 6 7 7 7 7 8 8 7 e i g N g g a a i r e e e e 7 7 7 7 7 e r f N N f a u e e e e e e r r a g g g a i u u r r y Z U C z y y B 2./ D m n a r i a a i i i i r r y s g N N k f s s s a a a a a a a a a a g y N ,.G n a y ",
"u u i a s s s s k Z C l s s y y a a a a s s f s s s s k j k k k k k l l l l l m m m m m m m m m m B V G | T T U D D C C C C C C V V V B V V V V V B B B B m m m m m m V Z B m l k k l l l k k k k k k k k f f s s j k l m B Z Z C Z m k f d i u u p y t a 4 qX,X2.| l r i U.iXhXQ v s y u 9 9 9 9 9 u u 7 7 7 9 u e i H H a i a G ,.H r y H i 7 6 6 6 6 6 6 6 7 6 6 6 6 6 6 6 8 7 p v N f B | P I F G e 7 7 9 6 4 4 4 6 4 u v ,.G M f p 9 8 s H z a u e 8 8 6 6 6 8 7 7 7 7 7 7 7 e y m F T N a r i r e 7 7 7 7 7 e e e e e u u e u y y j L U | | ) D S n s a g a a s s s y y y m Z Z H Z l k s k m M Z Z m k k k k k k k k k k k k k k C ^ ^ } ..D V D U B l l l l m m m m m m m m m m M V S D / { >.2.| | G k m m m m m m m m V m ( S _ ( C l l k l m U ( ( U C V m l l l l l l l l k l V } ^ I U U L k k 1.U.| m V G m k k j f s s s f f f f f d d f j s <.6XQ.c.1.M s s g g g g g g d d a p b 8XU.$.| C k s y a a e E U.| S m z j k f f f f j f s U ) ) ^ ^ C 2.| m k k k k k k k k k k k k n n l l m m B Z Z Z Z M m k k k k k k k k s M k k F 1.( ( D m k s f n m M M Z H Z l l j j j j j j y j D ) ^ D A D.D.b.| k k f f a a a a a a a a i a a a f f k k f a a r r r r r e e 7 7 6 6 b 0 , ).8X<.3.N 8 t 7 7 e e 4 5 b 0XU.,.A e 6 6 8 8 9 7 a ,._ k k z B Z V G N 7 6 u Q f e 7 8 4 6 4 4 5 4 4 4 4 4 5 6 b iX=XW /.tX! b 8 8 4 4 3 3 1 1 < < 3 4 5 e N N g i 7 4 5 3 3 3 3 5 6 e a a a 8 4 4 4 4 8 a | T B l k s t t f N v e 7 6 6 6 7 7 7 7 8 7 7 t r g g g g a a a i r r r e e e e 7 7 7 e t y f N N f a u e r r r e r r a a g g g a u u r r y Z U C l y s G 2.~ V m k a r a a a a a a a a y s j z N N k f s s s s s a a a a a a a a g y N 1.( m y y ",
"r u a a s j j s j Z C k s s s a a a a a s s f f s s j k k k l l l l l l l l l l l l m m B B B B m B V V G T T T U L L L L L C C C C C V V V V V V B B B B B B B B B B V Z Z B l l l l l l l l l k k k k k k k k k k l m B B C C m l j s f a i p u p a a r 9 J hX/.$.( a r b nXkX3.v z y u u 9 9 9 9 u u 7 7 7 u e e r H H s r a G ,.H r y H i e 6 6 6 6 6 6 7 7 6 6 6 6 8 8 7 7 i g N N n U | S G M u 6 7 7 6 6 4 4 6 6 8 8 e v ,.G H a 7 7 r c H N a g e 8 8 8 8 8 7 7 7 8 8 7 7 e r m G T N a r r r e e 7 9 9 e e e e e e e e e u f s | D D 1.} L V n f a a g a a s s s s s s s z H T H Z m k j k m Z Z M m l k k k k k k l l z k l n L ^ ^ ..2.D V G U B l l l l l m m m m m m m m m M S P ~ &.>...| | T Z Z B B B B B B B B B B m M L ( | V l m B Z m U | P F D V m m l l z z l l l l C } / ~ U T K l k U.b.( m V G m k k k f f f f f f f f k f f N r <.6X/.c./.E M f g z g g g g f f s s f u b qXU.1.I C s f g f d a 1.b.( G M n k k k f f f s s F  .) I _ D 2.,.m l l k k z z k k k k l l k l m m m B Z Z Z Z B m l l l k k k k k k k m k j y F 1.2.I V m k f k k k k m Z Z Z m l j j j j j s j D ../ S E ^.v.1.^ k k f f s a a s s a a a a a a s k k k z f s a r r r r r r e e e 7 9 9 9 q 3 (.6XU.(.H y 7 7 e e r 6 4 J iX4.J g 7 0 0 0 0 7 e 2.( k k j Z Z C Z g 7 4 9 H N e 7 7 8 6 4 4 4 4 4 4 4 4 9 6 3.sX!.u.D.&X(.Q r 8 4 4 5 3 3 3 3 3 3 4 6 6 g H N g u 6 5 5 3 3 3 5 4 7 u s g i 7 4 4 4 4 y T T B l m k s r a N N u 7 6 6 7 7 7 7 7 7 7 t r a g g g g a a a r r r r e e e e e e e r r t r f N N f a r r r r r r r y a a a g d a a y y y Z U m l s l T ..I m m k s s s s s s s s s s s j z m m l k f s s s s s a a s a a a a a g y s G 1.H g c ",
"u i a a s j j s j Z C k s s s s a a s a s s f s s s k k k k l l l l l l l l l l l l B B B B B B V Z V C C G T T U L L L L L L D D C C C V V V V B B B B B B B B B B B Z Z Z B m l l l l l l l l l l l k k k k k k l m B B V C C m l j s a a p i p i y a g 7 0 b $Xb.<.( a 8 4.bX(.W G y r u u u 9 9 u u 7 7 9 u e e r H H s r a G ,.H r a H d e 6 7 7 6 6 6 6 7 6 6 6 6 8 7 e i g N N H U ( G Z n u 8 7 7 6 6 6 6 6 6 6 7 8 4 e v ,.T n u r r r z N H a r t 7 7 8 8 7 7 7 7 8 7 7 e y M G T n a r i r e e 7 9 9 e e e e e e e e u e a U.,.P 1.2.~ D m s a a a a a a s s s s s s y s N H H Z B l k j k m B Z B m l k k k k k l l l l l m L ^ ^ ..2.D V C T B m l l m m m m m m m m m m m M D / } >.&.| ( T Z Z Z B B B B B B B B B B m B D 2.2.| V m m B j m ( _ ( L D m m m l z z l l l m V ) ) ^ U U K l n U.b.( n V G m k k k f f k k f f k k k N N p <.0X^.z.b.' f f f z z z g g g j z j c j i 9 ! 6XU...^ C n d d f f f | 1.F V m m m k k k s s s F  .) ^ _ D | | m m m m k z z k k k k l l k m m m B Z C Z Z Z M m k l k l k k k k k k k k j y k ,.1.| I D m k f f k k m M Z Z B l l j j j j s j D ..~ S ' D.b.>.( k k f f f s s s s a a y a a s f k l k k f s y r r r r r r r r e e u 9 9 9 0 0 ,X8X(.,.Z r e e e t 7 5 0 4.iXQ a r 7 0 0 0 7 e 2.( k f j Z C V N g 8 4 9 H v e 8 7 8 8 4 4 4 4 4 4 4 6 9 <.6XwX[.v.' b.(.p 8 8 8 8 4 4 5 5 5 4 4 4 6 6 7 g N N a e 6 4 4 4 4 4 4 6 e a z g r 8 8 8 8 y T T l k l l k s a f g u 7 6 6 6 8 8 8 t 8 t r s s g g f s a y r r r r r t r r r e e e r r t y s m Z m k s a y y y a a a a a a g d d d s s j U U B B j B | 2.~ m N l j j k j j j j j k k k l N N l l k k f s s s s f s s s s s a a s s s s M k c g ",
"i a a a s j j j j Z C k s s s s s a s s s s s s s j k k l l l l l l m m x x B B B B B B B B B V V V V C C C G T U I P L L L L L D D D C C V V V V V V B B B B B B B V Z C Z B B l l l l B m B m m m l l l l l l l m B Z C C V B m l j s a a g p i i a a r 8 p 6 W (.U.$X3.p 4 3.9X! ( m s a r e u u u u u u 9 u e e y H H s r a G 2.H a a H g e 6 7 7 7 6 6 6 6 6 7 7 7 7 e r g g z N T | U V M r 8 7 7 6 6 6 6 6 6 6 6 7 7 6 4 4 J ,.H m s r t t H N z a e 7 7 7 7 7 7 7 7 8 7 e e a M G G k a r i r e e 7 9 9 e e e e e e e e e u 3.(.A <.1.~ F V s a y s a a a a s s s s s s s s z H H H Z B m k j k l Z Z B m l l l l l l l l l m m L ^ ^ 2.2.D V C U Z B m m m m m m m m m M m m M S ~ } >.{ } ( G Z Z Z B V B V V B B B B B B B B B 2.1.2.^ V m m k l C | | ( D V m m m m z l l l B V ) ) ( ( U K l n U.b.( m V G M n k k k k k k f f k k l N z v 0X$Xz.b.$.k a s k k z z z z z j z c c j N d v W 6X1.` F S v f d f v a | | D M m m l l z j k s I  .) ^ _ P | | V m m m l l z l l l l l l l m m Z C C Z Z Z Z B l l l l l l l k k k k k k k j k B 2.1...P V m k f k k k m Z G Z B l l j j j s j D 2.~ S $.D.b.' ~ k k f f f s s s s s s y s s f k l l l k k s y r r r r r r r r r e e e 9 7 9 q q hX9X<.( k a u 9 e e 7 4 , 4.,XN s t 6 4 6 7 e 2.| k f j Z C V N p 6 6 9 v d e 7 7 8 6 6 4 4 4 4 4 4 6 Q (.Q.&XwX$.S A b 8 8 7 8 7 7 7 7 7 7 7 7 7 8 8 8 u v H n a e 7 7 8 8 6 6 7 7 p g g g u 7 8 8 s T T l j l l l k s s a r e 7 7 7 e r r r t r g N z z j k s s s y y y y y y y y a a i i a a y y s k H Z m k k f f f f f f f z g g f d f s j k T T C B l B | 2.U B z l j j k l l l l l l B B B B B l l l k k k k k k k k k k f f s s s s s s y s z y ",
"i a a a s j j j j Z C l s s s s s s s s s s s s j k k l l l l l l l B B x x B B B B B B B B V V V V C C C C D L P I I P L L L L L D D D C C C C V V V V B B B B V V V Z C C Z B m m B B B B B B B B B B B l l B m B V C C C V m l k j s s a a g a a a a g r a a 7 Q 9XeX5XW p 4 >X6X$.( H N g y r e u u u u u u e e y H H s r a G 2.H a a N v e 8 7 7 7 7 7 7 7 7 7 7 7 7 e i a z N T U D C m f t 7 7 7 6 6 6 6 6 6 6 6 8 8 6 4 4 7 H | U m i e t j H z g u e 7 7 7 7 7 7 7 7 7 e e a B G G k a r u e e e e 7 7 e e e e e e r e p b ,X3.U.U.( ^ C k s y s s s s s s s s s s s s s j j l Z Z G G B l j j k l B B m m l l l l l l l l m m L ^ ^ 2.2.D V C C Z m l m m m m m m m M M m m V ~ / } &.) ^ F C B B V B V B V V B B B B B B B B l U 1.2.] ~ V m Z m m P | | L V m m m m l l l l m C } ) ( ( U L l n b.b.( m V F M m k k k k k z k k k n k s f 3.qX).U.$.n l s z k k k z z z z j j j c j s f k d <.(.:.' E S n f a f M n 2.F V m m m m l k k k I ..) ^ _ I ( ( C l m m m m n l l l l l l m m V G C C C C C V B l l l l m l l l k k l k k l l l k C 2.1.^ F S m k k k n n B U C B x l l l k j k L 2.~ S 1.b.u.~ D l k k f f f s s s s s s s k k k l l l l k s s a y y y y y y y r r u u u e u 4 4 Q jX(.$.F f p p e t u u 9 6 Q 3.j y e 7 7 7 r 2.( k f k C C C Z d 6 6 u p u e 7 7 8 8 4 4 4 4 4 6 6 9 (.D.#.b.U.n s d e r a i 7 e e e e e r r r r t t t e i H S M f i e e e 7 9 u u p f g z g r r t k ,.T l l m m l k f a a r r r i g f f f k s s H H N k k m m l l k z k k k j z z z z v v g f k s j k G T Z B m m l l m l l l N n N n n n k j l T T C C l C | 2.U B x l j j l l B B B B B Z Z Z Z B m m m m m m m m m k k k k k k k f s s s s s s f s ",
"i a a s s j j j j Z C l j s s s s s f f f s f k k k l l l x B B B B B B B B B B B B Z Z B V V C V C C C C D D D P I ^ I P P L L L L L L D D C C C C C V C B C C C C V V C C Z B B B B B B B B B B B B B B B B B B V C C C V B l k k k j s s f s s s s s f s s s y e 4.tXuXz.A u 9 4./.U.0Xv y y y y u u u u r r e e y H H s r a G 2.H a a g g e 7 7 7 7 7 7 7 7 7 7 7 7 e u a f m G ( D V m f r t t 7 7 7 6 6 6 6 7 7 7 7 8 6 6 8 8 d H T C f r t r z z g a r e 7 7 7 7 7 7 7 7 e r s B C Z k a r e e e e e e e e r r r r r r r d H U.U.9X<.| C j s y s s s s s s s s s s s j j j j j j l Z U U C B l k k m Z Z Z B m m l l l l l l l l L _ _ ....D Z Z Z C V B B B m m B V m m m m M F ] ] ] ] / P D C V V V C V V C C V V V V V V V V C B U 2.2.} S S n m V C D | | D C V B m m N B B U L } ) ( ( U L Z k 1.>.D m V D V V V M M N N Z x l n n k u W (.^.oX/.m l l x B B m m m m B B B B x x x x l l n v 3.(.<.E F Z m B m M M S | | D V m m C B m V U ..} ) } } ( D m k V S M V V V V C V V V V m V G L P L L L L L L F D C V C F F C D D D D D D D C V C 1.1.[ / C x B M A F G U U U C V B m m V D P 1.~ S b.D.:.~ C l k k H m n n m k k k k k k l l l l m l k k k k s f f j s s s f f d d d a f g d 4 ! tX).1.( d u a a a v v d f H H N a r g a a 1.2.m k l K R R x a 6 8 u i u e 7 p p p p i y h t 7 u <.^.b.:.$.S f k f f g g g i a a a a a a a a a a y a r r n G G M f a y i i i p d f k n N N s y y l ,.| l l B N m n f a i r r g H Z B Z Z B j l T T B l m Z Z Z Z Z Z Z Z B l B B Z Z Z M N M m m m B U U U T Z B B B B B B B V C C C Z C B B m U U C V P } } | U B x l j j l C C C C C Z Z Z Z Z B B B B B M m m m m m m l l l k k k k s s k k k k f ",
"i a a s j j j j j Z C l j j k k k k k k k k k k l l m B B Z Z Z B B B B B B B Z Z Z Z C C C C D C D D D D C C D P ^ ^ ^ I I U P P P U L L L L D L D D D C C C C D C C V V C V B B B B B B B B B B B B B B B B B V C C D D C B m l l k k k k f s s s s s s s s j c h 0 <XzX).,.v e 3 z.5X(.p y y y y i i u i y y r r s H H s r a G ,.H a a f g u e e u e e e e e e e e e u a s k M G F S M f r t t e e e 7 7 7 7 7 e e e e e 7 7 7 7 7 a | U Z k y t t g N g d u e e e e e e e e e u s B C Z f a u u u u u u u u i a a y r r y y d A <.fX(.E | Z j s s s s f k k k k k k k k l l l l l l m V U U U C B m m V C D D C V V B B B B B B B B L | ) 2...D Z H C L L D C C C C C C V V m M F / } { } } ^ P L D D D D D D D D D D D D D D D D D D B C | b.+.| F S C C D V ( | ( U D C V Z Z Z Z U P  .] ( ( T L B l ..>.L m C D C C C V A M Z Z Z Z M n v W $X/.A.Q.` V B C K L C C C C C C C K K K C K K K C V A v U.(.<.( F C Z C S S F | | F D m m D D V D ( ..} ) } } ( D m k S P F F F F L L L L L S V C T ( ^ ^ ^ ^ ^ ^ ( ^ I D D L ( ( L P P I I I I I L I I I b.b.{ _ L D F E E ( T _ _ I D V V C D I ^ 1./ S U.b.+.~ C m k n G G V V V V m m m m m m m B B B B m m m m n n n m l l n z k k k k z z k v v 9 4.qXU.1.W f s s f f z f a f N N s a j s f 1.2.m n m L U K C a 8 8 u i u e 7 p h p p y y g g h <.D.v.D.:.S n k j j j f f f f f f f f f f j z g g g g a a f M G G n z k z f g g n N m N N N f s s B ,.| k m Z Z N m f a y r r c T T U C U L B L | T C B C U T T U U T T U C C C C U T U U G G G G G G L L U U L C C C C C C C C C K K K C C V B U U L C I  . ._ K B x l j k l C C C C C Z Z Z Z Z B B B B B B M m m m m m m l l l l k k f f k k k f s ",
"a a d f j z j j j Z D m k k l k k k l l l l l m B B Z V Z Z Z Z B B B B B B B C C Z C D D D L L L L L L L D D L I ^ _ _ _ ^ ^ I I I I P P L P P P P P P L L L L L D C C C C C C C C B B C B C C C C C C C B B C C L L U L C V B m m m m m l l k k k k k k k k j s z e 9 lXiX<.| v u 0 6X,Xb H j j j s s s s j j a a j H H s y a S ,.M r a g f i u i u i u u u u u i i i a s k m S T F V n a r r r r r r r r u u r r r r r r i u u u e r k ,.H Z s y r a g N f d a i r e r u u u u a f Z Z M f a a a a a a a d d g s z c p p g s n A (.6Xz.<.| x c z z z k l m m m m M M V V V V Z V C C C L I ^ _ I L C C D P U U P D D D D D D L L L L P } } ....L Z T U U I I I I ~ ^ I D S C V G ( ] &.&.} } / / / ^ ^ ^ ^ ^ ^ ^ ^ ^ I I I I I I I I D L P ~ :.b.:.{ ^ I P L L I _ | _ ( U D F G G G U I  .} _ ( I L l l } >.D B C S G G G G G D K K K L S A A (.D.#.v.o./ D D L U I I I I I I I I U I I I U U U I I S S E (.Q.$.~ I L U L L U ( ( T L C V L P D U | ..} ) } } ^ D m m P ) ) ) ) ) ) ) ) ) _ D C D ( | _ } } } } } } ..} ^ D ) ....) / / / / ) ) ) ^ ^ ) } >.D.:.+.~ Y ^ / / _ _ _ _ _ I D C D ^ _ ) 1.^ E ^.v.+./ D B l m G G F F D F G G V V B B B Z Z Z Z B V V B M M B B N N N N N N N N N N N m N v b 3.qXU.1.T m k k k j f f f z z j f N k n 1.2.M n m K U _ 2.a 8 7 u u u e e p p p i y j z N 3.(.:.>.b.F f n f g f f f f f f f f f f f f g z z z z z k n f f N H Z M B m m m m l m m m M m k s s M | | l m Z Z Z m k a y r r c T | | _ | ..| U | I C B V L U _ | | | U U D C C L U T U U G G G G G G D L U U U U U U L L L K C C C C C C V B B U T L C I .. .I K C x l l k m C C C C C C C Z Z Z B B Z Z B B B B m m m m m m l l l k k k f k k k k k ",
"a a f f j z z j j Z D B m m m m B B B m B B B B B C C C C L U C B B B B B B V C K L U L D L P I ^ ^ ^ ^ ^ ^ ^ ^ ^ ) ) ) ) ) ) ^ ^ ^ ^ ^ I I I ^ ^ ^ ^ ^ ^ ^ ^ I I L D C C U U I P L L L L L L L L L L D C C C L L I I I U L C C B B B B B B B B B B B m m m m m z z s g p ,X$Xz.3.u b Q kX(.N z k k k j j j c c s d z H Z s r a M | M r a f f a a a a a a a i i i a a a s f m V G U D M f a y y y a a a a a a a a a a a a a a a a d a a f k T T M k f a s k n f f a a a a a d a a f m Z Z m f a f f f f f f f f j z c c g g g f M 1./.^.oXU.B T c z N N m m M M V C S D D D D L U U U U I I _ _ } _ ^ L L I ^ ^ ^ I L L L P U I U U ^ ^ I } } >...L B T T I _ _ ) ) ) ) / ^ I F F | | } >.&.&.} ] ] ] ] ) ) ) ) ) ) ) ) ^ ^ ^ ^ ^ ^ ^ ^ L ^ _ ~ E b.D.%.{ } ) ^ ^ _ ( ^ ( ( ^ ^ I U T U U ^  .} _ ^ I L j l _ >.D B C S U U U U U I I Y I L S A (.^.c.u.;.^ ^ ^ P I I I I I ^ ^ I Y Y Y I Y Y Y Y Y _ ( D ( E W Q.v.X.] I Y Y U U T T ( P D C P ( U T | >.} ) } } ^ D m M ( | ..} } } } } } } } L D L _ ..} } } &.&.....>...^ L { >.>.{ ] ] ] } } } } ) } } )  .:.b.$.' _ _ ) ) ) } } } } _ I L I ^ ) } 1.~ E oXb.+./ P B l m G ( ( ^ I P F G V Z V Z B Z Z Z Z Z B Z Z Z Z B Z Z Z N N N N N N N N N m N f n A (.jX3.2.U B l z s f N z z j z z N m M 1.2.M k B C U 1.U.i t t i u u e e p u u i y j M A 9X).E } ] f r s g g f f s a a f g g g g g f g f f f f k n n f s s N H Z V M m k k k k k k n k f s y m | | l l B m m m k a a r r j H T _ L ^ | _ D L C l j k m B B B B B B B B m m B Z C C C V V C C C C C C K K K K U U K C K C C C C C C B B B B L U K L _  .} U K C Z l l l m C C C C C Z Z C Z Z B B Z Z B B B m m m m m m l l l l l k k k k k k k k ",
"a d s f j l z j j C P C C C C C Z Z Z B B B V C C K L L I _ T C C C C C C B C K U U I P L I ) } } } } } } } { } } } } } } } } ) ) } } ) ^ ^ ^ ) ) ) ) ) ) ) ) ) ^ I L C D I _ _ _ ^ I I I I I I I L L I L L L I I ^ ^ I U I U U L L D C C C K K K C C C C C C Z Z Z Z N N N 0X(.qX(.v v H (.N n n f s l x x x x s a k H Z s r a M | n a y s f g f f f f f d d d g g s s k l B G U U G m f s s f s s f f f z z f s s f s g s s g f f g s f z H | H Z N k k z k f f s f f f f v f g N Z H Z m f a f f n m N N N B Z Z x Z j z N s 3.U.b.:./.L C H N N Z B Z C D D D D L P I I ( ( ( ( ( ^ ^ _ ) ) } ) ^ ^ ^ ^ ) _ _ _ ^ I I I I ^ ^ ( ( _ ^ )  .>.>.P B L | _ ..| ) ) ) ] ) ) ^ ~ ( | { &.>.>.&. .] ] {  .&. .{ } ) ) ) ) ) ) ) ) ) ) ) ) ^ ) } ) ` ' v.h.o.&.) ) I _ _ P / _ ^ I ^ _ ( U I I ..} ) ^ ^ L l B _ ..D m C D U T T T U I Y Y P ( A U.=XD.b.b._ _ ..} ^ Y ^ _ _ _ _ ^ ^ Y Y Y Y Y _ _ _ _ _ _ _ _ ( / [ /.u.+.` ) _ Y Y ( _ ( U L D L ( | T 2.1.{ ^ ) } ( I l k D _ } } ] } } ....} ) I D P ) 1.&. .}  . . . .>...) ^ / } ....) ) ] ] ) } ) ) ) ) ) ) } :./.&. ._ } } } ..} } ^ ^ I I ^ ) I _ 1./ | (.b./ ~ U B l m S U ( ( I D D C V B Z Z B B B B B B B Z N N m m N m m n n z z k k k k k k k k B N b ,XqX,.| T l k y a a a a a a a n S f 2.2.M k y B L U.(.J t t i u e e e u u u i t j V U.eXz.$.D S n f a r r r r a a a a a a a a i i a a a a a f n N f y y s N G Z N n a r a a a g s s g g y z H G m l k j k m N n a r r r B B C L I U V Z Z l j s s s j j j s j j j j j j j z z m m m m G C B m k j j j x C U T C C x l l x x x x B B B x L U K U _  .} L C C Z B l m B C C C C C C Z B Z Z B B B B B B B B B B m m m m l l l l k k k k z k k k ",
"a a s f z l z j j C I L C C C C C C C C C C C C L L I _ | .._ C C C C C C C K L I ^ ^ I I ^ }  .&.&.&.&.&.&.&.&.&.&.&.&.&. . . . .&.&.{ } ) } } { { } }  . . . .} _ P L L _ ..} ) _ ^ ^ _ _ _ _ I L L I I I I I I ^ ^ I I I U U U U I U U U U U U U U L K K K K R T Z C T Z W qXdXdX<.V Z T H v W ,.Z Z Z Z x Z n n B T Z k r a M | n a y s f z N N n f f f f f f f f f l Z G U G G B k k s k k k k k j N H H N k j j j z g f f f f f f f s n H T H M B N m k f s s f f k k n f g N N G Z l s a s k m M Z Z Z Z K x x x Z N r 3.(.:.;.&.) L T Z B B B B U T P I I ^ ^ ( ( ( ( ( ( ( | _ _ _ ) ) ) ) ) ^ _ _ ) ) _ _ _ ^ I I I I ..| | } ^ )  .&.>.I V L _ ^ } ) } { } } } ] ) ) ] } &.%.%.>.&.} { { &.&.&. .{ } } } } } } } } } } } } } ^ ^ _ ) } ..[ Q.v.:.>.] ) ) / ^ / / ^ ) ..) _ ( ^ / >...) ^ ^ L l B ^ | D m V D U U U U U U U I ( E (.8X/.b.b./ Y Y } } _ Y U U U U U U I U U U I I I I I I I I I L L L ~ ' Q.#.X.{ _ Y L L L L L D L L P P C _ 1.{ ^ ) } _ | m k C P P ^ ^ ^ ^ } ) ) _ I D P ) ..&. .] ^ ^ ^ ^ ^ ^ P D ~ ) } / P P P P I I I P I I I I C ~ $.U.&.&.^ I L L L L L L I I ^ ^ C I 1./ :.^.v./ ~ U B l m V D P L D D C B B B C C Z l l l l l l k j j j j j j s s s s s s s s s s a s s l m N H ,X(.,.| B j r r r r y y a a G S S ( 2.m k j C F (.(.J r t r e e e e u u u i y y P b.(.^.| f a a r r r r r r i i i r r r r u u u u u i r i a f N g y r y f N H H n i t r r r r r r r t t a N M m k j j k N H N g y r y l l B ^ ^ U V Z Z z z s s s s j j s s s y y y y s j z l m m m G C B m l l l l x C U T C C B B x B B B B B B B B U U L L _ } ) L C C Z Z x m V C C D D C C B B B Z B B B B B B B l l x m m m m l l l l k k k k z z k k ",
"f f f j k l j j l L _ I K C C K K K K K K K K K I _ | ......^ L C C C C C K L I I ^ ^ ^ ^ )  .&.&.&.&.&.&.&.&.&.&.&.&.&.&.&.&. . .&.&.{ } } } { { { } { { { {  .} _ I L L _ } } ) _ ^ ^ ^ _ _ _ I L L ^ _ _ I I I ^ I I U U U Y Y _ _ Y Y U U Y Y Y Y U L L L L K T R K K U H ,.MXiXU.2.K R j N Q 0X1.G C C Z Z N N G | D m a a n | n a y s f k N n n k f f f f f f f k B G T Z Z M k s s k M M k k k k z H H H n f k f f f f f f f f f s s f n H H H Z B m k k s s k k k k k k z j m G G l j y s k l m B B B B K R H H 2.d Q dXu.X.:./ V I K Z B M B m U U U U U I U U U U U U U U U U I I ^ I I I ^ ^ _ _ _ _ ^ ^ _ _ ^ I I I _ _ _ ) _ }  .>.>.I C L ^ ^ ) ) ) ) ) ) ) ) ] } } { &.%.%.&.} } ] } } ..&...} } } } } } } | | } _ _ _ _ I I ^ ^ _ } ) ~ b.v.u.#.{ / ^ ) ] ^ / .. .&.^ L C L .. .) ) ^ L x x L U D B V D D D D S S V Z Z v U.9X^.s.v.| B Z G ^ ....T K C K K K K K L K K K K K K K K C C C C C B m D ~ /.:.&.{ Y C C C C L L L L P L B P 1.{ ^ ) ^ } 2.V l D L L L L L P I ^ _ _ ^ P ^ ] } >.&.) P P P P I I P L I _ ( L D D D D D L L D L L L L U U P b.D.X./ P K K K C C C L I | ..I ^ >./ b.^.b.E P U B m m M S F D C C B B B C U T U B m l l l l l k j j j j s s s s s s s s j j s a p d k m Z N v ,X(.| | j y y y y a a a a M | F ( | m N z K G 8X6XJ y t t e e e e u r u r r G ..+.b.U.E d a a i r r r i i u r r r r u u u u u u u i i a a f N g a r y s f M H H f a a a r r r r r t r a n M m k j j l Z H H z y r j x B Y ../ L D V B l z j j j j z z z j s s s s s c z z m m m m D C B m B B B B x C U T U K C C C C C C C C C C C T T U C I _ _ L C C C Z l m B U U U L D C B m B B B B B B B B B l l l x x x x l x l l l k k k z z k k ",
"s f f j k l j j l U _ I L C K K C K K K K C C C I _ ....} _ I L L K C C K L L I I ^ ^ ^ / ]  .&.&.&.&.&.&.&. . . . . . . . . .{  .&.&.{ } } } } { { } } } } } } ) ^ I L L I _ _ ^ ^ I I I ^ ^ ^ I L L ^ _ _ ^ I I ^ I I U U U U I U I I L K K L U Y U K K C C B B Z K K B B T g ).hXU.<.T x x n ).iX(.A l l l k n n V U U m f a v H N a y a s f f s s s s s f s f s s k Z T Z Z m j y y s m B V k f f s s N H N n f a s f s s s s s f s s s s s s B T G B l j j s s k k k k k k z s k T Z m j y s k l B j j j j x j p qXQ b 6X$X:.` ~ f D U l x B m B B V V C C C C V V B B B B B B V V C C C C C L L I I ^ ^ I L L U I I ^ ^ I I P L P _  .&.>.&.~ C L I I ^ ^ I I I I I ^ ) } { { &.&.&. .} } ~ ^ ) ) ....} } I I I I I I I I I I I P I I I I I I Y ^ F /.c.c.1.' ^ } } ^ / >.b.1.U.S m D } &.) ^ ^ L B x C D D m V D S C C C V V N b Q kX6X^.D.>.U K H m F 2.2.T C x C C C C V V C C C C C C K K K K x x x x Z B V / b.:.+./ L L L L L L L L _ ^ V P 1.} ) ) ^ ..2.S m D ^ P P P L L P I _ ) / ^ )  . .>.>.] ^ I I ^ _ _ _ | | | _ L L L F F L P L D L L L L U _ _ ` b./.>.^ L K K K B C K L 2.1.} ..} ' /.Q.b.~ P U C x B V G U U D B B B B Z U T T G C C Z V B B B m m m l l l k k z z j z c z j f d f n m j m v A iXU.| F k k z z s s s s n ( 2.( | k N N T G zXqXQ y t 8 7 7 e e r r r y z ,.~ [ :.E v n v g g a r r r i r r r r r u u u u u i i u i i a a g g a y y y a k G H N f g g a a a r r r t s N G m k k l N H H H z y t c Z T 1.2.) D D C B m l z z z z z z z z j k j j j j z z l l m m L C B m B B B C x C U T R U K C C C K K K K K K C T _ U C I _ Y L C C C B x x Z T U I U D C B B B B B B B B B B B l l l B x x x x x l l l l k k k k z z ",
"s j k j k l j j l U _ I L C C C C K K L L C C L I } ...._ ^ I I L L L L L L P I ^ ^ ) ) ) }  . .&.&.&.&.&.{ { { { { { { { { { {  .&.&.{ } } ] } } } ] ) ) ) ) ) ) ^ I L I I I ^ I I P L L I I I I L I ^ _ _ ^ ^ ^ I L C C C C L U L L K C C C C K U U K C B x l l l l l l l l z p ).hX).3.H f 7 4.hXz.W n j j y f n m | | m y y f N N a a a a a a y y y a s s f s s k Z H Z Z m j y r y s m M n f f s s s z H H N a y a s s a a s s s s s s s y y k G G G m k s s s j k k k k j z y s T Z m j y s Z l l k k k j y t ,X).b (.&X/.U.2.a n C B m l l B m m B B C C V B m l l l l l l l B B B B V V C C D L I I I I L C L I ^ ^ ^ I Y I L P _  .&.>.b./ S F ^ I ^ ~ P P P P D ^ } >.{  . . . .....) ) ^ ^ ^ } ..} ^ I Y Y Y U I ~ ~ I I ^ ^ I I Y I Y Y Y U D | (.(.hX).( I _ Y ^ ~ (.(.jX(.n M $.X./ ^ ^ L M m B m n m V D I I Y Y T Z z J ZXvXqX(.b._ I | L U L L 2...I L L L U U U L F F D D C K K K K K C C C C Z Z C S $./.:.+.^ I L L I I I I ....P P .. .) ) ( 2.2.A m D ( | _ _ ( U ^ / ` ' [ [ } { &.&.%.%.} } _ ^ _ } } ) | } _ _ U U U P P P F F L L P P I I ) ] o.D.v.>.} Y Y L U U K K I 1.b.$.$.$.D.Q.:.~ I ..K x B D F U U C B B B B C K U U U L K C C C C V B B B B m m m m x z z z c c z j k k l m B m f d W iXU.W n f s s f f f f n f | 1.U m z z G <.zX,XW a 8 8 7 8 7 e g z z z | ( ( ( D m m m f g g a a i r i i i i r i i u u u u u u u i p a a a s a a y a y a n H H N z g s a y r r r t a H G M k j z N H H U Z c y c Z 1.U.| T T T Z Z m l k k k k k k l k k k k k z z z z R K C C K C V S Z C V B x l M G T K U K K K K K K K R K K U I Y K K K K K T K U K x x x T U L L L L C B Z Z B B B B B B B B B B B B x x Z x B C x x m N B m c c ",
"j j j j j j j j l U _ I L C C B C K K I ( ( D L _ ......_ _ ^ I P L L L L I I ^ ^ ) ) } } } }  . . . . .{ { { ] } { { { { { { { { { { { } } } } } ] ) ) ^ ) ) ) ) ^ I I I I I I I I P L L L I I I P I _ _ _ ^ ^ ^ ^ L C C C C L U U K C B B B B C K U U C C x l l l l l l l l l g 8 ,XiX).,XQ 9 0 0X6X<.E l y g f n m | | m y y a v n a a f f a a a a y y s s s s k Z H H Z B k y y y s k N N k s s s s y y N ,.H n a a a a a y s s s a s s s y a k s G T G l s s s j j f f k f j y f T G Z j y y Z l l k k k j 8 3.kX! (.(././.(.m k Z Z B m l l l m l l B Z Z C B m l l l l l x B B B B C C C C L L P I ^ ^ ^ U L L I ^ _ _ I Y Y U U _  .&.;.b.` S F ^ ^ ^ ^ I I I I I ) } >.&.&. . .....} ) ) ) ) ) ......} ^ ^ _ _ Y ^ ^ ^ ^ I ^ ^ Y Y Y _ ( Y Y Y U A <.0XvX,X( } ^ ^ ^ ~ W 0XjX,XN V | ' / ^ ( U M M m m n n V L Y Y Y Y K R g ,XZXNXfX(.( L L _ L L L L } ...._ L L U U U L F F F F L L L L L K C C C C K K K C E $./.:./ I I I _ _ _ _ _ 1._ ^ _ _ ^ ^ ..2.1.F n S ( ) _ _ ( ~ ^ ^ ] [ X.+.&.&.&.&.%.%.&... .} } } } } } ) _ ..U I I P P P P P L L P P I I ^ ) ~ ` D.b.} Y I I U U U U | ( /.b.E E z./.$.~ _ 2.K x B D F G G C B B B B B C C L K C C Z C C C V B B B B m m n l x c z z z c z j k l l l B m f d b Q 0X<.n f a s g f f f M f a 1.| r y s Z ,.jX,Xb u 8 8 8 8 7 t g g j j H G G G k k l k f a a a a i r r i i i r i i i u u i i u i u i p a a a a a y a a a a n N N g g a y r r r r t a H H m s s s z z N V l g y c Z 1.U.| Z Z Z Z B l l k k k k k j l l k k k k k l l l x x x x K K V k B C V V C C M M C K K K B C K K K K K K K K I Y Y K C x C L B K G Z Z K D F P L D V M B B B V V V B B B B B B B M B B B C C C B l z n n B B x c ",
"j j j j j l j j l U _ I L C C C C K I P <.1.S L ..2...} ) _ ^ ^ I I I I I I ^ ^ ^ ) ) } ] } }  . . .&.&.&.o.{ [ { { { { { { o.&.&.&.&.&.{ { { { { } ) ) ) ) ) ) ) ) ^ ^ ^ ^ ^ ^ _ ^ I I I I I ^ ^ I I _ _ _ ^ I _ } _ I L U U U U U L C B B B B B B K U K C B B l x l l l l l k g u u ,XiXiXqXb b b qX(.| ( s r g m B | _ m y a a a a a s N N s a a s a a s f s s N H H H Z m s y y s j z N N k s s s s y k a | ,.G n f s s s s s s s s s s s s s s N M G T G n f s s s j j f s s s k G T Z l y y Z l l k k k f p 0XjX8XyXz.<./.n k k G Z B m l l m m l l l B Z Z Z B B B B B B B B C C C C L L L L P I I I ^ ^ I L D P ^ ^ ^ I I U U U _ } %.-.b.` S P ) ) _ _ _ _ ^ _ ) }  .&.&.&. . .} } } } } } } } ..} { >./ / ) ) _ ) ^ ^ ^ ^ ^ ^ ^ _ _ ^ ( ( Y Y I F A ).vXqX<.} ~ / ^ ^ W z.zX(.v V ..&./ ( ^ P M n M m n m C K Y Y Y Y R R H iXMXkX9XA S L L I I L L L Y _ ....L L I I L L I L L L L L L L L L C C C K K K G S S E b.b.} I I ^ _ _ _ _ ....1.I L P I I ..2...I l C ^ _ _ ( ( P Y _ ) } } }  . . .{ X.+... . .} _ _ _ _ _ _ _ ..I I I I I P I I U U U U U Y I I ^ L ) b...I L U L U T T C | E (.2.f >.1.] P T | K x B G G D C V B B B B B B C C C C C V V B B B B m m m m l z z l j k k j j j j l l l l m m f d 9 9 Q ,XA f a f a a a a d p v A 3.N e r v v 0XqXb 9 7 8 7 7 t t a s s s z l m m s j j s a a a a i i i i r r r r r r i i i p a p i u i p p a a a a a a a a a a k z g a y y y r r y y s z N m s y y s z z k j j s y s | 1.| m k B m k k k j j l j l l l l l l l l l l l l x x x x m D C l x x l n A A S D L K I I V V S S ~ I I I I Y _ _ _ Y Y I I ) F E W A L I L ~ ' ' $.W ~ L L L L L L D D C C C C C S S C K U C m M W ,.<.,.L K B x ",
"j j j j l l j j l U _ I L K C C K U I ~ b.U.S P 2.2...} ) ) ^ ^ ^ ^ ^ ^ Y ^ ^ _ ) ) } } } {  . .&.&.&.&.&.&.o.{ { o.o.o.o.&.&.&.&.&.&.&.&.&. .{ { { ] } ) } } } ) ) ^ ^ _ _ _ _ _ _ ^ I I I ^ _ ^ I ^ _ _ _ ^ I ) >.>._ I I U U U U C C B B B B B B B C C C Z B x x l l l l l l k g g 7 iXNXhX).p f b 0XU.,.r g f m B | | B y y a a a a s N N s a f f s s s f f z N H H H N k s s j k k z N N k s s s s s f n s | | S n k k k j j j j j s s s s j k k N Z H H Z k f s s j j f s s s k G G Z N s y Z l l k k k f Q 0X9XzX^.$.U.F y m Z m Z B m l l m m l l l l Z Z Z Z B B B B B C C C C D L L U L U I I I I I I I P P I ^ ^ ^ I I U T T | [ O.-.b.` S L } ) _ _ _ _ _ ) } } } &. . . . .} } } } }  . .} ] / ] &.] ] ] ] ) ) ) ) _ _ ^ ^ ^ ^ ^ ^ ^ ^ ^ Y L I S b ,XiX$.' ~ ( ^ ^ F A (.sXW F } I / ( ( P M m m m m m V K Y Y Y Y R R A hXhXmX<.A D L L L L L L L I _ _ _ L L I I I I I I L L F F L L L L L L K K K K D S m P E U.2.^ _ _ I I I I _ I | _ B C L I | _ _ K l C ^ ) ( ( E E Y _ _ _ _ ) / / ~ E E E } } _ _ Y ^ ^ ^ _ | | | I I ~ F F P I I F G G G I Y Y I Y I L } 1.^ L U L L T T T U C D (.^ D ..^ S M k Z B B C D D V B B B B B B B B C C B B B B B B m m m m l z z z z k f f f j j j l l l l l m m f d v u b ,.,.f s f r r i a i r a a G H t a e d A (.p u 7 8 t t t t a s y y s s s s s s g a a a a a i i i i r r r r r r a a a a a a d i i a a a a a a a a a a a a a s a a y y y y y y s j z z z s y y s j k j s f f N a k | T k y j k k j j j l l l l l l l l l l l l l l x K K K C S | 1..._ 2.1.U.,XiX(.2._ Y _ _ { 1./.$X/.:.} } } ....&.)  .>.>.b.U.U.).iX(.b.&.b.D.^.oXzX=Xb.} ^ I I I I I P L L L L D S S D L T A ,.(.kXmXsX(.2.I C B ",
"j j j j l l l j x U | _ U K K C K U ^ ~ b.(.F I 2.....} ) ) ) ) _ ^ _ ^ _ _ ^ _ ) } } } { { &.&.&.&.&.&.%.%.%.%.&.&.&.&.%.%.&.&.&.&.%.%.&.&.&.&. .{ { { } } { } ) ) ^ ) _ ) _ _ _ _ _ ^ ^ ^ _ _ ^ _ _ _ _ _ Y I _ ..1...} ^ I U U U C C B B C C V B B B C C C C B x x x l l l l l z g h J vXhX! H s d v 0X3.d a f n B U U B y y a a a a s N N s s f f f s s k z l N N Z N k j j j k k k k z z k s s s j j f n f A W G m k k k k j j j j j j j s k j k z m M G Z k f f f j j s s s j k B Z B l s y j l l N l s m G 3.qXfX>Xz.| n m M M M B B m m l l l m x B B B Z C C C C B B C C C C L L L L L L L P I I I I I I I I I I ^ ^ ^ _ K Z T } ] [ o.{ } ^ D  .I _ ....^ I ^ } { { }  .) { ) }  . . . . .} _ _ I  ._ } ^ } ) ^ ) ) ] } ) ^ ^ ^ ^ ^ ^ ^ ^ ^ _ _ Y I F A ,X(.E Y _ P P _ ( A U.(.A I _ _ I P | C U B m G B m C L K K K K C G 3.hX).A m L L L L L L L L L L L L L L L I K C L L S S S F L L P L L L L L L L D F L L F F ..^ I ^ C K L L L I L L _ B D D ^ ) P S C G F ~ W W ! E I _ ....} I E E W ! ! $.`  .{ / / ) ~ } <.<.<.1. .} ,.3.<.,.$.| <.).).(.| _ Y I Y Y Y I ) ~ D U ~ F V Z K K K K I I C I U A ).,X,.M D K K C C B B B Z B B B B B C B B B B B m m m l m n v f N k N ,.(.U.H B l l l l l l l k f f f v v v f s f n m a y a y y y s G l s t d n F G s s f m Z s y N z s a y y a a a a a a a r r a g r r u i i r r r r r a r d H G T m s y y a a a a a a a a a a a a a a a a a s s s s s j l N k s s k m B N Z N G ,XH N f j k k k k l j j l l l l l l l l l l l l l l B C D I P / E ' Q.D.>.} o.v.Q.,XjX^.$.] _  .&.>.b.(.=XQ.s.+.&. .&.>.>.&.&.;.v.b.(.iXNXMXzXA.r.k.}.P.5XzX8Xs.;.{ ) _ _ ^ ^ I I I I I I L P ~ A <.(.IXJXCXNXzX(.| _ _ K ",
"j j j l l l x x B U _ ^ U K K C K Y _ ~ $./.( P ..} ) ) ) ) ) ) _ _ ) ) _ _ ) ) ) } } } } { &.&.&.&.&.&.%.%.;.;.&.%.%.%.%.%.%.&.&.&.%.;.&.%.&.&.&. .{ { { } } ) ) ) ) ) ^ _ _ ) ) ) ) ) ^ ^ ^ ^ ^ _ _ _ _ Y I I I L _ 2.2._ I I U U L C B B B C V C C B C K C C C B B B B l l x x l z g p 4.vX,Xb H l y Q ,Xn n f k m C C B s a r r r y s z z s f f f f k k k k k k l m k k s j k k k k k k k k f s s j k k f f f M Z n k k k j f f j j j j f f k j k f f k n n k f k k k k k k j s k m m M l j j j l l l j k j j W 3.iXiX).p j M M M B B B m m B B B B B B B B C C C C C C C C C C L L L L L L L L L P I I I I I I I I I ^ ^ ^ E S N M ~ [ %.o.&.| A A ~ / F E } ^ ^ )  . . .{ ~ E ' ' ` }  . . . . .{ ^ ^ ] ] +.o.>.) / E W | } } ) _ ^ ^ ^ ^ ^ ^ _ _ _ _ _ I ( D U.` I I | F I U ( S E F ^ Y Y D E ,.U Y G H ,.G G U D L L I U C M v 3.A F V L L L L L L L I L L L L L L I I K K M A <.<.E E L L P L L L L L L L L L I I L L ^ L L I I I P L I I I I _ L P D $.$.,.U.(.,.1.(.kXkXjX$X1...} ..}  .:.U.dXmXzX6Xb.%.[ o.[ &.;.D.tX6X8X(.b.(.hXbXhX).:.1.0XkXMXjXU.} ^ } _ Y Y I ^ ~ L | U.,.G K U K K U _ / D | 3.iXZXCXU.E D L L K C C B Z Z B C C B B B B B B B B B B B m m m n f n A 3.hXjX(.| C m B l l l l m l k f k n n n f s f G H f y s y y y m 3.B j N <.(.U.( j k F 2.U l j B l z s a a a a a a a a i r r a g d i u i r r r r r r e d A 3.U.2.D m s s s s s a a a a a a a a a a s s s s s s s j s k Z Z m m V D P ( G U G U.,Xv f r j k k k k l j l l x x x x x x x x l l l l B C P ^ } ' ' A.}.}.V.@.[ :.Q.oXfXzX=X$.+. . .>.b.^.5X3X[.D.9.;.;.v.v.O.-.u.v./.eXzXAXZXGXxXP.k.K.:X&XsXmXtXZ.y.&.} }  .} ) ) _ ) ) ) ) I ( ,.(.kXZXKXKXHXAXNX0X$.) _ Y ",
"x x x x B B x x B K I I U U K K K Y _ ^ ~ 1.} L _ ^ ^ ^ _ ) ) ) ) _ _ ) _ ) ) }  . . .{ {  .&.&.&.&.&.&.&.&.&.%.%.%.%.%.%.%.%.%.o.o.&.&.&.&.%.&.&.&.&. . . .{ { } ) ) } ) _ _ ) ) ) ) ) ) / / ^ _ _ _ _ _ Y I I I I I _ .._ I U U U L C B B C C C C C C C D L C C C B B B B B B x x l l f 7 3.hXQ N k m a ,.,.n f k l x Z l s s s a a a s z z f f f k k z k k k k k k k j s k k k k k k k k k f k k s s f f f f f f n k z z j z f s j j j j f f s s s s s f k k k f k z l z k k k s k k l m l l Z l l l s l j l j l d Q ,XJ c H N B B B B B B B B B B B C V B B B C C C C C | B C L L L L L L L L L P P P I I I I ^ ^ ^ ^ / ] [ U.(.0XqXb.;.O.:.' <.,X(.U.$XeXtXU.>. .{ &.&.&.o.$.&XuXwXv.>.&.{  . .&.O.v.Q.}.:X`.9.%.>.<.(.kXhX$. .} ) ) _ _ _ _ _ _ _ _ _ _ ^ Y I / ~ E U.(.W | K I ^ ^ ^ L ^ L A (.iX.._ v (.iX3.,.T U I E 1.| ( F S M G V P I I L L I I L L U U L I L L P I Y I A <.5XU.<.U.L P L L L L L L L L I I I I I Y I L L ^ } _ ^ I ^ ^ ^ ^ } ) ) >./.z.).kX,XW $.$XvXbXdX(.$.{  .&. .&.u./.sXhXjX(.$.X.X.@.+.=.y.Q.3X@X=X!.9XmXGXFXhX! u.b.6XhXkX0X$.o.[ ] ] ) _ ^ I ^ ^ 1.8X6X| Y Y Y Y I { ' ' U.hXGXDXDXQ ~ / F L L C C C Z Z C C C C C C C B B C C U U V m m l Z n v (.bXAXzX).,.P B m m l l m Z N l k k m m n y f f ,.,.M a a a r d G (.n G 3.9XtX/.E F } :.v...K x Z Z N k f a i a a a a a i i i a d N g a u r r r r a i u Q (.(./.$.E S k j j z f s a a a a a a a a s s s s j k k k k j m Z T D L ^ ] } .._ I G (.0XH s N f k k l k l j l B Z Z Z B x x x x x l x x B D / } +.b.+X+X:X+X`.f.O.b.$XdXvXNXfX$Xb.;.>.>.b.$XfXzXuX&XD.h.h.v.v.9.5.P.$XzXNXAXGXGXGXNX+XK.+XwXuXfXfXfX5X/.:. . . . . .} } } } } ] | W ,XbXDXLXLXKXJXHXGXkX/.&.) L ",
"x x x Z G Z x j m G L L L U K K K Y _ I I ) _ ^ ^ ^ ^ ^ ^ ) _ ) ) ) ) ) ) ) ] { &.%.%.&.+.:.:.:.+.O.$.:.b.u.;.*.O.O.O.O.O.@.O.-.u.u.-.*.%.%.%.%.%.%.%.%.%.&.%.&.>.] ' <.$.} { { } ] ] ) ) ) / ^ _ _ _ _ _ Y I I I I I Y ^ Y U U U U U L L F G W U L C C C C L K C C C B B B l l x B B l l f p 3.,.d N f k f k n k j l x m n k k j s f f k l k f k k k z z z k f k k k j j k k k k k k k k k k k k k s s s f f n M M n l z z z N j s j j j j f f s s s s s s f f k f k l l l k k k j k l l B B m H N j z N s f ,X,.y m y g c c H Z B B B B B B B B B V V C C B B C C C C M (.U.D D L L L L L L L L L P P P I I ^ ^ ^ ) ) ] } &.:./.8XjXqXz.:.-.$.<.iXNXiX).$XzXqXU.>.&.&.;.;.%.*.z.3XtX1Xu.;.%.O. .&.*.#.c.E.Y.|.N.#.#.:.(.hXHXCX<. .{ { ) ) ) ) _ _ _ ) ) ) ) ^ _ _ ) | W 6X$Xz.| _ Y _ _  .>.+.W 6XvXhX1.E 3.kXjX3.<._ Y I W 6X,.~ ~ P Y U U I L I P L P P I I L U L L L L P I Y ^ <.fXzX)./.U.F P L L L L L L L L I I ^ ^ _ ^ ^ I ^ ......) I ) ) _ ) >.[ $.(.oX(.NXMX).W /.eXvXZXNX$X<.+.{ &.>.>.v.}.zXiXmX6Xz.y.0.@.9.s.g.Q.uXfXuXfXHXHXFXGXkX).b.oXtXzXmXjXU.:.X.&.{ } } _ _ ^ _ b.sX(.| Y Y Y Y Y X.+.z.tXCXGXKXJX).' ~ / P L L L C C C C C C C C C C B B C U T T C m l l l n ).mXZXHXAX9X<.^ V m m l m B Z Z m m l m m m y f f 3.3.H f y a e d ( (.W U.dXfXeX+Xu.:.v.B.v.2.U B Z Z N n f a a a a a a p i i i a g H N p r r r r r r a v U.(.oX^.b.' F m k z z k f s a a a a a a a s s s s k k l l l k m T T U / } >.>.>...I S (.iX,XM f s k k k l l l l B Z Z Z Z B x x x x x x B C L ' $./.&X-X&X+X+X}.v.[ A ! 4.>X).qX).$.' / ] / $.z.).).A.:.X.[ X.+.$.P.eXNXAXHXFXGXGXAXNX+X5.W $.).<.).(.(.z.$.{ } { } ] ] ] ) ) ) / | ).bXFXKXKXKXLXJXVXGXmX^.;.} _ ",
"K C K | (.| x K G U.( U T T K K K I ^ ) I I _ ) ^ ^ ^ ^ ) ) }  . . . . .] [ O.v.D.B.v.s.z.tXzXzX~.P.$XzXzX=Xx.g.h.h.e.e.a.d.V.&XzX0XQ.g.w.;.;.w.6.8.e.l.l.D.g.w.:.<.iXNX$X<.+.o.{ } } } } ) ) ) _ _ _ _ _ _ I I U U I I I I I Y Y U U L C A Q iX1.U C L C C K K K C C C V B B l B B B B B m N N B M p ,XQ A f Z l x K K 2.1.T j z s 3.,.N m k k k k z z m l k j s j j s j l N k k k k k k k s s s s s s y f f E ,.G H Z l z z m k j s s j j j s s s s s s s s j k j k m N l l k k s k B C U V ,.(.d z j c g 3.pXd l l B Z Z Z B Z B B B B B B B B B C C C C C C U B | | <.jXW D D L L L L L L L L L P P I I I ^ ^ ) } } { { >.b.$XfXjX@Xz.u.-.<.qXCXZXpX X2XNXaXoXc.#.u.u.u.;.#./.sXmXiX/.u.9.@.@.@.6.g.K.:X2XeX!.5.k.~.NXGXJXAX<.+.>.} } } } ) ) _ _ ) ) ) ) } }  . .} ' 6X$X^.| } _ Y _  .>.| (.hXHXbX<.! vXCXkX).<.) _ I <.=X<./ ^ Y Y Y Y I P P I I I P L L L L L L L I I I ..| ,XHXCX0X$Xb.} I P L L L L P P I I I ^ / ) ) ) ^ ^ ^ >...} ^ ) _ _ ) >.#.oX3XtXNXJXDXdX>Xb.eXhXvXvXkX5Xb.&.>...1.v./.8XjXmXzX=Xv.X.+.O.D.v.A.=XzXNXHXJXKXKXLXZXiX1.1.(.qXdXiX6Xb.$.:.X.{ } _ _ _ I F eX(.U Y I I Y Y +.$.dXNXFXKXJXHXmX<...^ P L L L K K K K K C C B B B B B V D T | G m m l k 3.ZXDXPXJXNXzXU._ m V m m m B Z Z N N N l l l k f f v ,X,.n a f f f v <.(.kXvXjXtX+X`.V.g.g.v.1.T Z m m m k f f a a a a a a a i i a g J g g i r r r r r i ,.U.^.oXQ.b.( C x x z z k f s a a a a a a a s s k k k k l m l k l B G ( &.>.>.>.2.| U D ,.U.U.m s k k l l l l l B B C C C C C C Z Z Z Z C C K ^ $.^.&X&XXX+X}.D.:./ ~ A W b b W W W F P ^ / / / ` ' ' E ~ ] / ' ' z.mXAXHXGXJXKXKXGXNXwX5.W E W ! W <.W E ' &.&.{ ] [ X.X.[ [ } } ' <.,XZXLXLXKXKXFXZXMXjX).' o.} Y ",
"U U _ 2.6X<.I ..(.iX<.U T T U U L ^ (.$.I Y ) ) ) ) ) ) } {  . .&.&. . .%.O.#.D.Q.K.B.A.@XNXAXzXXX).qXNXNX XA.d.p.e.r.r.k.N.F.wXCX0XY.n.w.h.h.h.8.r.k.L.K.Q.l.q.:.U.bXHX0Xz.#.O.o.{  . .} } } ) ) ) ) _ _ _ _ _ _ _ _ ^ _ ^ Y Y Y I L L U G ).vX3.( U C C L K K K C C C C V B B B B B B B B m B C m b dX<.M Z l Z K R T (.(.T x z a qX,.G V k m k k k N N m k j s j s s k N N k k k k k k k s s s s s s s s f 1.1.( ,.G l k l N m k s j j j j j s s s s s s j j k j k N Z N l l k j k D ( | S U.(.d j Z c g ,XkXA k B l B B B B B B B B B B B B B V C C C C C C C U ..| qXjXU.W D L L L L L L L L L P P I I ^ _ ) } }  .&.&.>.b.6XjXzXtXoXQ.v./.vXHXHXMXtXtXNXzXwXQ.V.v.g.g.h.u.b.6XmXmXeXQ.p.@.@.O.=.h.`.+XfXtXuX+XT.wXHXKXKXAX(.u.+.{ } { { ] } } ) ) ) ] ] ] } {  .} ' z.uXz./ } .._ Y ^ 2.<.mXHXJXBXsX9XHXGXAX6X<.] ^ ^ $.^.U.} P I Y Y I I P P I I I P I L I L L L L I P P 2.3.BXFXZXjX^.c.} I P L P P P I I ~ ^ ^ ^ / ] } ^ ^ ^ I ....) ^ ^ ^ Y ^ ' b.wXqXNXZXGXHXzX(.' E ! Q 4.>X! E ~ ^ / ' X.$.W W ! ! W E ' ' E ' u.' w ).GXLXKXKXKXGXbX).E E v A b A A E ' X.X.[ ] _ _ Y I E W wX1.^ ^ ^ _ _ ' (.NXDXKXKXFXCXqXW ^ _ I P P L L L L L L C C C C C C C V C L T G B m m d ,XGXPXKXDXNX).' I C m m m m B m M N N B l l l z k k k n ,.N k f f f v W 5XMXbXjX8X^.x.g.h.y.:.| Z m k k f s a a a a a s s d a a i a p N g g i r r r r g v $.v.Q.D.$.E S B x x j j k f s g a a a a s s s s k k k k l l l j k m C ( >.>.>...| U C C B T C V G B m m m l l B C C C C K K K C C C C C C C I } /.&X&X-X&X^.D.:.[ { X.b.qX,X,XqX^.u.[  .%.%.;.v.D././.b.&.{ h.g.5.eXAXJXKXLXJXGXHXmX=X$.5.t.^.(.=X6X3X^.b.u.*.%.%.%.@.@.O.X.{ { { } ,.0XDXKXKXLXFXZXNX0Xz.' [  ...^ ",
"R Y  .:.8X<.>.$.jXAXU.S ( U U U ~ $.-XW ^ _ } } } ] } } {  .&.&.O.O.&.&.%.*.5.Q.+X.XE.T.iXAXAXmXuX@XiXNXNXqX^.S.d.a.a.k.L.G.~.tXAXlX XH.r.h.h.h.g.l.L.`.oX+XG.f.u.(.CXHXmX).5.*.%.&.&.&.&. . .{ } ) ) ) ) ) ) ) _ _ _ _ _ _ ^ I I I L K Y M 0XNX(.( _ K D L K K K K C C C C B B B B B B B B B B x G W iX,.m m m B K K H iX,XH T m A jX).| F B m N m l N N N k j s j j j k N N k k k k k f s s s s s s s s s f /.U.} 2.( m l l Z Z k k k k k k j s s s s s s j j k j k Z Z B x l z j v S &.&.W 6Xb.E l x c N qXiX,XB j j B B B B B Z Z Z B B B B B C C C K C C V m ( ..<.vXbXdXU.G L L L L L L L L P P P I ^ ^ ) ) } {  . . . .{ 2.3.U.(.U.b.z.8XAXGXFXAX,X<.).(./.s.y.w.h.h.;.;.' ' 3.<.b.*.O.o.X.' [ %.;.O.$.E W $.z.zXHXKXKXHX8Xb.$.+.{ { o.o.] ] ] ] ] ] ] ] } } } } ..S /.$X' ] ) _ ^ ~ W ,XHXGXFXZXCXHXDXDXNX6X<./ ^ ^ ' b.D.[ I I Y Y Y I I I I I I I I I I I I I I I P L E qXZXZXNX8XZ.-.} I P L ^ ^ ^ ^ ^ _ _ / / / ] ] ) ^ ^ ^ } } ) ) _ _ _ ) ' ^.qXCXHXGXZXmX6XW W W W W ! W W E ' ' ' ' ' ' ! ! Q ! $.+.+.' @.#.$.$.! lXGXKXKXKXKXHXiX<.+.` W ! ! ! ' ' O.+.@.+.{ } / ) ) ` E :./.] } } } } ' dXHXFXKXDXAXhX! E .._ Y I I I I I I L L L I I U L C C V V D T U C Z M b hXCXGXHXvX).W S L L B B B m B m M M m B l l l l l l l j B x y f f k v p 8XmXbXiXz.$.u.:.%.} _ m k k s s a a a a a s s f f f f a a a a a a a a a a a a g n | :.b.$.E n m l j j j j k f g a a a a a s s s f k k k k l l k k k k m ( ..>.} / D C m Z Z k Z l l B B B B B B C K L L U U U L L L L U U L L / :.}.+XoXoX^.b.{ &.&.O.5.oXzXkXhXzX&X5.9.8.e.g.d.D.}.&X^.A.u.y.v.D.z.zXHXKXKXJXHXNXfX#X5.5.M.E.&X6X9XtXzX$XA.v.w.w.h.q.8.6.=.O.o.&.&.o.$.,XZXKXKXKXDXvX(.<.$.' }  . .^ ",
"K K ) :.6X(.u.c.NXBXqXW ^ ^ ^ ( / b.oX:.) _  .{ { } } { {  .&.&.@.@.%.&.&.O.#.D.-X+X`.].iXHXZXAXzX1X8XjXzXzX&XQ.V.l.l.l.L.K.W.yXmXNXwXQ.e.h.g.g.l.V.K.`.oX-X}.S.z.6XHXFXAX6Xc.*.;.>.>.>.&.&.&.&.{ } } ) ) ) ) ) ) ) _ _ _ ^ ^ I I I I K K f hXMX0X,.( _ L L K K K K C L L C C B B B B B B B B B B m b iX(.B m H l B C A vXkX3.U k W dX(.,.L B Z Z N m N N N k j j j k k k N m k k k k k f s s s s s s s s k n U.b.>...( B l m Z Z k k k k k k k f s s s s s j j k j l Z H B x l z j v A &.[ <.6Xb.$.j x y N U.6X,Xj Z B B B B B B B B B B B B B V C C L L C C C V ( ) 3.vXbXdX! S L L L L L L P I I I I ^ ^ ) ) ) } {  .&.&.&.} _ C v A E W z.NXCXHXHXbX<.A W W W X.@.@.=.*.%.&.] E W W ' ' O.;.:.X.o.%.%.:.' E ' W  XNXJXKXKXAX6Xb.:.[ &.&.+.+.] ] ] ] ] ] ] ] { { { {  .} ' b.b.>.} ..| | W hXHXGXBXkXnXHXGXZXiXz.' ~ ^ ^ E #.;.` ^ Y Y Y Y I I I I I I I I I I I Y I I I I L A iXbXMXzX/.f.O.} I P P _ _ _ _ _ ) ) ) / / ] ] { } } } ^ ) ) ) .. . .{ ' ^.hXHXGXJXAXeXz.P./.^.$X6XiX9X(.D.D.D.D.Q.Q.(.iXhXhXqX&X`.Q.`.V.K.}.wXjXAXJXKXKXKXJXAX!.D.v.D.^.8XzXuX`.l.q.y.y.u.:.>.{  .&.:.:.+.+.o.{  ...$.z.zXGXLXJXZXkX).| / } _ Y Y Y I I I I I I I ^ _ _ ^ I L C V C U T C C A Q hXAXvXvX).E ~ / I L C B B B B m m m B B B B x l l l l x j l j k f k v A (.kXiX3.A ' ' } _ L B s a a a r a a a a a a f k n k f s a a i i a a a a d d d a f ( / F S B l l j j j j l k f g g a a d f s s s s f k k l l k k k k k m U | 2.( P C m l V V V V l l B Z V B B C C L U U I I I I I I I U U U L | :.^.}.^.D.:.}  . .&.-.s.&XzXlXvXNXwXP.i.a.l.l.K.`.&XwX&X_.n.d.V.K.[.zXZXLXJXGXAXjXoXz.V.L.K.|.uXfXdXdXzXeX~.i.8.h.g.l.g.e.6.*.%.&.&.&.>.z.vXZXLXDXqX<.$.v.:.{ {  .} ^ ",
"K K I ` /.^.v.z.mXZXmX! / ^ _ _ / b.Q./.)  . . .{ { { { { o.&.%.%.O.&.&.&.&.o.X.c.n.d.z.iXLXLXZXzX).<.b.(.^.A.t.g.g.a.a.a.a.5.z.Y.^.c.t.h.h.8.8.8.r.a.k.i.u.-.-.$.(.GXLXZX9X$.=.*.%.%.%.&.&.o.{ { { { { ] ) ) ) ) ) ) _ _ _ _ ^ ^ I Y Y K n IXAXdX<.~ L L L K K L L D L L L C C B B B B B B B B B B N M 0X| m Z C m C W BXvXU.I f <.8X(.| D B Z Z N m m m m l k k k k k k l m k k z j j j f f f s s f s j k S U.b.>.] D l l l M Z l k k k k k k k k f s s s j j k k l N Z Z B x l k N N ..[ b.^.$.E B x Z M W U.V C C V B B B C Z Z V V B B B C C C C C L C C C L ( ` 6XkXvX).E ( P P _ _ _ _ _ ^ ^ ^ ) _ ) ) } { { &.&.%.;.;.>.<.U.U.<.$.$.(.NXGXHXAXxX! <.>X).5.5.t.y.9.-.h.h.u.b.(.(.D.g.s.v.u.u.w.w.s.D.).eX/.b.jXHXKXKXGXAXY.B.v.-.h.:.;.-.;.;.;.%.%.%.%.%.%.%.%.%.&.;.-.u.b.u.>.&.+.$.,.vXZXHXkX>XpXZXHXmX).:.X.) _ ( / $.>.` ) _ Y Y Y I I I I I I I ^ ^ ^ _ _ _ ^ I _ ( E qXCXNX!.c.u.[ } ......_ _ _ _ ) ) ] ] ] } { { { } ) ) ) ) } } ) >.v.*.O.U.mXDXGXCXsXP.z.m.Q.$XtXkXmXjX$XQ.S.L.M.R.oX8XCXBXNXrX'.|.`.K.L.I.|.wXzXHXJXKXKXKXAX9XY.D.V.B.+X=XtX=XH.l.g.g.v.g.u.>.&.&.;.-.-.-.;.>.>.>.&.$.z.zXCXJXZXhX>X<.| ) _ _ _ _ _ ^ I Y ^ ^ ^ ^ ^ _ ..| ^ P C C C G U T T G W ,XzXhX).A S } } ^ D B B B Z G G G V j B U T Z l l l l l j j j j j z n n 3.,X3.A f n U U C l j s p p i a i i p p i h g M G B k a a a i i i i p v v v v a a n F m l l l j j s s j N Z n g a a a a a s s s s f k n n l k k k j k m m C ( V m l l m m V V V m m B B B B B B x C T _ Y U I I I Y Y I L L L } $.z.^.b.>.) )  .>.>.>.b.(.fXmXNXmXzX=XD.V.V.N.}.+XwXyXuX-X`.N.H.`.}.3XAXHXHXHXAXsX+XK.v.D.`.&XtXjXmXmXzXzX:X`.g.e.h.w.h.g.h.=.O.&.&.&.>.[ ).iXkX).W X.O.:.v.;. . .} Y ",
"R T L F E :.h.A.hXZXmX<.' ) _ ) } ' v.s.}  . .&.o.o.o.o.o.O.%.*.;.;.%.o.&.&.&.%.0.5.7.z.0XGXLXFXNX).$.$.<.z.z.5.c.d.a.k.k.k.f.z.z.z.5.x.p.h.r.r.r.a.k.k.5.5.#.#.<.6XFXKXDXiX5.6.;.*.;.*.%.%.&.&.o.o.o.{ { { { } ] } ) ) _ ) _ _ _ _ Y Y Y N pXHXfX<.( I L L K K L L C L C C C C C C C C B B B B V B Z B ( S G B C M C W bXvX1.D n 1.(.(.( V m B Z N m l l l l k k k l l l l l z z z j j j f f f s f f f z k S 1.1.$.( V l l l m m k k k z z z k k k k f s j k l l l m B B B B x l k z N ( ..b.u.$.F B x Z m M ( C C C V B B B C Z Z V V C C C C C C C C L L L L T | $.=XdXfXW [ ) I I _ _ _ _ _ ) ) ) ) } } {  . .&.%.%.;.w.h.v.=XsXuX&Xb.z.8XNXJXHXNX X#X3XtXtXR.B.x.s.y.s.v.v.Q.$XtXsX+XK.V.x.x.s.g.p.S.Y.1XtXc.A.jXGXJXJXGX0XY.L.V.h.h.w.=.=.;.;.*.*.*.*.;.;.;.;.;.;.h.h.h.y.v.v.y.O.o.:.,.jXAXNX1X! (.AXNX$X5.@.%.{ | | | :.:.[ } _ Y Y Y I I I I I I I ^ ^ ^ _ _ _ _ _ _ ( E U.hXqXA.t.O.] } ........| } } } } ] ] ] { &.&.&... .}  . . .} o.g.K.q.O.b.jXHXZXvXP.A.H.`.+X3XzXAXAXkX$X~.Q.Q.`.}.3XdXZXHXAXzXwX+X}.`.|.+X:XuXNXGXLXJXJXZXjX6X}.`.K.`.wXuXzXuX`.H.L.L.V.v.y.:.&.&.>.:.:.:.:.:.>.>.>.:.z.6XMXbXiX<.<.| ..} _ _ _ _ _ ^ Y ^ _ _ _ _ ^ _ ..| I C V V V C G U U T W <.,X3.H l m 1...} U Z l B Z C U T G k B U U B k j j j j j j j s s z n n G ,.H f r y k k s y y r u u u i i u u u i r g V L Z k a a i i i r r u d H A n d a p n k j j z j y y y s Z Z M s a i a a a a a s s f k n n k k k k j j k k l l s s j k l m B V B m l m B B B B l B U | | U K C K Y Y Y Y I P I ^ ~ E ' ^ Y I ^ } >.>.>.} ,.).0X0X<XiX6Xb.-.#.y.c.z.U.(.!.oXJ.i.5.5.5.z.).qXiX@X).).A.v.;.u.x.Z.).).(.(.).$X^.x.#.@.%.*.=.6.6.*.[ { { { &.{ E $.! E / &.o.;.v.:.o. .} Y ",
"H K C C P } >.:.qXCXmX>X| } .... .{ O.X.{  .&.&.%.*.*.*.*.*.;.-.s.t.*.o.{ &.;.;.a.k.L.Y.qXAXHXDXMXiX0XjXbXvX5X+XW.E.K.E.}.+X&XqXhXNX3X].Z.S.l.k.L.L.I._.+X-X+XQ.P.6XHXKXLXpXz.w.w.;.;.;.;.;.*.%.%.%.%.&.&.>.>.o.{ { } } ) ) _ _ _ _ _ ^ U H pXZXfX<.E P L L L L L L L L C C C C C C C C C B Z B B B Z Z C C Z Z V M C W iXpX<.V M | U.b.F m l N Z N m l l l l m m m m m l l l z z z j j f f f f f f f f f f n ,.| | S m l l l l k k k l m N N n z k k k k k N N Z Z B N B B Z Z m z z N G | :.:.` S m B x B V V Z Z Z Z Z V C C Z Z C C L U U L C C L L L L P P ( ( $.(.(./.X.;.} ^ ^ } } } } } } } { }  . . . .&.&.;.;.h.g.V.K.$XtX3X^.b.z.eXNXGXZXtXP. XwXsX0XP.N.n.x.x.v.B.D.^.wXmXkX(.Z.V.L.m.m.l.n.K.T.uXuXP.T.sXHXJXGXNX!.Z.H.D.v.g.h.h.w.;.;.*.*.*.*.*.*.%.;.:.h.h.h.p.s.D.K.V.-.%.>.$.(.zXfX/.W ! 0X9X<.#.*.&.} _ | [ u.1.{ ) ^ Y Y I I I I I I I I I ^ I ( _ _ ^ ^ ^ ^ ( | /.A.u.-.&.} ) _ _ _ _ _ _ ) ) ) ] ] ] { %.>.&...} } } } } ] @.V.`.p.*.$.(.dXkX(.A.H.`.+XwXfXmXZXGXAXfX3X&X+X+X&X-XtXkXHXZXMXzXuX:X+X+X:XwXfXmXHXFXJXHXhX6XoX}.`.Q.^.wXfXuXuXwX+XI.L.L.V.u.:.[ { &.&.+.$.$.$.@.&.%.@.u.z.(.,X<.| | | _ _ ) ) _ _ ^ I I I ^ _ _ ^ I I I I D V B m m m B V Z C | ( ( Z j l a ,.1...U Z j l B V T ( L m m U U m s s s s s a a a s g N N T Z Z n i e 7 e e e e e e e e e e e u u u e t a V L C j y r r r r e e e e v A A f a u i a g g g a y y y s M G B g r r i r y y y a s k z n n z z s s s s s s j s y y s j k m m Z l k j l B B B B C U T T U K B B B U Y Y Y L L P I I D D K I I I / >.>.&.( ( G A A E A } / ] &.*.*.;.+.E E ' #.i.:.$.+.[ ' $.W E $.+.@.O.+.@.=.6.-.:.$.$.$.' ' O.o.o.o.O.@.=.-.*.{ { { { ] &.+.' +.[ [ [ [ :.v.h.O.o.} Y ",
"c x Z P | ..1.:.(.mXmX).| } .... . .o.[ { &.&.;.;.;.;.;.;.;.;.y.V.f.=.O.{ %.;.y.5.I.|.T.1XNXHXDXAXvXvXAXDXBXiX=X{.|.|.'.-XwXtXkXGXHX7X;X'.`.I.I.I.`.|.OX*XuX:X{.Y.6XZXKXFXqXA.h.h.h.h.h.h.;.;.;.;.*.*.%.%.:.h.&.{ { { } } } ) _ _ _ _ _ U H ,XbXfX<.E P L L L L L L L L L L L L L L L C C B B B B Z B Z Z C l l V m D T ,X0X,.G V C 2.,.G m k N N N m m l l l m m m m m m l k z z j j k k f f f f f g g f f v G | G M m l l l k k k k m Z Z N N k k f k k z N Z H Z Z N B Z Z Z m z z j B G ( $.( m l B l B H H Z Z Z Z Z Z C C B B V C L T T L C C C D L P I I D F | U.U.' *.;.} ) _ ......} } } { }  . ..... .&.%.;.w.s.V.K.}.yXzXuX$XA.A.!.zXbXvX!.R.:XuXzXzX+X`.S.c.m.D.D.J.}.uXAXmX5X}.K.H.B.D.L.B.K.}.wXuX+X+X6XNXZXAX6X/.C.K.D.V.g.g.y.u.:.;.;.*.;.;.;.;.&.%.>.u.p.p.s.v.D.`.D.=.;.&.>.1.(.(.u.$.$.<.<.$.+.&. .} ( ( [ b.1.{ ) I I I I I I I P P P P P P _ _ _ _ I I I ^ U F E W ' ] .. .^ ^ ^ I I P P P ) ) ] } ) { ;.h.{ ] ) ^ ^ ^ ^ ~ +.V.`.0.%.' z.).U.<.5.i.c.P.z.z.(.qXhXkX6X).z.<.$.$.$.z.(.qX,X,X(./.A.5.$.$.$.<.).<XqXiXqX).z.5.$.$.X.$.<.z.z.z.<.$.#.6.e.=.' E E / ) ) ] ' ' ' [ [ o.X.X.$.W A E ~ ^ I I I I ^ ^ I P L L L P I I P C C V V B B B m m m k l m m F _ L x x s a M 2.) D l j j m B ( ( L B l U ( k a y a i a y y y s f N N H H m f p p 7 8 7 7 7 7 7 7 7 7 7 7 7 7 7 7 e e G L B j y r r e e e e e 8 i N H v d i r r h g g a y y r a m G Z f r r r r r r y a s k n N n z z y y y y y y y y y y s s k m m m l j j l B B B B U | T K C C B x x C U R Y I L L I Y I I K I L L ~ &.:.>.~ ( _ ^ _  . .}  .&.;.;.;.&. .} / +.-.-.+.&.&. . .%.%.o.o.o.o.%.>.-.;.w.;.;.>.>.#.$.o.{  . .o.X.X.*.:.>.o.o.&.&.} } { { { { } ] } $.v.y.O.o.) Y ",
"K m F <.z.^.1.<.U.zXfX$X$.}  ... . .&.{ { &.;.;.h.h.w.h.h.=.w.g.K.H.w.X.o.%.h.g.m.}.+X.XqXzXHXZXHXAXAXAXHXZXvXiX;XOX;X-X2XtXzXNXHXHXzX7XOX|.I.I.|.+X&X:X-XuXwX X!.(.NXBXCXiXZ.g.h.w.w.w.;.;.*.*.;.;.;.*.*.h.v.*.o.{ } } } } ) ) _ _ _ _ ( U ,.qX6X<.F P I L L L L L L L L L L L U U U C V V B B B B Z B B B B B Z G D V | 3.,.T C M D V Z l z z N H V m k l m m B B m m m l k j f j k N z g g s f g g g g f f v f v k z z z z k k k k k N H N n j f f k f s k Z H G Z m l B Z Z m k j s j n M F m k k k k l M Z Z B m l l l l l l m B C L U U C C C C C D P I ^ P D S | | ^ &.1.>.) P ^ _ | } ) } } ) ) }  . ...&.%.*.-.y.V.L.S.$X8XeXuX&X^.Y.^.9X).z.V.H.+XuXuX+XQ.D.V.s.s.s.s.c./.$X6X6XoXD.y.y.y.t.t.t.c.A.Q.+XQ.D./././.b.u.u.s.v.D.y.-.#.#.+.+.[ [ {  . . .{ { +.:.y.w.' ' #.u.=.X.X.{ { } ' ' / ~ ~ S E ' o.{ } | D F [ >.>.} ^ L L I P I I P P L L L L L L L L U I I I I L D D F P / ..>.} I D C L L L P I ) ] ] ) ] %.>.&.^ L P L L L F / v.g.w.%.%.+.' ' ` ' ' ' ' ' E E E E E ' [ $.+.+.+.+.$.' ' ' ' $.#.-.;.=.@.+.$.$.$.$.$.U.b.u.u.X.[ ' ' ' $.$.[ X.' { %.=.@.[ / / / ) ) ~ ~ / ` [ [ { { } ] | | P P P I U U I I I P D C C C L L U U V B B B B B B B m m m l k k k U | D V j s G ..I D m j k m B U ( L m l U ( C s y y y r r y a s k Z H H N f p u 9 9 9 7 7 7 9 9 7 7 7 7 7 7 7 7 7 e e G L m s a r r e e e e e 7 7 i N H N a t s s s s a a r r y N T Z f r e r r r y y a f n N n N j a a a a a s s s s s s s s j k k m l m l l j j B C ....Y K B x x x x C K Y _ _ I I Y Y I I U I I I ) >.:.>.) _ _ )  . . . .&.&.&.&.&.&.&.%.%.%.;.;.;.%.&.&.%.%.%.%.%.%.%.%.*.;.;.;.w.h.h.h.:.#.*.%.&.o.o.o.[ [ %.>.>.>.>.&. .} {  .} } } } } [ u.v.9.o.) Y ",
"C C :.$.(.tXU.$.W $XfX/.X.}  . . . . . .o.o.*.;.h.h.h.g.g.w.w.p.K.L.g.*.%.;.h.v.m.}.&X-X@XfXAXAXAXmXmXNXAXNXmXfX:XOXOX-XwXtXfXmXAXAXmXtXOX|.I.I.`.}.+X:XwXuXuX3XoX!.dXzXdX).m.g.h.w.w.w.;.;.*.*.*.;.*.%.*.h.D.h.O.{ } } } ) _ ^ ^ ^ ^ I P L D 1.1.~ F P I L U L L L L L C C C C L T U L C V B m m B B B l l l l Z U D C m | ,.U S M m k k z j s k H T m j k l B B m m l k k j s s s f g g g a a a a a a a a a a a a a a s k N n n k s s z H H n f f s s s a s M H G B l l Z Z Z m f s a a s f f s s s k k l N Z Z m k j j j j j k l B C L L C C C B B B C L I _ U L V C L ^ ..1.>.^ L I _ _ _ ) ) ) ) ^ ) ) ) { { { o.O.#.y.t.#.W W ! $.' $.$.$.$.$.O.#.6.5.z.z.-.@.@.@.#.-.#.#.X.' ' ' ' $.#.-.@.@.@.@.@.@.@.@.h.=.@.u.u.-.*.O.@.-.9.u.h.u.-.#.@.+.[ [ {  . . .} ] [ ;.w.=.' ' O.u.@.' ~ / / ^ / / / ^ ~ ~ / } } } ) ( D F } >.>.] I L L L L L L L L L L D L L L L L U I I I U I L L L L ^ _ ....} I D L L L P I ^ ] ] _ ] %.>.&.^ L U U U U L ^ 1.h.w.%.&.o.[ ] } } } } } } } { {  . .&.&.>.>.&.>.%.%.>.>.>.;.;.;.;.;.;.*.@.O.@.*.*.@.;.v.v.;.%.o.[ [ o.%.%.o.{ ]  .>.;.*.} ) ) / / / ^ / ) } { { } } ) ^ ( ^ I P P P I U P U I P D V V C C C L T U V B V B B B B B m m l k k s M U ( D m k Z ..I D m j k B B U U D l l U ( C s y a y y r y s k m H H N g i e u 9 9 9 7 7 7 7 9 9 7 7 7 7 e e e e e e G I m f a i i u e e e e e 7 7 r J H k s j j j j s a r e y N T Z f r r r r r a a s f n N N j a y a s s a s s s s s s s s s k k m m m l l j B C _ .._ I K B x x x C B C K Y _ _ Y _ Y Y Y U U I ^ ] >.:.;.} } } }  .&.&.&.&.&.&.&.&.%.%.%.*.;.;.w.;.;.*.*.*.;.*.*.;.;.;.;.;.;.w.w.w.8.8.w.u.-.@.#.*.%.o.o.{ { o.&.>.>.>.&.&.{ { } } } ....} { %.v.h.O.] I ",
"C ( b.$.dXmX(.$.' | U.<.o.{  . . . . .&.o.o.*.;.h.h.h.h.h.h.w.0.l.d.g.=.*.;.g.V.m.Q.}.}..X#X8XfXeX6X6XeXfXfXtX3X{.|.|.{.XX=X6X6XsXfXuXwX{.`.K.H.H.K.`.}.T.}.&X:XQ.R.$X3X(.z.s.h.w.w.w.;.=.*.*.@.*.*.*.%.*.h.V.v.o.{ } } ) ) ) ^ I I I I I L ^ I I D F L U I U L L L L C C C C C C U T U C V B l l l l l k k k k Z U L C s l | C C m m s s s s s s Z | m j l l m m m k k k j s a y a s g g a a i i a a a a a i i i i i i a a s k n k s y a N H N N f a a a y s m Z V m k l Z G G M f s a a a a a y y s j k l N N N j s s s s s s k l B C D C C B B B B B B C L ^ ^ U C B C D ) >...I D L I _ _ ) ) ) ) _ ^ ^ ^ ) ) ] { o.%.h.h.#.' | $.$.$.$.+.+.+.-.6.6.e.e.u.u.:.;.*.%.%.%.%.O.O.@.*.-.-.-.;.=.@.@.@.*.-.-.@.-.9.9.y.h.y.9.-.=.@.@.@.#.y.h.9.-.@.+.o.{  . . . .} ] { -.;.;.` ' O.:.%.' ~ / / ^ ^ / / ^ / ] } [ } ] ( ( D P } &.&./ P L L L L L F L L L L L L L L L P P I I I I I P L L D I ~ / ....} I L L L P ^ / ) } / ] %.>.&.^ L U U U L L ^ >.;.w.&.&.+.[ ] } } } } { { { >.>.>.>.&.>.%.%.;.;.;.;.;.&.*.*.=.;.;.w.w.;.*.@.@.@.@.@.O.;.v.g.;.*.O.o.O.;.;.O.{ ]  .>.;.*.} ) ) / / / / ) } } >.&.} ) ^ ^ ^ ^ I I I I U U U U U P D C C C C C C U T D V V B B B B B m l l k k j j M ( | S V C ..~ D m k l B B U ( U l l U ( C s y y y y r a f m Z H H f d u e 7 9 9 9 9 9 9 9 7 7 9 9 7 7 e e e e e p M ( M f a g i i r e e e 7 7 7 7 i N H N j j j j g g r e i N U C f r r r r r a f z N N n f a y y s s a s s s s s s s s s s k k m m m l l x B | 2..._ L K B x B B C C B C I _ ..} _ _ Y Y Y Y ^ ^ ] >.;.;.{ } }  .&.&.&.&.;.;.;.;.;.;.;.;.=.;.w.w.w.;.;.=.6.w.w.w.;.;.w.w.w.w.w.w.w.w.8.w.y.t.9.#.*.*.*.%.o.o.&.%.;.>.>.;.%.{ { { } } } } } { [ v.v.%.) I ",
"L ..:.<.hXAX8X$./ ^ $.:.&. . .{ {  .{ { o.o.*.=.w.;.6.6.=.6.6.6.6.6.6.*.=.w.g.V.D.A.m.A.A.Z.).).!.Y.Y.T.Y.P.P.P.P.G.F.Y.Y.T.T.!.P.!.T.P.W.F.C.M.K.H.M.N.N.c.f.c.f.Z.R.T.z.c.9.w.w.w.w.=.*.@.@.@.@.%.%.%.%.;.h.u.O.{ } } ) ^ ^ I I I I P _ I ..^ I ^ P D I L L L L L C C C C B B C L T U L B B m k j j j j j j j B U P C k m D C V k k s s s s s j k ( C m l m m m k k j s s a y y y a a a a i r r i r r i i i i r r u u i a a f f f f a y s N H H N a y y r y n V B m k l Z G G M f s a a a a a y y s k k n m Z j j s s y y y s l m V C C C V B B x x x B V C U U U L C B C ^ ....P C L L _ ) ) ) ) ^ ^ ^ ^ ) ) ) } } o.;.h.h.-.[ ' ' [ +.+.O.O.%.*.7.e.7.a.h.;.;.;.;.;.;.;.*.*.;.;.;.w.w.w.=.;.;.;.;.9.9.-.-.9.h.h.w.=.=.w.w.w.@.@.@.@.-.h.u.-.#.@.O.o. . . . .{ } o.;.;.;.[ [ %.:.>.` / / / ^ ^ ^ ^ / / } ..} / / ~ ~ D P } &.{ / P L L L L L F L L P P L L L L L P P P P I I P I P L D L F L } ....} F F L P ^ ) ) } / ] %.>.%./ P I L P L L ^ &.*.w.&.&.X.[ ] ] } { { {  .&.&.&.&.%.%.%.*.*.*.-.;.;.;.;.-.=.=.;.w.w.w.w.=.=.#.@.@.@.O.=.h.v.h.;.@.O.*.;.;.*.X.[  .&.;.*.{ ] / / / / ] } { &.>.&.] / ^ ^ ^ ^ I I I I U U U U U U D C C C C C C C U U C V B B B B B B m l k k z s k G ,.F D F } P D m k l l B U ( U l l U T C s y y y y a s k B Z B n f a u e u 9 9 9 9 9 9 9 7 7 7 9 7 7 e e e e e u M | M a a g g i i r e e e 7 7 7 8 i N H j j j j s a r e i m U D f r r r i a a z N N n k a y y y a a s a a s s s s s s s f k k l m m l l C x 1.2...Y K K C B C C C C C C K Y ......_ _ Y I Y ^ ^ ] ;.;.;.o.{ &. .&.;.;.;.;.;.;.;.;.;.;.=.=.6.8.8.8.w.w.6.8.8.8.8.6.6.8.8.8.8.8.8.w.8.8.q.p.i.0.6.=.=.*.*.O.O.%.%.*.;.;.;.;.o.{ [ [ } } } } &.' h.v.>.} I ",
"Y ^ :.(.0XNXfX! ) _ } +.&.{  .{ { { { { { o.*.;.w.6.6.=.=.=.6.6.6.6.w.w.w.y.V.H.S.S.M.C.C.G.Y.T.T.Y.R.R.E.E.E.E.K.K.K.E.T.W.T.T.T.T.T.Y.Y.F.J.H.H.S.H.L.B.n.j.f.x.D.J.Q.M.d.8.6.w.w.;.=.*.*.*.*.*.%.%.%.%.*.;.;.&.{ } } ) ^ ^ ^ I I I I I I I I I I L L L L L L D D C V B B B B B C U T U C V B l j j j j j j j B L I D l m G T C k s s s s s s j s F ( Z m m m k k s s s a y y y a a a a a a r i i r r i i i i u u u i i i i a f f f a a a f H H N f a y r y k B V m k l Z G G M f s a a a a a s f k k m m m k s s s s j j j k l Z Z G C C C B B B B B B C C K I U U C D D ^ ....) P P I I ) } { } ) ) ) ) ) ) ) { { &.;.h.v.-.+.+.+.+.@.@.@.@.=.8.r.r.r.e.h.h.;.;.;.;.;.;.;.;.;.;.;.;.w.w.w.;.;.;.9.9.9.9.9.w.w.w.w.w.6.6.6.w.=.=.@.@.@.-.g.g.y.-.O.X.o.&. . . .{ o.;.w.;.[ [ &.h.>.] / / / ^ ^ ^ / / / ..} ] ~ ~ ~ P D P } ..} / P D D D L L L L ~ ~ I I L L L L L P L P P P P P I P L L L L F ) ..&./ P ~ ^ ^ ) ) } / ] %.;.%./ I I L I ^ / } >.;.=.{ o.X.[ ] ] { { { { &.&.&.%.%.%.*.*.;.*.;.;.=.=.-.9.9.9.w.6.w.w.w.w.w.w.6.=.#.#.=.=.=.w.v.v.q.@.=.6.6.;.o.&. .&.h.w.&.} ) / / / } } &.&.>. .] / ^ ^ ^ ^ U I I I I I I I U U D C C C C C C B U U U C V V V B B B m m k k z c j m G | / ^ } P D m l l l m U | U x l K T C s a y y a s z Z Z Z M k a i i u u u 9 9 9 9 9 9 9 9 9 9 7 e e e e e e u M | m a r y g g a i e e 7 7 7 e 8 t f H H l j s s y r e a M U C f r r r i a s N N N k f s a s a y s s y y s j k z k k k k k k k l l l l U L 1...Y L K K C C C C C C K C K I } ......_ Y Y _ _ ) [ ;.h.;.&.&.&.%.*.;.;.w.;.;.w.w.8.8.8.8.8.8.8.8.q.8.8.q.8.8.8.8.8.8.8.8.8.8.8.q.e.q.r.r.p.a.r.q.6.=.6.;.=.*.O.O.*.;.w.h.;.*.o.X.[ [ [ } } &.o.O.v.;.} ^ ",
"Y ) :.^.).jXfX! | _ { &.&.{  .} { {  .{ { o.*.;.w.w.w.w.w.w.w.w.w.w.w.w.w.p.V.K.B.S.H.H.H.K.Q.Q.Q.Q.Q.Q.Q.Q.Q.Q.`.`._._._.].].]._._._._.`.`.`.`.E.J.H.L.L.L.V.j.N.S.K.Q.B.g.r.8.w.w.w.;.=.=.=.=.*.*.%.%.%.;.;.;.&.{ { } ) ) ^ ^ ^ ^ I I I I I Y I L L L L L L L L D C C C C B B B B C U U U C V B l l j j l l l B L I D l m L U G n s s s s s s j s M 2.C B m k k f s a a y y a a a a a a a a i i i i i i i i u u u u u i i i a a f f f a a a f N H N z s r y k V V m m l Z G G m f s a a a a s s k m M N m k j j j j j k j j k m Z Z C C C C C C C C C C K U U P I U L L D ^ ....) I I I I ^ ) {  .} } } } } } {  .&.%.;.h.v.u.@.@.@.@.@.@.#.6.e.a.e.e.r.e.h.h.;.;.;.;.;.;.;.6.w.w.8.8.8.8.w.h.y.y.u.u.y.h.h.w.w.6.6.6.w.w.w.w.9.6.#.@.@.@.w.g.g.u.@.O.o.o.&.&.&.{ o.;.h.w.[ [ &.h.>.[ / / _ ^ ^ ^ / } } } } / ~ ~ ~ P F I } ..{ / F D D D L L L P ~ ^ ^ I P L L P P L L L P P P P I P L L L L D P } &.{ ] ^ ~ ^ ) ) } / ] %.;.%./ ~ ^ I ^ / ) ..>.-.*.{ { X.[ ] } { { { &.&.%.%.%.*.*.*.=.=.=.6.6.6.6.w.0.0.0.q.q.q.q.q.q.y.y.q.w.6.=.=.=.#.#.h.V.g.6.6.6.6.=.O.%.&.&.h.w.&.} ] ] ] ] { { &.&.&.} ) / ^ ^ ^ ^ ~ I I I I I I I U U L C C C C C C C C U U C C V V B V V B m m k z z z j s D } ..>.~ D B l l l l U | U x l K T C s a y y s k N H Z m k f y y i u u u 9 9 9 9 9 9 9 9 u 9 9 e e e e e e e M | n y r r a g g i r e 7 7 7 e t t y z H H z s a y t r a m L C f r r u i a a z N n f f s a s s s s s y s j z l z k k k k k k k l l l l C Y 1.2.I K K K K K K K K K K K K L Y } ..>..._ _ _ } { { ;.h.h.%.%.%.%.;.;.w.w.8.8.8.8.8.8.8.8.8.8.8.r.r.r.r.r.e.e.e.e.e.e.e.e.e.e.e.e.e.g.a.e.a.k.a.a.8.7.8.8.6.6.=.*.@.=.=.w.w.w.*.O.X.X.[ { { &.O.O.h.;.{ ) ",
"_ ) #./.(.NXNX>X' ] X.O.+.[ { { } {  .{ { %.;.w.w.w.w.w.w.w.w.q.q.h.h.h.h.g.L.K.K.K.K.K.K.Q.^.^.^.].^.].}.}.}.}.}.}.}.}.}.}.}.}.|.}.}.}.|.|.}.|.].`.E.J.H.L.L.L.C.H.Q.Q.D.V.a.r.h.h.h.w.w.w.w.;.;.;.;.*.*.*.;.;.%.{ { } ) _ _ _ _ _ _ _ _ _ _ _ L I I L L L L L P P L C C C C C C B B V L U U C B B l j j l l l B L U L l B D U G m s s j j g s j s m 1.C B m k f f a a a y a a a a a a a a a a i i i i i i u u u u u u i i i u p g v g s f a a g H H H z y y k B V m m m Z G G m f s a a a a s k n M Z Z m k j s s s s k j k k m Z C C C L L L L L L L L L I L L I U U L D ^ ....) I I ^ ^ I ^ }  . . . . .{ {  .&.%.*.u.h.v.y.#.#.@.@.@.=.;.8.k.k.l.g.h.h.q.8.8.8.8.8.8.8.8.8.q.0.8.8.8.q.y.y.y.y.y.y.h.h.h.h.w.w.8.8.8.8.w.w.w.9.6.#.@.@.=.y.v.s.9.@.O.O.%.&.&.o.o.;.h.h.o.{ %.h.>.{ / ) / / / / } ....} ] / ~ ~ ~ ~ L ^ ] } ] / F D D D L F L I ^ ^ ( U U P L P P L L L L P P U I P L L L L D D ^ { &.&.] P ^ ) } } / ] %.;.;.] ~ ^ ^ _ ] } >.>.;.O.{ { X.[ [ {  . .&.&.%.%.*.;.;.=.6.6.w.w.8.w.7.8.q.r.e.e.e.p.g.g.h.h.p.p.h.y.q.w.w.w.=.=.#.g.l.g.6.6.6.#.;.;.;.;.h.w.&.{ { [ [ [ { { &.&.&.] / / ^ ^ ^ ^ ( I I I I I I I I U L D C D D C C C V L U K C C B V B B V B m l l k z j s f ~ 1.1.^ C Z l l l m U | R x l K T C k a y y s z Z H B l k a y y i u u u u u u u u u 9 9 u u 9 u u u e e e e S | n y r y a g g a r e 7 7 e 7 e r y s l H H z a y t r a n C B f u r i r a a g N f f a a s s s s y y s j z N Z l l m m m m m m m m B B L C _ 2.K K K K K K K K L L U K K L Y _  .>..._ _ }  . .&.h.h.h.;.;.;.;.w.8.h.h.8.8.8.8.8.8.8.8.e.e.e.e.e.e.e.e.e.e.e.e.e.e.e.e.e.g.a.a.g.g.a.k.k.l.l.l.a.a.g.e.e.8.6.6.6.6.6.6.8.8.6.*.O.O.+.+.&.&.%.O.-.%.{ } ",
"..) O.D.eXzXmX).W ` X.O.+.[ { } { { { o.o.%.;.w.w.w.8.8.8.q.h.h.h.h.h.g.g.V.K.`.K.K.E.`.`.].oXoXoXoXoXoX}.}.oXoXoX+X+X+X+XoXoXoX.X.X.X.X{.{.{.{.{.}.].`.K.H.G.G.G.K.Q.Q.Q.B.k.a.e.h.h.w.w.w.w.w.w.;.;.;.*.*.=.;.%. .{ } ) ) _ _ _ _ _ _ _ _ ^ _ I I I L L L L L I I L L C C C C C C B B V U ^ U C Z B l l l l l B L U L m B D U G m j s j j g j j m V 1.D V m k s s a a a a i i a a a a a g a i i i u i i i i u u u u u u u u u i a g g g g a a a g N H H s a n V V m m m Z G G m f s a y a s s n N Z Z Z m k k s s s s k k k k m B Z C C L L L L I I I I I I I L P U P L L ^ ....) I I ^ ^ ^ ^ _  .&.&. . . . .&.%.*.-.y.g.V.y.=.=.=.=.=.6.8.a.k.N.l.a.h.h.p.q.q.q.e.e.q.r.r.r.t.t.r.r.r.e.s.s.s.p.h.h.h.h.h.h.h.q.q.w.8.q.8.w.8.6.w.9.#.#.#.9.s.g.e.#.O.%.%.%.&.o.o.;.h.h.%.o.%.:.>.{ / / / / ) } ....} } ` ~ ~ ~ ^ I I ^ } } ] / F D D D F F L P ^ ^ ^ I I P P P P L L L L P P P I P L L L D D D P / { &. ./ ) } } } / ` %.:.%.] ^ ^ ) ) } { >.:.*.O.{ { [ [ {  . .&.&.&.;.;.;.;.;.6.w.8.w.q.r.e.r.e.e.e.a.a.g.g.g.g.g.s.g.g.g.p.p.y.q.q.6.6.#.7.g.l.6.6.6.6.;.;.;.;.h.w.%.{ { { { { { { &.&.{ ] / / ^ ^ ^ ^ ^ I I I I I I I I I L L D D D D C C C K L L C C C B B B B B B m l l z z M s m ..U.( C Z l l l m U | T B l K T C k s s s k l Z Z l k s a a y r r u u u u u e u u u u u u u e u e e e e r M | n y y y a g g a a e e e e e e r a a s k H H s a r r a f B k a i i i i i a g g f a a a s s s y y y s z z Z Z l l m m m m B B B B x x K K K Y K K K K K K L L I I U L K L Y _ _ .... .} }  . .&.h.h.h.;.;.;.6.8.8.h.h.e.h.h.8.8.8.8.7.e.e.e.e.e.e.l.l.l.l.l.l.l.l.a.a.a.a.a.g.l.l.k.k.k.k.L.L.l.l.l.l.g.p.e.8.7.7.8.8.7.8.8.6.=.@.O.O.%.%.%.*.*.&.{  .",
"_ _ &.b.0XmXNX(.W / [ O.%.o. .{ } {  .&.%.*.;.w.w.w.h.h.q.e.e.g.g.g.g.g.l.L.I.`.`.`.`.`.}.}.oXoXoXoX+X+XoXoX+XOX&X&X&X&X%XOXOXOXOXOXOXOXOX+X+X+X+X.X{.}._.`.E.K.K.`.}.}.Q.H.V.l.g.g.g.h.q.q.h.w.w.w.;.;.;.;.;.;.%. . . .) } ) _ _ _ _ _ _ ^ ^ ^ I I I I P L L P I I U L C C C C C C C B V L U _ G C B l l l z l B L U L m B D U G l j j j j c j z Z C 1.( V n f f s a a a a i i i i i i a i i i i i i p p p p u u u u i u u u u i i a a g g g a r y z H H z s m V V B m m Z U G m s s y a s s n M Z Z Z M k k j s s f f k k k l m B Z C C C L L L I I I I I I I L L L P L L ^ .. .) I I ^ ^ _ _ )  .&.>.>.&.&.&.%.%.;.;.h.v.V.l.8.8.6.6.#.w.d.L.L.N.k.t.s.s.i.i.e.h.e.p.p.i.i.i.i.p.e.p.f.f.g.g.g.g.g.g.g.g.g.g.g.h.s.s.e.8.8.7.8.8.q.e.6.#.#.#.@.B.L.6.%.&.%.%.%.O.o.O.;.h.%.o.%.:.;.{ ` / / / } ......} } ) ^ ^ ^ Y Y I Y } } ) / / ( L L L L L P ~ ^ ^ I I I P P P P P L P L L P I ~ I P L L L L L L ) &.>.{ ] ] } ] ) ] %.:.;.] / / ) ] {  .>.;.;.%.{ { } } o.&.&.&.;.;.;.;.w.6.8.8.8.q.e.e.e.e.a.g.l.l.g.g.g.g.v.v.v.v.v.s.V.V.a.p.e.e.r.8.7.6.q.g.8.8.6.=.=.;.>.&.%.%.O.O.{ { { { { o.&.o.] ^ ~ ^ ^ ( _ _ ^ ^ ^ ^ ^ I I L I I I L L D D D D D K K K L L K K Z C B V V B B B m m m y y j m 1.^ C m l l l l B L T B x Z U B k j j j l z N l k j s s s a a r e e e e e e u u u u u u u e e r r r r r M | k a y y g g g a a g u e r r r r s s s s l Z k g y h a a s s a i a p a i a a a a s s s s s s s s j j z z Z Z x B B B B Z Z Z Z B Z C K K K K K K I Y Y Y I I I I Y Y K L Y _ _ _  ._ } }  . .;.h.h.h.h.h.6.8.h.h.8.r.e.e.h.h.8.8.8.r.l.l.l.l.l.l.l.L.L.V.l.l.k.k.k.l.l.l.L.L.H.B.L.L.L.L.L.I.L.L.V.V.V.j.k.a.k.l.l.a.a.a.a.r.8.7.6.=.*.*.*.;.@.O.+.] ",
"| } } <.(.zXzXqXW / [ %.;.&.&.{ { o.&.%.*.=.6.6.8.h.h.e.e.e.a.g.l.l.l.k.j.L.`.`._._.|.}.}.oX+X&X&X&X&X&X&X&X&X&X=X=X3X-X-X-X-X-X-X-X-X-X-X-X-X-X-X&XOX+X{.}.|._.|.}.}.}.}.K.H.L.V.l.l.g.g.h.h.h.w.w.w.;.;.;.;.;.%. . . .} } ) ) ) ) } ) ) ) ^ ^ ^ I I I P P P L P I I U L C C C C C C C C V C U T U C m l l l l B L U L B B D U G m j j j j j j H Z V | ( V n k s s a a a a a a a i i i a i i i i i i i p p p p p i i i u i i i i i i a a g g s y y s N H N l m V V B m m Z U G m s s y a s k N Z Z Z M k k j j j s f f k k k l m B B V C C K L L L L L I I I I P I P I L L ^  .} ) I ^ ^ ^ ) _ _ }  .&.>.>.%.%.%.*.;.;.h.v.B.l.8.8.6.6.=.0.n.C.L.N.a.q.y.s.i.i.a.a.a.d.d.f.f.f.a.a.g.d.x.d.g.g.d.d.g.g.g.g.g.g.g.g.v.v.g.e.8.6.7.q.e.e.q.6.#.#.=.y.g.g.%.&.%.*.%.O.o.o.*.:.*.O.%.:.;.o.] / / ) } } ....} } ) ^ ^ ^ Y Y Y ^ } } ) / / ( I I I I P P I ^ I I I I P P P I I I I P P I ^ ^ ^ ^ ^ ^ ^ ^ ^ I ^ } >...} ] ] ] ] ] %.>.;.{ / / ] {  .&.>.;.;.%.o.o.o.&.&.&.&.;.&.;.;.w.8.8.8.q.q.e.a.g.g.d.l.l.l.l.l.V.V.v.v.x.x.x.g.g.v.g.g.a.p.e.r.e.e.7.6.e.8.8.6.6.6.h.;.%.%.%.O.O.o.o.o.{ { { [ [ [ [ ] / / _ _ _ ^ ^ ^ ) ^ ^ I I I I I I P D D D D L L K K K K K K T K C C C C C Z Z B B s y j C 2.F C m l l l m B L U B B C K B l k k k l l z l k j j k k f a a i i i i i i i i r r r r r r r r r r r y m | m s y a a a s a s a a i a i i a f f s s s l s s g h g a g g a a g a a a a a s f f k k j z z k k k k l l B B B B B C C K K K C K K K Y Y Y K K K L I Y Y Y I I Y Y Y I I _ _ _ _ _ }  . . .&.;.h.h.h.=.6.r.8.e.g.d.k.k.k.l.g.g.a.p.i.n.V.L.L.L.L.L.L.H.H.R.Q.N.N.N.k.k.L.L.K.S.G.F.G.I.I.I.I.I.I.K.H.L.L.N.j.l.l.l.l.k.k.k.a.r.8.8.6.;.;.;.;.O.X.[ [ ",
"| ..} [ z.9XzXiX$.] o.;.;.%.&.&.&.%.%.*.=.6.6.8.q.h.e.e.e.a.l.V.V.V.V.k.L.K.}.}.{.}.}.}.+X+X&X&X&X=X=X-X=X-X3X3X3X5X5XwXwXwXwX5X5X5XwXwXwXwXwXwX3X-X-X&X+X+XoX{.{.}.+XoX}.Q.H.L.L.L.V.l.g.g.g.h.h.w.w.w.6.=.;.;.%.&. .{ } } } } } } } } } ) ) ^ ^ _ ^ I I I I P L I I U L C C C Z C C C C B B C | T C m l l l l B L U L B B D U G m k j j j j j z Z V P P M m n k s s a a a a a a a a i a i i i i i i i i i i i u u u i i i i i i r i i a s g f f a a s z H Z Z V V B m B Z G G m s s y y s k Z Z Z B l k j j j j j k k k k l l m B B B V V C C C C L L L L L L P P I I P L ^ } } ) ^ ^ ^ ^ ) _ ) )  .&.;.>.;.*.%.*.;.-.y.v.V.V.q.w.6.w.*.9.x.G.L.k.e.8.8.h.h.p.d.n.n.n.d.d.g.g.l.d.n.n.V.V.n.n.k.k.k.j.l.l.l.g.l.g.g.g.l.g.p.y.6.q.e.h.h.q.6.#.w.=.w.g.&.;.&.%.%.%.O.X.O.;.%.O.%.;.;.o.[ ] ] ] } } } } } } ) / / / ^ Y Y ^ ) } ) ) / / ^ ( ^ ^ ~ P I ~ I I I I I I I I I ^ ^ ^ ^ ^ ) ) ] ) ) ) ) _ _ / / ]  . .} ] } } [ [ %.;.>.o.] ] [ { &.&.;.;.>.&.&.&.&.&.&.&.&.&.;.;.h.w.q.r.r.e.e.a.l.l.l.l.V.B.B.V.V.V.B.B.N.j.k.a.d.d.g.g.l.g.g.g.e.e.h.q.6.7.8.8.6.6.7.h.w.*.%.%.O.O.O.+.+.+.o.o.o.X.X.O.X./ ] } } } } ] ) ] ) ) ^ ^ Y Y Y Y I P L L L I P L L L L D D L L K K K L D D G G G k s k S F S V m m l m m B L L B B C C B B l l l N l l l l l k l N N k f f f f f f g g g g i r r r y y a a a a s n G S k a y s s s s s s g g f f s f N k k s s s f s g g g g a a s a f g f f f k k n m M N Z Z Z m l l l l m B B B B C K K K K K K K K K Y Y Y Y I I ^ _ _ _ _ ) ) _ _ _ _ _ } } } } } }  . .&.&.;.h.h.h.e.a.Q.c.M.H.~.[.G.L.L.L.L.H.Q.~.&XoX[.~.}.|.|.|.}.&X8XtX&XY.P._.I.I.I.`.|.+XwXwX+X|.|.`.`.`.`.`.K.K.C.L.V.V.l.l.k.k.l.a.e.q.8.6.w.w.w.9.O.' [ :.",
"} ....' :.(.fX1X$.[ %.;.;.*.>.&.&.*.;.;.6.6.8.8.r.e.p.a.a.k.V.B.L.L.L.L.G.`.}.}.+X+X+X+X&X&X-X3X3X3X5X5X5X5XeXeXeXeXtXtXtXtXtXyXeXeXeXeXeXeXeXeXeXwX5X3X-X=X&X+X+X+X+X+X}._.`.H.L.L.L.V.l.g.g.g.g.q.w.w.6.6.6.;.;.&. .{ } } } ] ] } } } } } ) ) ^ ^ ^ ^ I I I I P L I U U L C C C C C C C C B B U U D B l l l l B L U D B B C U C B k j j j j j l G V S S m m m k s s a y y a a a a a y i i i a a i i i i i i u u i i i r r i i y y a a a a s f f f s y s m Z Z V V B B B Z G V m s y y y s N Z Z B m l k k j k k k k k l l m l m B B B B B C C C C C C C C C C D L P I I P ^ ) ) ) ^ ^ ^ ^ ) ) } ) } &.;.;.;.;.;.;.y.y.y.v.V.V.q.0.9.-.;.w.v.D.M.k.r.7.8.8.q.p.n.N.n.V.l.l.l.l.l.n.m.m.M.V.B.M.N.N.N.l.l.l.l.l.l.k.n.n.H.B.c.s.5.q.p.g.h.h.q.6.=.w.w.w.*.;.&.;.%.%.o.X.o.%.O.O.%.;.;.o.{ { ] ] [ } o.{ } } ) / / / ^ Y Y ^ ] ` ) ) / ) ) / / ^ P P I I I I I I I I I ^ ^ ^ ) ^ ^ ) ] } { { { } } } } ] ] } { { { { { { { o.%.%.:.O.[ [ o.o.%.*.;.;.;.&.&.&.&.&.&.&.%.;.;.w.w.w.a.d.d.d.j.n.N.V.V.V.D.D.D.R.J.Y.Y.Z.G.N.N.k.j.x.x.x.M.S.S.m.m.x.a.p.i.t.i.f.5.5.c.x.y.=.*.*.@.@.@.#.@.@.@.-.*.#.0.c.b.$.[ { { { } ] ] ] ] ] ) ^ ^ ^ _ _ ^ I I I I ^ ^ ^ ^ ^ _ ^ E F D L K K L L P U U U m k V F S S M M m x B B B L L B V C B B B m m m N l l l l l m m Z N N n n n n n z z z z y a a y y y y a s s s f k S G k s s s s s s f f f f f f k k N m n k s s f f f s s s s s s f j k f k k k m m M B Z Z G Z B m m m l m V C B B C K U I I I K K K K Y Y Y Y _ } ....} } } } } {  .} _ }  . .} } } }  .&.&.;.;.w.h.h.r.H.uXeX+X&XtXfX:X|.`.`.`.+XwXfXtXtXsXsXuX:X+X+X&XwXkXNXzX!.!.wX:X}.|.|.+XwXzXzXuX:X+X+X}.}.|.`.`.`.K.K.M.V.l.l.k.k.k.a.e.q.8.6.w.w.9.9.>.o.+.b.",
"o.o.2.| } b.oX^.X.o.%.;.;.;.;.;.*.;.;.w.8.8.e.e.e.a.k.k.k.N.L.H.K.K.K.K.`.|..X&X&X-X-X-X2X5X5XeX8X8XtXtXtXtXsXgXgXgXgXgXdXdXgXgXfXfXdXdXdXdXsXsXsXrXrXeX5X3X-X-X&X+X&X+X+X}.`.I.K.L.L.L.V.l.g.g.g.g.g.q.8.7.6.6.;.;.&.o.{ { } } } } ] } } } } } ) ^ ^ ^ ^ ^ I I P L P P L L L L C C C C C C B B V C C V l l l l B U U C C C C L C B l j j j z j l C P V V V V m k s s s s s s s s s s a a a a a a a a a a a a i a i a a a a a a a a a a s s s j j k s y y s m B V V B B B Z C C m j s y y s N Z Z B m m l l l l l l l m B Z B B B B C C C C C C C C C C C C C C C L I I I I ^ ) ) ^ ^ ^ ^ ^ ) } { &.&.%.O.;.y.-.@.#.-.0.s.d.V.V.p.g.s.:.;.;.y.V.f.f.r.7.8.q.v.B.l.k.l.l.g.g.g.V.V.V.n.S.D.S.B.V.l.l.l.l.l.l.V.V.M.G.G.Y.~.[.^.Y.t.q.q.q.p.e.q.6.#.g.9.*.;.;.;.;.*.%.O.O.O.%.O.*.*.;.;.%.o.{ { { { { { { >.{ ] [ $.' ) I ^ ^ } ` / ) ) ) ) ) ^ ~ ^ ^ ^ ^ ^ ^ ^ _ _ _ _ ) ) ) ) ) ) ] } {  . . . .} } } } } { { { { { o.&.%.O.%.%.%.O.o.;.*.*.*.;.o.;.;.*.h.;.;.;.%.%.;.w.h.g.V.B.A.z.P.Y.z.P.Y.P.K.H.H.Y.^.$X0XiXsXeX-X{.Y.W.^.oX=X#X(.!.#X$X=XoXN.k.i.z.P.!.(.$X$X^.A.i.8.8.r.r.e.0.q.g.e.e.r.e.V.}.}./.$.>.[ o.&.+.+.+.+.+.[ [ ] } } ) ) ) ) ) ) ) ) ] ] / &.:.u.' ~ U R R T U U U U P P D D F E U.F S V C K U C L ^ _ L l B C Z Z B B x l l l l l m m N H N m m m C G l k k y s s s s s s s s k f n m k ,.| k k z z l s k z s m N m m m m Z Z m k k k k k Z Z k l l l l z k l k m m k m m m m C U | U C B B B B C P C C C C K L Y K I _ ....Y _ _ } } ) } >.:.u.:.+.o.{ {  . . . . . . . .&.&.&.&.;.;.w.8.h.g.7.+XNXNXtXzXNXvX2X.X|.|.{.-XdXzXhXjXkXmXzXsXwX:XwXgXZXHXjX@X).uXuX-X+X+XuXfXAXAXfXwX-X&X+X+X{.|.]._.`.`.H.L.N.k.k.k.k.l.e.r.8.8.w.=.9.g.h.&.X.D.",
"%.o.2.| } [ 5.f.X.%.*.;.;.;.;.;.;.;.w.8.q.r.a.a.k.j.N.N.L.G.K.`.`.|.|._.|.{.OX-XwXwXwXeXtXtXdXdXdXdXfXfXfXjXjXjXjXjXkXkXkXkXkXkXkXkXkXjXjXjXjXjXjXxXgXaXtXeX5X3X-X-X-X-X+X}.}.`.I.H.L.L.L.V.l.g.g.g.g.g.e.r.8.8.;.;.*.%.o.o.{ { { [ ] } } { { { } ) ^ ^ ^ ^ ^ ^ I P P L L L L L C C C C C C B B C D D D L C B l l B L L C C C D D C m k l l l l l B B C C C C V m k k j j j j j j j j s s s f f f s s s s s a a s s s s s s s s j j j j j k z z z k k s s s j m B B B B B B C V m k s y y s N Z Z B B B B x x x B B B V C C C B C C C C C C L L L L L L L L L L I I _ _ _ _ ^ ) ) ) ^ ^ ^ ) } { &.%.%.%.*.@.-.w.=.9.0.t.d.n.V.B.d.5.z.z.5.0.g.V.m.n.p.r.r.s.P.P.k.L.L.V.n.m.D.z.z.P.D.c.P.P.Z.H.L.L.L.H.H.C.A.P.'. X%X-XwXtXeX&Xn.g.g.g.l.l.g.r.p.0.V.u.;.;.;.;.;.;.*.@.*.*.@.@.*.*.*.%.%.%.%.%.%.%.&.&.&.&.&.{ $.' } } ) ^ / ' ] ) ) ] } } ) ) ) ) ) ) } } } } } } ] ) ) ) ) ) ] } {  .&.&.&.&.&. .} } {  .{ { { &.&.%.*.*.*.*.*.;.w.w.;.=.=.;.O.O.h.v.h.h.w.;.;.;.8.g.V.B.H.W.-XyXzXtX6XfXzX3X}.}.}.&XtXkXZXHXMXzXuX*X X.X$X6XsXdXfXfXzXzXjXeX`.`.}.&XtXjXmXMXmXfX!.K.a.e.r.a.l.r.r.l.l.l.l.j.Q.+X&X^.| &.%.%.%.&.@.&.@.+.X.X.o.>.&.{ } } } } } [ [ [ ] ] >.1././.E L T R T T T I U I P L P F $.:.E M D U U K U U ) } ) D m C Z Z B B B x l l l l l m m Z Z m V L D L B l j j j j j j j j j j k k ( S k 2.P s n k l l m T H M m B m B Z Z T T m l k k k k ( T m l l l l l l l Z T U V B B B B C ( 2.| L C C C D P ) P C C C K _  .^ ) >.>...}  .} ) ) { 1.b.:.v.s.9.O.&.&.&.&.&.&.&.&.&.&.&.%.%.*.;.w.8.h.e.l.i.oXAXHXjXNXHXHXgXwX:X-XwXtXzXNXmXMXZXZXCXkXuXuXgXzXHXGXNXcXcXzXfXeXwXwXtXzXHXHXNXfXuXwX-X%X+X.X{.|.|._.`.K.L.N.k.l.k.a.a.r.8.8.w.*.w.D.:.o.+.:.",
"%.o.} } &.] X.+.O.*.;.w.w.w.;.;.h.q.q.e.e.a.l.l.L.L.H.K.K.`.|.}.+X+X+X.X{..X-XwXtXfXfXfXjXkXkXkXkXvXmXmXmXmXmXmXmXmXmXMXmXmXmXmXmXmXmXmXvXvXmXmXmXkXlXxXxXaXtXeXwXwXwX-X&X+X}.`.`.I.K.L.L.B.L.V.l.g.g.g.g.p.e.q.8.;.;.;.*.;.%.%.%.o.[ [ { {  . .{ } ) ) ^ ^ ^ ^ ^ I P P L L L D C L I I ^ ~ P L L L L L L C C C C C D L L D D C C D B l l B B B x B L I L L D C Z B m l l k k k k k k l m m m n k f f f k k k k k k n k z z z z l l l l k l l l l k k k k k j k m B B B B B V V V l j j s j m B B B B B B B B B B C C C U U K C K L L K C L L I ^ ^ ^ ^ _ _ _ _ ^ _ _ _ _ _ ) ) } } ) ) ) }  .&.%.&.%.%.O.-.0.-.0.y.s.g.V.V.L.K.K.XXdXjX*X].J.Q.K.H.V.V.N.oXtXeX`.H.G.W.oX).$XtXzX3Xz.wXzXzXwX+X`.`.}.oX&X5XsXzXNXmXfXaXjXzXfXwXF.L.L.L.L.L.L.N.n.f.f.i.8.w.w.u.y.y.;.=.=.*.#.#.*.;.;.*.*.*.;.;.;.>.>.>.%.&.&.>.b.' ..} / ] /.' [ } } { }  .&.&.&.&.&.&.&. . .{ } } [ ] } ] ) ) ] } } } { { { } }  .&.&.&.&. . .&.&.%.;.;.;.;.;.6.g.V.g.w.w.w.w.=.@.D.K.g.h.8.8.e.g.V.B.Q.`.}.%XfXNXNXcXlXAXAXaXwX:X5XyXmXZXFXLXHXAXfX2X;X&X6X0XjXmXNXAXmXkXlXaX&X+X-X1XzXNXHXHXAXzX'.`.L.l.L.L.V.k.k.L.L.L.V.B._.&XeX6X1.} ;.;.;.-.-.-.-.*.O.@.u.v.+.>.&.%.&.&.&.o.o.o.] [ &.U.iX,XG L Y Y T T U U I I I I U ~ b.:.E E U U K K U U ) { } ..m l Z Z Z B B B B l l l m m m B Z B D ..U L C B x l l l l l l k k k m k 1.| m 1.1.m m n m m B ,.T Z B B B B C C U U m l k k k j 2.2.l l l l l l l l C T T C B B B B C U 2.| I P P L I _ >...C C K L } &.] o.b.b.1.&. . .) ^ F 1./.}.}.`.V.=.*.;.*.*.*.;.;.%.;.;.*.;.;.;.h.h.h.g.l.l.i.^.AXAXNXzXNXAXzXgXuXtXsXfXzXmXmXNXHXFXDXCXjXxXjXvXMXMXNXjXcXzXzXfXtXtXsXkXCXZXNXzXfXuXeXwX-X&X+X.X{.}.`.`.K.L.L.l.l.l.a.e.8.8.6.*.;.v.Q.:.o.o.",
"&.&.{ o.o.[ *.;.*.*.;.8.w.8.w.w.q.y.e.a.a.a.l.L.L.K.`.`.|.}.}.+X&X-X-X-XOX;X2XtXjXzXmXmXmXMXMXMXMXMXMXMXCXCXCXCXCXCXCXCXCXCXCXCXCXCXCXCXCXMXMXMXMXMXmXvXkXjXfXsXyXwXwXwX-X&X+X|.|.`.`.K.K.K.H.L.V.V.l.l.g.d.a.e.8.8.w.;.;.;.;.;.;.*.O.O.o.o. . . . .{ ) ) ) ^ ^ ^ ^ I P L L L L P I _ } } } ) ^ I P P I ^ ) ..2.2.( D L C C C C C C C B B Z Z Z B C 1.^ L L L L L C C B m m m l l l l B C C M n n n n l k k k m m m M M N N N m B B B m m m m m m l k l m m m m m m B B B B V V V m l z z z m m m m B Z B C C C C C C K U U U L L L U L L D I ) } } } }  ...} ) ) ) ) ) ) ) ) }  . .} ] } { &.&.&.&.@.#.z.^.}.c.x.V.V.V.V.B.H.E.'.sXAXnXfXwX+X].}.`.K.K.].uXNXzXP._.&XwXtXcXkXmXNX@X>XuXNXSXrX-X+X+X&X1XqXiXkXbXHXZXMXmXNXAXNXuX'.`.I.I.`.`.`.H.L.f.+X+Xt.q.t.i.s.s.y.w.;.=.9.#.=.=.;.;.;.;.w.w.h.h.:.:.;.[ o.b.6XA >.] [ [ b.W [ { { {  .&.>.:.>.>.>.;.%.&.o.{ { { { { { ] ] ) ) ] ] ) ) / / / ] } { &.&.&.&. .&.%.;.;.;.;.w.8.h.D.K.B.w.8.w.q.q.i.}.K.x.d.r.7.l.V.D.Q.}.+X+XwXmXCXZXSXHXGXPXSXtXeXsXxXAXGXGXLXJXHXzXyX*X3X8XtXzXNXNXCXCXCXNXzXwXwXuXgXNXAXHXHXHXkX2X{.I.I.I.I.L.N.N.L.L.L.L.H.J.oXwXeX(.} O.w.-.-.;.-.-.-.@.O.v.^.v.O.>.>.>.%.&.&.&.&.[ ` { (.mXiXv U Y Y U U U U U ( ( ( ( ( b.(.1.S D C K K Z G ^ ) { 1.D l B K K Z Z B B B m m m m l B Z B U 1.U L K C x x m l l N l m m m B k U...S | 1.( n n n n k 2.T Z B B B B B B C C m k j s f a 1.1.m l l l l l l l B U U C B B B B B C | _ U I I I _ ..1.1.C C K D } o.` o./.D.v.>.&. .) ^ ~ ` +.:.K.`.L.@.;.;.;.;.;.*.;.;.;.;.;.;.;.h.h.h.g.l.l.l.g./.mXNXNXxXaXgXfXaXiXiXdXgXgXxXxXlXbXVXHXCXmXxXlXlXhXjXzXaXcXfXzXzXgXdXfXjXbXCXNXzXgXrXrXeXwXwX-X&X+X{.}.`.`.K.L.N.V.l.l.g.e.q.=.w.;.o.h.u.o.{ ",
"&.&.o.X.o.o.o.o.;.;.;.8.8.q.q.q.e.g.g.l.l.k.l.L.I.`.`.}.}.+X&X-XwXwXwXwX-X;X4XfXzXNXCXCXCXCXCXCXZXZXZXZXZXZXZXZXZXZXZXZXZXZXZXZXZXZXZXZXCXCXCXCXCXCXCXMXMXmXmXkXfXfXtXyXwXwX-X+X.X{.}.}.}.`.Q.K.H.B.V.n.f.L.K.l.e.8.h.h.h.h.w.w.w.6.=.*.*.%.%.&.&.&.&.{ ) ) ) ) ) ^ ^ I I I I I ^ ^ } >.>.o.] ^ ^ / ] o.h.v.g.v.1.U D V C C C Z C C C Z B C C C B L 1._ I U U U U U F C V B m m B B B B 2.( S M m N N N M m k C T B B m m Z Z B Z Z Z V B B B B m m m m M Z B B B V B m B B U V M m N N N l m m m B B V C C L L L K K K L U L L L L L L L D ) >.>.%.;.&. . ...} } } ] } }  .} &.>.>.&. .&.&.>.>.>.*.5.P.!.fXeXz.`.K.L.k.N.K.`.|.5XkXZXZXjXtX*X{.+X{.|.'.-XfXHXMX X-XzXNXaXcXNXCXHXcX).zXHXZXxX7XwXwX0XiXdXvXZXGXJXJXHXAXAXAXmXzX-X+X|.|.{.[.].E.K.P.fXdX/.v.s.v.v.v.y.h.w.-.s.^.-.=.;.;.;.w.h.v.g.q.w.h.h.-.X.oX8X| &.&.o.u.^.z.+.o.o.&.>.v.D./.>.&.-.g.h.@.O.O.o.o.o.o.{ } ] ] ] ] ) ) / ^ ^ ^ ) ] { &.>.>.&. .{ &.&.*.;.h.h.h.v.}.&X}.g.8.7.g.7.a.^.3XoXZ.k.L.V.D.Q.Q.}.+X-XtXMXZXHXGXGXGXLXHXNXzXmXNXCXZXGXGXGXAXNXzXtXeXeXyXgXzXAXHXHXAXNXmXfXfXfXfXzXNXHXJXFXCXtX'.G.L.L.L.L.N.j.a.a.p.p.p.h.y.x.Q.v.' o.h.@.#.=.;.#.#.X./ / /.:.X.o.>.>.&.[ } ] ] ] ^ / ' sXsX<.U U U I I D D D C C C C C V ,.2.Z Z Z B m z l m m S U.D y x K R Z Z Z Z m m m m m m m B V ( 1.U x K K K B B m k j l m B Z j k U.U.M M C C k k k k n 1.| l l C Z B Z B x j j j j s g u <.U.M k B ,.G l l x B T U K C B B B B B C L L U I Y _  .:.b.L C K C } } { :.v.h.h.b.>.>. .I I ) >.:.-.g.V.w.;.>.;.;.;.;.;.;.>.;.;.;.;.h.h.h.g.l.l.g.q.i.!.dXdXrX2X*X;X4X0XaXfXfXxXxXxXlXvXvXvXvXkXkXkXjXjXfXgX7XqXrXzXzXfXfXhXhXvXkXjXzXzXzXfXsXrXrXwXwX-X&X+X{.|.`.`.E.G.C.V.V.g.h.h.8.w.;.*.%.&. .",
"&.&.o.o.o.O.&.O.;.;.;.8.q.8.r.r.p.a.a.l.l.k.L.K.`.`.}.}.+XOX-XwXwXwXeXwXwX2XeXfXmXCXCXZXZXZXZXZXZXZXZXZXZXZXZXZXDXDXDXDXZXZXZXZXZXZXZXZXZXZXZXZXAXAXAXCXCXCXCXNXmXzXzXfXsXyXwXwX-X-X&X+XoX}.}.Q.Q.K.M.M.N.K.`.V.e.h.h.h.l.l.g.g.e.q.7.6.6.;.*.%.&.&.>. .{ { { } ) ^ ^ I ^ ^ ( ^ ^ ^  .>.1.1.&.~ / >.h.*.h.g.e.g.[ P U D C Z Z Z C C C C V C C C B _ U...L U I U U U U L C V B m B B B B 1...S M m N N B B B m | 2.D B l B B B Z V Z V V Z V V V V C Z m m B B V C C Z B Z Z | D V V B Z Z B B B B V C C C C L L L L K K L U L L L L L L U P ..b.v.:.h.h.) _ } >.} ] } { &.>.&.>.>.>.%.&.;.>.>.>.>.=.i.P.1XfXtX!.+X`.I.L.j.K.|..XsXvXHXGXAXzXuX:X:X-X+XOXwXzXHXAXrXfXAXAXkXxXNXAXHXkX*XfXZXDXzXgXuXsXgXjXvXBXZXGXJXJXHXZXMXmXjXsXwX:X+X+X:X-X&X}.E.P.NXhXz.b.v.v.v.s.y.y.w.#.U.$X5.-.;.w.w.6.p.K.p.w.6.e.V.#.$.(.sX<.[ } ` ' ^.^.$.+.{ { +.u.}.b.$.&.@.w.l.g.-.O.o.&.&.&.{ } ] ] ] ] ) ) ) ) ) ) ) } {  .>.>.&.{ ] { X.o.o.*.8.g.c.^.+X}.5.h.e.e.q.s.Z.(.=XQ.N.L.L.G.Q.W.`.|.+X1XiXhXvXCXCXCXZXBXmXzXlXmXMXCXCXCXBXbXvXhXaXrXuXuXuXgXlXnXMXvXaX0XrXyXwXwX1X4XdXkXAXAX5XT.H.L.L.L.L.N.j.a.p.p.p.h.w.w.8.g.v.X.O.g.9.6.=.;.#.@.X.` ~ 1.b.] ` o.&.{ ] ) ) ) / I ~ W eX8X,.U U I ^ ^ D D D C C C C V B l l Z Z m l z z j k k M U.U s B K T K Z Z B l l m m m M B Z V ( b.T x C Y U K B m k s z l B G Z l 2.1.A N m k g s f f v 1.| k j K K B B m k j s s s a u 9 <.(.M k B | Z l j l l T T B B B B B x x x x B C U I ^ ) %.b.P C C C L ( } 1.b.>.&.&.;.&.} I I _ ..&.&.&.;.;.>.>.;.;.;.*.;.;.>.;.;.;.;.w.h.h.g.V.V.g.g.a.Y.$X4X4X&X+X-X2XrXdXkXkXzXjXkXnXmXmXmXmXmXmXmXzXzXzXgXrX7XaXzXzXfXxXkXkXvXvXmXmXmXmXmXzXkXxXaXyXwXwX-X+X{.|.|._.`.K.H.L.V.l.e.h.8.w.;.*.&.&.",
"%.O.O.O.%.%.%.%.;.;.w.w.q.q.r.r.p.a.d.j.j.k.L.K.`.`.}.{.+X&X-XwXwXeXeXeXwXwXrXzXMXCXZXZXZXZXZXDXDXDXDXDXDXDXDXDXDXDXDXDXDXDXDXHXDXDXHXDXZXZXZXAXZXZXZXAXHXZXAXCXNXNXmXzXzXfXsXtXeXwXwXwX=XoX}.^.^.Q.R.Z.Z.}.}.D.g.g.g.g.V.l.l.l.L.L.V.l.e.w.;.*.%.&.>.&. . . . .} ^ ^ ^ _ _ _ ^ ^ ^ ) ..>.1.1.{ :.v.v.#.V.Q.S.D./.( P T V Z Z Z Z Z Z Z Z Z Z Z m B U.1.L L L L D D P G C V m m m B B B 1.1.2.A n n m l B m m | 1.U V m B B B Z V C C C C C D C C F F V m V V C D G Z Z Z Z | L C C C Z Z Z C V V C C C C D L L L L C C L L L L L L L L U I >.b.v.;.h.:.&.^ ~ } } } { { &.>.&.>.h.h.;.*.%.;.;.;.=.6.k._.sXzXzXtX&X}.I.I.f.H.}.OXeXjXNXNXNXzXuXwXwXwX-X-XwXdXbXAXzXzXAXAXzXjXkXMXmXdX!.).kXvXzXfXgXsXfXjXkXbXCXZXZXZXBXbXNXzXzXtXwX:X+X+X-X-X+X}.|.T.NXmX/.u.v.s.y.h.q.w.-.$.(.8X5.9.;.;.6.#.6.V.y.=.=.w.v.#.+.U.zX0XE o.&.{ ' :.[ { &.>.[ b.:XP.$.{ X.@.X.-.-.%.o. . . . . .} ] ] ] ] ) ) ) ) ) ) ] } }  .>.&.} [ [ [ { &.*.6.7.i.M.`.W.P.^.6.g.h.s.c.A.P.c.n.L.N.L.K.Q.G.E.]..X X@X@X@XyXrXaXaXrXrXaXgXjXmXmXbXbXbXvXlXxXaXaXrXrXrXrX0X0X4X8X6X=X+X+X+X_.T.P.P. XuX.XC.H.D.D.D.L.N.j.a.p.p.p.e.8.8.8.h.g.O.+.D.c.i.9.;.O.O.+.} ~ } U.{ / ] } } ) ^ ^ ^ I L P W 5X$X( C ( ^ _ _ D D D C C V V B B Z H m k z z j z s f f n (.,.k C T T K Z B l k k k k z z N N m S U.U j | 1._ L B m k s j l A ,.| M E 2.v f s g s a a a d 1.W f j K U x x l d p p d d s f p :./.n s k T Z k s k j T Z m B B B B l l z c l B K I ^ ^ { &._ C C B B D I 2.>.} ^ I &.&.) L Y _ } ] } } ] &.&.>.h.w.*.*.;.;.;.;.;.;.w.8.h.e.l.B.H.V.l.l.J.].XXXX&X+X:XwXuXjXmXMXMXMXCXCXZXZXZXZXZXCXCXNXmXzXzXaXaXfXzXzXjXlXmXMXCXCXCXCXAXAXAXCXCXMXjXsXtXeXwX:X&X+X|.|.`.I.H.L.L.V.a.e.r.8.w.;.;.&.",
"%.%.%.%.%.%.%.%.;.;.w.w.8.q.r.e.a.d.d.n.N.N.L.E.`.|.{.+X%X-X3XwXeXeXtXsXuXyXfXmXCXZXZXDXDXDXDXDXDXDXHXFXFXFXFXFXFXFXFXFXFXFXHXHXFXHXHXHXDXHXHXHXHXHXHXHXHXHXHXZXZXCXMXmXmXkXjXfXdXsXtXtX3XoXoX}.}.^.Q.R.T.oX+XQ.l.l.l.l.l.l.l.k.l.L.L.V.g.h.w.;.;.;.>.&. . .&...} ) ^ ^ _ _ _ _ ( P P ^ ^ / ] ] v.D.V.-.D.^.Q.^.(.| P C V B B B B B Z V Z Z Z C C V ( ( L K D C V C C C Z B m m m B B B | 1.U.S v f k k m k k | 2.D B Z Z Z Z B V V C C C C D C C P ( V B V V C U U Z B B Z U C C D D G D C C C V C D C C C L L L L C C L U L L L L L L L P ..:.:.%.*.O.` S F ] } } } { &.;.&.;.;.;.;.*.*.;.;.w.6.r.L.|.wXtXuXwX+X|.I.L.i.H.}.-X4XrX0X0X0X7XwXwXwXwX-X*XeX7XiXhXfXxXnXAXfXdX0XhX0XqXT.!.8XiXaXaXaXaXgXxXlXnXnXnXbXbXnXlXdXtX8X3X%X+X|.|.[.[.].K.I.P.qXmX&X0.s.p.h.q.w.9.-.$.(.dXz.5.=.;.=.=.#.#.u.@.@.w.9.:.$.! hXiXW { {  .{ &.&.&.....[ /.uXY.$.) ` [ +.-.:.:.&. . . . . .} ) ) ) ) ) } ) } ) ] } } } } ....} } } [ [ { %.8.g.r.a.L.E.wX^.v.h.h.g.v.x.B.B.M.N.k.L.K.K.I.I.|.{.{..XOX-X-X2X4X4XsXfXfXjXjXkXvXbXCXBXbXnXlXxXxXfXzXfXaXrXtX8X6X$X+X}.|.`.I.I.I._. XuX{.P.H.D.D.D.L.N.j.a.a.p.p.e.6.e.h.w.g.*.+.Q.Q.A.u.;.O.O.&.} ) ) >...} ) ) ^ ^ I I P U D D W -X(.E C / / _ _ D D D C C V Z Z l l l k k j j j j z f f f (.2.m C I T L Z B k s s s s s s s s f v U.B r U.^.&.L B m k s j k G ,.3.A F ( a i r r y y r i d 2.H a a L Y x l j i u p p f s Z f $.b.v y s H N s a s j T M f n m B B l z c c j l B S I ^ ) } ^ C C B B C C _ _ L C L &.o.) L Y _ ) ^ Y _ }  . .>.v.u.@.*.*.;.;.;.6.6.6.7.e.p.V.K.K.B.e.l.K.`.'..X&X&X:XuXfXzXCXZXAXDXDXFXFXFXFXFXFXDXZXCXNXNXmXxXaXzXzXkXkXlXAXZXZXDXDXDXFXFXFXDXDXZXNXzXfXsXeXwXwX:X+X|.`.I.I.I.K.H.k.k.a.r.8.w.;.&.",
"O.O.%.%.%.%.*.*.;.;.w.w.w.q.p.a.d.n.n.M.C.L.G.`.}.}.+X+X-X3XwXeXyXsXgXfXfXjXmXCXDXDXDXFXGXGXGXGXGXGXGXGXLXLXLXLXLXLXLXLXGXGXLXLXGXGXGXGXFXFXFXFXFXGXGXGXGXFXHXHXDXZXCXCXmXmXvXkXjXfXsXtX5X#XoXoX}.[.].~.].^.[.}.L.l.l.l.g.a.e.i.j.L.K.L.g.y.w.;.%.&.>. .{  .......) ^ ) _ _ _ _ ( P D D I D D ` :.v.v.:.+.] ~ D M M D G M M M B B B B B B V Z V C B S C Z Z C V V V B m m m m l m Z Z B L 1.,Xd f f f f k k k | 2.C B Z H Z B m B V Z C V C C C C U 2.V B B V C U U Z m l l Z V C B I U L D C B B C D L L L L K K K L L L U L L L L L L D I } >.>.%.O.o.~ M D / } } ] { { &.&.%.*.*.*.*.*.;.h.h.q.k.L.I.`.F.G._..XoXI.N.k.G..XwXtXaXgXaXrXrXeXeXyXeXwXwXeXeXtXsXrXuXuXyXwX5X8X8XsX1X!.~.9XdXhXjXxXxXxXxXlXlXnXnXmXbXvXhXfXtXeX3X+X{.|.|.].}.}.`.L.P.@XdXQ.V.g.e.e.q.w.w.-.$.(.jXU.$.#.;.*.=.=.w.-.*.O.X.-.:.$.W mXiXW >.} } } } ] } ) } $.$XoXz.' ^ ^ ~ { &.-.:.>.{  . ._ _ ) ) ) ) ) ) ) ) ) ) ) ) ) ) ) } } ) ] } $.[ } %.h.g.r.7.7.M.uX^.x.g.g.p.g.g.l.l.N.N.k.L.K.`.I.`.}.+X+X+X+X&X-X3XwXtXfXjXvXvXbXBXBXZXZXZXZXCXCXnXnXnXnXvXkXjXdX9X8X6X+X|.`.I.I.I.I.|.;XuX&XW.K.H.L.L.L.V.j.j.a.a.e.e.r.r.#.h.D.y.5.D.:XQ.u.:.o.o.&. .} ^ ) ..} ) ^ ^ I L G G m V D $.&X^.E C 1.>.~ _ D D I B l l l l l l l k k k j f y z y f a (.,.n F ..( D V B k k f n r r y y a a n 2.H p 9X$Xb.L B l k s j f m | 9X<.v D f i t t r r r r f 2.N 8 M 2.U V k s i r a s j x Z C o.>.n i r a a a i a m T M d H W G Z l c c j j j n M 2.2.) ) ( S C C Z K K I Y I C m +.;.] L Y Y _ _ Y Y _ _ _ o.z.&XD.X.*.;.;.w.8.r.e.g.l.V.Q.}.}.Q.n.V.L.I.|..X&X-XwXuXzXMXHXGXGXJXKXKXKXKXKXJXLXLXFXHXZXCXMXNXmXmXmXmXMXAXHXFXGXLXLXLXLXJXJXKXKXGXZXMXmXjXfXtXeXwX-X&X|.`.I.I.G.+XK.L.k.k.r.8.w.;.",
"%.O.%.%.%.*.*.;.;.;.w.w.q.e.a.g.n.M.M.H.G.G.E.|.}.+X+X-XwXeXyXuXsXfXjXjXjXkXCXZXFXGXGXGXLXLXLXLXLXLXLXJXJXJXJXJXLXLXLXLXJXJXJXJXLXLXJXJXGXGXLXLXGXGXGXGXGXGXGXFXDXDXAXCXMXmXvXvXkXjXfXtX5XXXoXoXoX}.[.[.].].~.Q.L.V.l.d.a.d.k.k.l.L.K.L.g.w.;.;.%.&.&.{ } }  ....._ ^ ^ ^ ^ _ _ ^ I L D D ~ ..{ @.u.u.>.} _ Y L V S D D m m m m m m B B B B B B B B C Z Z Z x V D C m l l k k k m Z Z x V 1.6XS d d a s a f n 1.| V m Z Z Z m m m m V Z V V B C C ( 1.V B B B C U U Z k j l B B V C _ I L D V B B C L L I ^ I C C C C C K K L L L L L L D I ) { &.;.@.+./ V D _ } ] ] ] {  .&.%.%.%.%.%.%.;.;.h.e.a.l.L.I.L.L.`.+X+X|.G.k.F.+XwXsXgXgXgXgXgXaXaXrXuXyXeXeXeXeXeXwXwXwX2X-X3XeXtXdX6X~.'.sXhXkXvXkXkXmXmXmXmXbXMXCXMXbXkXfXtXeX3X+X}.`.`._.^.Q.I.L.P.@XsXQ.V.g.e.e.q.8.w.9.$.).jX/.$.#.;.;.;.=.-.;.&.o.X.+.>.$.W mXhX! / ) ) / / ^ ^ ) ~ b.^.wX$.' ^ Y I } &.:.b.u.' } ..Y _ _ ^ ^ ^ ^ ^ ^ ^ ^ ^ ^ ^ ^ ^ ^ ^ ) ^ ^ / $.X.{ %.h.h.q.6.6.i.oXwXD.6.h.g.h.g.l.l.j.k.N.H.Q.`.`.`.{.+X+X+X+X+X-X-XwXtXkXbXBXBXVXZXDXFXFXFXDXDXZXVXZXZXVXBXCXvXjXsXtX5XOX|.`.I.I.I.|.{.*XzXwX'.`.`.I.I.L.L.V.l.g.g.g.e.r.r.7.l.D.t.$.D.uX!.:.&.{ &.&...} ) ^ } } ) / ^ ^ P G Z V D ~ :.}.Q.E F ^.+.( ^ ^ I ^ B l l l l l l k k k k k f a s a a M U.| n | 1...F V Z m M M f a r r a a a f U.H 3.jX0X1.L B l k j j k n A dXqXn C f i r r r r r r v 2.A e | U.| G k s a r y j j l ,.W >...n a r a i i a a k T N v Q U.| x x l j j j k m G U.qXU.| E S C Z K K K Y Y I K V +.v.b.^ Y _ _ Y Y Y _ _ } ' ).tX$X:.;.;.;.8.r.r.a.k.l.B.`.}.oX}.B.L.I.`.}.+X-XwXuXfXmXAXGXJXJXJXKXKXKXKXKXKXLXJXLXGXDXZXZXCXCXMXMXCXZXHXGXJXJXJXKXKXKXKXKXKXKXJXGXHXCXmXkXjXsXtXeXwX:X+X|.|.{.wX+XI.L.l.r.e.h.h.",
"%.%.%.%.*.*.;.;.;.;.w.w.h.g.d.V.B.L.H.K.`.E._.}.+X&X:XwXeXtXtXsXgXfXkXkXkXmXZXFXLXJXJXJXJXJXJXLXJXJXJXKXKXKXKXKXKXKXKXKXKXKXKXKXKXJXJXJXJXJXJXJXJXJXJXJXLXLXLXGXHXHXAXCXMXmXmXmXkXjXfXtXwXXX.X}.{.}.}.]._._.W.E.L.V.l.d.a.j.V.L.V.L.L.V.h.;.;.;.%.&.&.{ ) ) } ..} _ ^ ^ ^ ^ ^ ^ ^ I U L S U.2.} [ { { { ^ _ Y _ D S V V B m m m m m M m m m m m B Z Z Z Z K B | _ D B k j j j k m V Z x B 2.(.U.d d d d a a n 1.U V m B Z N l k k n m V C Z C B m 2.1.V m m m V U U B k j k l B m ..1./ L D V m x B K I ) .._ C x C C C C C C L L L L L L I I ) &.u.v.b.( C D ( ) ] ] ] } {  .&.&.&.&.&.%.;.;.h.q.q.e.a.V.n.L._.wXwX+XI.N.E.-XtXzXkXkXjXjXkXkXjXjXfXfXsXtXeX5X3X3X-X:X-X%X3XtXfXjX0X|.{.jXbXCXCXCXCXCXCXCXCXCXAXAXAXCXmXjXtXeX-X|.`.I.K.Q.Q.K.K.L.P.@XsXQ.V.g.e.e.q.w.w.-.$.).kX(.$.$.-.;.;.;.*.&.o.[ [ ] +...W hXNX<.E ^ Y I I ^ P E <.(.<.(./.` ^ Y Y _ } :.b.^.b.~ ^ Y Y Y I I I I I P L I I I I I ^ ^ ^ ^ ^ _ _ U.$.X.;.h.;.;.*.=.9.5.&X}.g.e.e.h.h.g.l.l.k.L.K.}.oX}.}.+X&X+X+X+XOX-X-XwXuXmXCXZXDXDXFXFXLXLXLXGXGXGXFXFXDXDXZXZXZXmXjXtXwX+X|.I.I.I.`.|.OX4XzXuXXX+X{.|.|.I.L.L.L.l.g.g.p.e.a.e.L.`.K.5.D.eX!.<.{ }  .&.>. .) ^ ) } } ) / ^ P G G G P / -.H.A.E ~ ^.$.( P ) ) ..L m l l l z z k k k k k f y s M S ~ 1.| v | /.1.M V V V M | A e t a a a a C 1.Q vXDXbX3.L B l k j j f k b iXmXv x z i u r r r r r n 2.G d U.0X<.B l j a i a j z v ).dXU.,.v a r a i i i a f G Z v ).iX2.K x x j j j l Z W ,XjX0XW G S Z C K K K Y Y Y Y L +.Q././ Y Y _ Y Y _ _ ^ [ <.<XmXsXz.;.;.h.h.e.k.k.l.L.H.}.+X+X}.I.`.}.{.&X:XwXuXfXmXAXGXJXJXJXJXKXKXKXKXKXKXJXJXLXLXGXHXHXZXAXCXCXZXGXGXJXJXKXKXKXKXKXKXKXKXKXKXJXGXHXAXCXmXzXjXdXtXwX:X:XOX;XuXwX|.I.l.k.e.h.h.",
"%.%.*.*.*.;.;.;.;.;.w.q.g.g.n.V.B.H.H.K.`.`.|.+X&X-XwXwXeXtXsXsXfXjXkXnXnXBXFXGXJXJXLXJXJXJXJXKXKXKXKXKXKXKXKXKXKXKXKXKXKXKXKXKXKXKXKXKXJXJXJXJXJXJXJXJXJXJXJXLXGXHXZXCXMXMXmXvXkXjXfXtXwXOX.X{.{.{.}._._.W.R.E.S.V.l.d.f.N.H.H.V.g.g.g.w.;.;.;.%.&.&.} ) ) } } } _ ^ ^ ^ ^ ^ ^ I U U G <.6X` ) ^ ^ ^ ^ ^ _ _ ..F S C B m m n n m m m m l l l l B Z G Z x T H 3.| P B k s s j j n V Z x B ( ( ,.d d a a f a d 1.G V m m B l k f f f m B K U V f r 1.| m j j j m G U B k j k l m v U.(.' F C B l l B C L ..1.,.m B B B B B V C C D L L L L L I ^ [ v.Q.^.( C D ( ) ) ] ] } { {  .o.o.o.o.&.%.>.;.w.8.8.w.q.0.x.Q.wXuX:X|.N.`.-XfXmXmXmXmXvXvXvXvXkXkXjXjXtXeXwXwX&X&XOX;X%X1XtXjXkX9X.XOXkXVXDXDXZXAXAXAXZXAXAXZXHXAXAXNXzXfXeXwX|.`.K.H.J.J.D.H.L.P.@XtXR.V.l.e.p.q.w.w.=.:.).jX$X! $.-.h.;.;.*.o.{ ] ] / } ..W qXAXz.E ^ _ I I ^ ~ A (.(.<.$.| ) ^ Y Y I / +.u.&X(.E } Y Y I I I I I I I I ^ ^ ^ ^ ^ ^ ^ ^ ^ ^ | ,.eX<.' u.h.;.&.o.*.;.u.D.}.R.x.i.p.g.V.l.k.k.L.Q.oX&X+X+X-XwX&X&X&X-X-XwXuXgXNXAXHXFXLXLXJXKXKXKXJXJXJXLXLXLXHXHXFXDXCXzXuXwX+X|.`.I.I._..X-XyXNXfX;X-X:X:X+X`.K.H.L.V.l.g.a.f.n.k.I.`.`.#.D.&X/.<.>.) } &.>.&.] / ^ ) } ] ) ^ P L G 1.<.+.v.x.c.~ / b.:.F D I _ 2...m l l l z z k k k k f g y g ,.<.| 2.| v 1./.' S m B B M ,.(.Q e a a a a M U.).ZXJXDX3.F V l k j j s k b kXbXQ H z i u u e r r r m 2.G b jXzX,.B x j a i a f k b qXmX(.A v a u g p i i a a G G A ,XjX| x B x l j j l G Q iXNXbXQ G V C K K K K I Y Y Y ^ $./.U./ Y Y _ Y Y _ _ ) ` <.iXCXjXz.:.h.h.h.l.l.k.L.L.K.}.+X&XoX`.|.+X&X3XwXuXfXmXAXGXJXJXJXJXJXJXKXKXKXKXKXJXJXJXLXLXGXFXHXHXDXHXGXGXJXJXKXKXKXKXKXKXKXKXKXKXKXKXJXGXHXZXAXMXmXvXfXuXwX:X;X*XfXuX|.L.k.k.l.e.h.",
"*.*.*.*.*.*.*.;.;.w.q.y.g.d.n.V.B.H.H.E.`._.{.+X&X-XwXyXuXsXgXjXzXkXmXbXBXZXFXLXKXKXKXKXKXKXKXKXKXKXKXKXKXKXKXKXKXKXKXKXKXKXKXKXKXKXKXKXKXKXKXKXKXKXKXKXKXJXJXLXGXHXAXAXCXMXmXmXkXjXfXtXwX-XOX+XoXoX}.}.W.E.K.J.D.D.l.d.5.Z.].J.l.q.8.w.;.;.*.*.;.%.>.} ) ) } } } ^ ^ ^ I I I I L K C M $X$X$.^ Y T U K I I ..1.2.M C C l l n n n m l k k k k l l B G N x H 4.qX<.I C l s s s j k C K K x C V n d a a a i t u 1.G G F G B l f a a f z x K R ,.f e 3.,.k j s s k U U B k j j l n p iX9X<.G C B l l m M S | (.(.Q m B x m B B B B L _ L L C L L L ~ s.Z.^.$.D P ) >.) | | } { { {  .o.o.o.&.%.;.;.w.8.w.w.w.h.g.D.3XsXwX+XI.|.uXzXMXCXCXCXCXCXCXCXMXmXmXkXfXyX5X3X-X&X+X+X%X*XeXzXmXaX%X-XnXPXFXDXHXHXHXHXHXHXHXHXGXHXZXNXzXfXtXwX{.T.F.Z.S.D.D.D.`.Y. XtXT.S.l.g.a.e.w.w.#.5.z.fX8X! $.s.g.;.;.*.{ } ] ) ] ] ] W <XAX(.A | _ _ / ` E A iXiXz.| ) ) ^ I I L I ] 1.$X$XE / ^ I ~ ~ ~ ^ ^ ^ ) ) ) ) ) ) ) ) / ) ) / ,.U.sX! $.h.>.&. .{ &.*.h.z.(.sXeXP.c.B.B.V.l.L.K._.OX-X-X&X-XuX-X-X-X3XwXeXgXkXAXHXGXJXKXKXKXKXKXKXKXKXKXKXKXJXGXFXGXFXZXmXsXwX&X+X|.`.`.|.+X-XgXNXzXsXeXwX:X:X}.`.K.H.H.V.k.f.P.uX{.+X`.Q.O.O.^.b.$.] ) )  .>.u.' ` ^ } ..} } >.^ K U dXz.$.:.b.>.^ ^ 2.} I C Z D  .>.C l l z z j k k f f f g g u ,X0X$...| k b.b.~ S f s f N 3.nX3.i a a a d M U.iXDXPXFX).E V l k j j s f b pXDXpXJ c y u u e r r r M ( S ! AXhXW K x x f a i v n <.CXCX(.J v a a g a a a a a H V A qXNX,.V B B x l j l S <.NXAXZX4.W C C K K K K K I I ^ ~ -.oXoX` Y Y Y Y Y Y _ ] [ z.mXHXAX).c.g.e.e.j.j.L.L.K.K.`.|.+X+X{.{.+X-XwXtXjXmXAXFXJXJXKXKXJXJXKXKXKXKXKXKXKXKXJXJXLXLXLXGXGXJXJXJXJXJXKXKXKXKXKXKXKXKXKXKXKXKXKXKXJXLXFXDXZXCXMXkXgXyXwX-X;X:XzX-XG.k.k.l.l.l.",
"*.*.*.*.;.;.;.;.w.h.h.p.s.d.V.B.H.H.K.W._.].+XOX-X3XwXtXsXjXjXzXmXmXMXCXZXFXLXJXKXKXKXKXKXKXKXKXKXKXKXKXKXKXKXKXKXKXKXKXKXKXKXKXKXKXKXKXKXKXKXKXKXKXKXKXKXKXKXJXJXFXHXZXAXCXMXmXzXkXfXsXeX3X-XOX+X+XoX}.W.Q.J.J.D.D.d.f.z.&X-X_.l.h.6.w.=.;.*.%.h.v.b.} } } _ } _ ^ ^ ^ I I I I K I C <.tX)./._ T T T C C D ( 2.1.S m B B l k n n n k k k k k k k m H Z j v <XhX<.( C l f s s j m G Z | x K B f a p a a i r u 2.S U E S B l k s a s z x x 2.(.b 9 3.,.j j s s k U U M j j k l v J vXkX4.G Z B l l m m M U 3.hXQ N B l l m B B B I ..L C C C K D ~ -.`.Q.:.S E U.U.) ( 2.} {  . .o.o.o.o.%.%.;.;.w.w.w.h.;.h.g.D. XfX5X-X|.+XzXNXCXZXDXZXZXZXZXZXCXCXCXmXkXfXyX5X3X-X&X&X-X*X4XfXzXfX-XwXbXLXFXFXFXFXFXFXFXFXGXGXGXGXHXAXNXkXfXwX+X|.T.F.S.D.D.D.+X X@XuXT.H.V.l.g.g.h.q.7.t.z.fXsX! ! ^.D.6.=.*.{ } ] ) ] ] ] ' <XZX,XW | ) ) ] ] ( Q lXjX).1.} _ ^ I I P I _ 1./.eX1.~ ^ ^ ~ ~ ^ ^ ) ) ) ) ) ) ) ) ) ) ) ) ) ' <.iXzXz.$.:.>. . .{ &.*.;.5.0XMXzX)./.D.J.H.L.L.I.{.-XwX3X%XwXuX:X-X-XwXtXsXkXMXAXGXJXJXKXKXKXKXKXKXKXKXKXKXKXJXGXGXLXFXZXmXfXuX:X:X+X{.{.+X&XwXxXNXmXxXrXeXwX-X+X`.`.H.K.L.j.P. XzXwX+X`.D.-.O.v.:.' ) ) ) { :.v.' [ / }  .} } 1.2.K ,.jX).<.>.1...I I _ P V l l C &.>.C l z z z j f f f f f g g Q vX(.$.1.I m 1.1.F M s s f b 4.BXJ 8 a a a d S (.bXJXJXVX(.F V l k j j s f h <XFXIXh g y u e u e e r V | E >XMXCX3.B C x l f p d S <.NXZXnXQ g a s a a a a a s G D E ,XhX(.m C Z x x y k ' z.mXCXAX,XW C Z K K K K K I I ^ ~ u.&XoX' Y Y Y Y Y _ } } O.z.MXHXAX6X^.x.a.a.j.M.L.L.K.Q.`.}.+X+X+X+X-XwXtXfXvXZXFXJXKXKXKXKXKXKXKXKXKXKXKXKXKXKXKXKXJXJXLXJXJXKXKXKXKXKXKXKXKXKXKXKXKXKXKXKXKXKXKXKXKXJXGXFXHXZXCXmXkXsXeX-X;X;XfXwXI.L.L.l.l.l.",
"*.*.*.;.;.;.;.;.h.h.g.g.d.n.B.H.K.K.`._.].{.+X&X3XwXtXfXjXzXmXmXNXCXCXZXDXGXJXKXKXKXKXKXKXKXKXKXKXKXKXKXKXKXKXKXKXKXKXKXKXKXKXKXKXKXKXKXKXKXKXKXKXKXKXKXKXKXKXKXJXJXFXHXDXAXCXMXmXzXjXfXtXwX3X=X&XXX+XoX}.Q.R.J.D.D.x.c.).sX-X_.l.8.;.w.*.*.%.&.h.D.D.} } ) } } ) ^ ^ I I I I I L U m (.sX>Xb.F U T C B C V U ,.1.F k D B m k n n z k k k k k k a n T G j N nXmXU.E V m s s s j B V G U.K K B a a a a a a a p | L 2.,.H m x k s s s c c B ,.vX(.0 3.,.k j s s k U P m j j k l v 4.CXmX).A Z x l k z m B C H hXQ N M m l B B B B | ..I C C C C D ~ ' /.Q.:.~ S 6X1.( | | } { { { %.%.%.%.%.%.;.;.w.0.w.w.;.h.g.V.Z.uXwXwX+XwXNXCXDXFXFXFXFXHXHXHXHXZXZXCXmXkXgXyX4X3XwXwX-X-X2XtXjXfXeXrXBXLXGXFXFXFXGXGXGXGXGXGXGXGXHXAXAXmXjXtX:X+X|.`.K.L.L.S.eX0X0XtX_.H.L.l.l.l.g.e.e.d.z.fXzX4.>XiXoXu.@.%.{ } ) ) ) ] ] ' ).MXiXQ | } } }  .| 3.CXNX).( _ _ ^ I P P P I | b.=Xv.` / ^ ~ ~ ) ) ) ) ) ) ) ) ) ) ) ] ] ] } | 6XzXzX(.' >.>. . .{ &.;.*.z.jXAXNX(./.D.Q.`.I.I.}.+XwXtX5X*X4XuXwX-XwXeXsXkXNXZXHXJXJXKXKXKXKXKXKXKXKXKXKXKXKXJXJXGXLXFXZXmXjXrXwXwX:XOXOX-XwXsXlXAXCXhXaXyXeXwX:X}.`.E.K.H.N.P.0XNXzX*XR.V.-.o.-.X.` } } ] o.:.v.' ' ] {  .} / >.<.v ).CX0Xb.>...} D L D V m k l C &.>.S k k z f j f f f f f g g ).NXfXz.1.L B 2.| S f s s k N 3.IX3.i a s s f S (.AXJXJXZX,XG V l k j k s g h 4.VXVX4.c y r u u u e r V 1.W qXHXDX,XC K K x c a a ( 1.jXmXCX).p s g s a a a s j U P ( <.(.(.B U C C x l k :.<.iXZXCXiXW V Z K K K K L I I ~ ~ :.+X^.' Y Y Y _ _ _  .{ #.P.AXFXAX0X&XP.a.l.V.S.H.K.`.}.oX+X&X&X&X&XwXeXfXkXCXDXLXKXKXKXKXKXKXKXKXKXKXKXKXKXKXKXKXKXKXKXKXKXKXKXKXKXKXKXKXKXKXKXKXKXKXKXKXKXKXKXKXKXKXJXJXFXFXDXZXMXmXfXtXwX%X X:X:X|.I.I.I.L.L.",
"*.*.*.;.;.;.;.h.h.p.g.d.l.V.L.K.K.E.`.].{.+X&X-XwXyXfXzXzXmXMXMXCXZXZXHXFXGXJXJXKXKXKXKXKXKXKXKXKXKXKXKXKXKXKXKXKXKXKXKXKXKXKXKXKXKXKXKXKXKXKXKXKXKXKXKXKXKXKXKXKXJXJXGXDXDXZXCXMXmXkXjXsXeXwX3X=X&XXX+X}.^.Q.R.D.A.n.P.qXjX!.Y.d.6.=.w.*.%.%.o.o.v./.] } } } _ _ ^ ^ I I I I I _ L m ,XzX6XW / L K C B B B F | | U m | B m k k k k k k k k k k i f U U l Q ZXCX).,.G B s a s k B m H iXK K m r a a a a a d p ( n (.(.v m l k s s s c N H 3.ZXpX0 3.,.k j s s n U P m j j k l v <XZXbXqXA C x z z k l x x H iX,Xb N m l x B B B ..2.I C C C C C D A $.D.&./ M ,X(.| ( 2. . .{ o.*.*.*.%.%.*.;.;.0.q.w.w.;.h.g.V.C.+XwX-XwXtXAXDXGXLXGXGXGXGXGXGXGXHXHXHXZXmXkXfXtXyXeXeXwXwXwXeXfXsXtXfXZXLXFXFXGXGXLXLXLXLXLXLXJXGXGXHXHXCXmXfXuX:X+X|.I.H.V.C.fXkXhXsX'.I.L.L.V.l.l.g.l.n.z.fXzX4.<XvX3Xc.#.+.{ } ] ) ] ] ] ' ).zXjXQ | ..} } ..2.).HXAX,X| .._ ^ I I I P P ' b.Q.u.o./ ^ ~ ~ } } ) ) ) ) ) ) ) ) ) ) } } } $.iXNXzX(.' >.&. . .{ %.;.u.z.NXCXAXsX/.Q.}.`.`.|.{.-XtXfX8X1X7XuXwXwXwXrXjXmXAXHXGXJXKXKXKXKXKXKXKXKXKXKXKXKXKXJXJXJXJXLXDXCXlXaXyXwXwXwXwXeXfXzXSXHXZXlXxXaXtXeXwX+X{.`.`.K.C.P.vXZXAX6XY.d.@.*.X.X.} } ..} +.u.D.X.' &. .} } / [ b.J pXHXvXb.>.) ^ C L C V B m C D &.>.S k k j f f f f f f f f b iXmXfXb.>.| m U | H s f s k n Q hXpXJ g s s f M (.CXHXJXJX,XG C B l k k s s h 4.DXDX3.c y r e u u e r T ,.U.iXhXBXU.C K K x c g y | U.@XNXAX).d f s s s s s s j I ^ | <.1.C C U K K C L m b.$.).MXNXiXE C Z K K K K K L I ~ ~ $.oX/.` Y Y Y _ _  . .+.u.).ZXFXZX).wX_.N.l.B.J.K.`.}.oX&X=X-X-X=X3XeXsXjXbXZXFXJXKXKXKXKXKXKXKXKXKXKXKXKXKXKXKXKXKXKXKXKXKXKXKXKXKXKXKXKXKXKXKXKXKXKXKXKXKXKXKXKXKXKXJXJXGXFXDXZXCXNXzXsXwX-X X X:X|.I.`.I.I.I.",
"*.*.*.*.;.;.h.h.h.g.x.n.V.M.H.H.E.`.].{..XOX-XwXeXuXfXzXmXMXCXAXDXHXFXGXLXLXJXKXKXKXKXKXKXKXKXKXKXKXKXKXKXKXKXKXKXKXKXKXKXKXKXKXKXKXKXKXKXKXKXKXKXKXKXKXKXKXKXKXKXKXKXJXGXDXZXZXMXmXmXjXfXtXeXwX3X-X&XXXoX}.^.Q./.Q.m.z.qXMXsXT.d.8.=.w.;.*.%.o.o.>.b.&.} } } _ _ ^ ^ I I I I I T | N ).vXiX$./ L C C C B B V U | G n 3.| V n k k k k k k k k k a f U Y k 4.DXCXiX<.H Z f f f n B n H qXD K n n a a a a d a n W b 0XU.A S k s g j z x Z f ).HXBX0 3.E k j j s n | | m j s l m p pXGXJXqXW B B z z z x x K m ,XhX).d H B x B B m ....^ C C C K C l M / 1.>.~ S ,X0X<.| }  .>.&.X.;.=.@.@.*.=.=.=.g.e.w.w.6.q.g.V.H.|.&XwXtXzXZXGXJXKXKXJXJXJXJXJXJXJXJXJXFXZXMXvXjXjXfXfXsXyXuXyXaXsXsXkXDXLXLXLXGXLXJXJXJXJXJXJXJXJXJXJXGXHXAXmXgXuX:X+X|.`.H.Y.mXbXnXzX&X`.`.L.L.V.l.l.a.n.z.zXmXbXVXZX8Xz.$.&.{ } ] ] ] ] } ' ).zXhXQ |  .} } ..2.).HXZXhX,. ._ ^ ^ I I I I ~ $.v.:.{ } / S ~ ) ) ) ) ) ) ) ) ) ) ) ] ) } } W AXCX9Xz.$.&. .&.&.*.;.=.#./.bXFXHXhX).Q.^.}.}.+XOX2XfXzXsXtXgXuXwXwXyXgXmXCXFXLXJXKXKXKXKXKXKXKXKXKXKXKXKXKXKXKXJXJXJXJXFXZXmXxXgXgXtXtXsXjXNXAXGXLXFXHXMXvXhXdXeX3XOX{.|.W.T.1XAXGXvX(.Z.p.=.*.O.o.} } ) } :.v.D.+.' /  .} ] ] ~ U.).bXZXkX<.&.} I L L B B B B m / &...D k j j f f f f f f i d ).vXjX).W >._ m n k s a j k V ( ,.H ,Xg g f j k S (.vXGXKXZXQ | C B l l k s f b 4.VXBX<XJ c r e 9 u e r Z 3.,XzX).$X( C K C B l c z U | z.sXzX4.b f z s s s s s j I ) } ..) K K T K K I I V Q.u.W (.zX(.| ..K R K K K K L I I ~ $././.] Y Y Y _  . . .:.<.9XHXLXZXqXuX|.N.B.J.R.}.}.+X#X8X5X3X-X2XeXtXfXvXCXFXLXJXKXKXKXKXKXKXKXKXKXKXKXKXKXKXKXKXKXKXKXKXKXKXKXKXKXKXKXKXKXKXKXKXKXKXKXKXKXKXKXKXKXKXKXJXJXGXFXDXZXMXzXfXeX-XOX|.|.+X+X|.+X+X|.",
"*.*.*.=.;.w.h.h.g.g.n.n.M.M.H.K.`._.|..XOX-X3XeXtXgXzXmXCXAXHXGXFXGXLXJXJXJXKXKXKXKXKXKXKXKXKXKXKXKXKXKXKXKXKXKXKXKXKXKXKXKXKXKXKXKXKXKXKXKXKXKXKXKXKXKXKXKXKXKXKXKXKXKXJXGXHXZXCXMXmXzXfXsXtXeX5X3X-X&XXXoX}.^.Q.Q.D.z.qXAXmX!.V.h.6.;.;.*.%.%.o.{ >.>.} } } _ _ ^ ^ ^ I I I I U G N 3.bXvX$.{ L K K C C B B V U V n (.<.a m l k k k k k k k k s f I ^ A >XGXDXkX(.3.B k f n M C n A iX2.U n a a a a a d a n W A jX(.G ~ V s g j B K Z m ).ZXHX4.U.E k j j s n | | m k s l N b VXJXKXIXW B Z c z z x x x m 4.kX(.b v Z x x N m _ } _ I K K K K B V D ) } ] E U.iX(.| }  .&.%.O.w.6.=.#.=.6.6.6.l.a.e.w.6.e.l.L.H.`.&XwXdXmXHXJXKXKXKXKXKXKXJXJXKXKXKXKXJXGXZXCXmXmXvXkXzXfXfXgXgXgXjXmXDXLXLXLXLXJXJXKXKXKXKXJXKXJXJXJXJXJXGXAXzXfXuXwX+X|.`.!.mXDXDXNX2X}.`.H.H.B.V.l.k.N.z.zXCXDXFXHXfXz.$.&.&.} } ] ] ] } ' /.sXmX3.|  .} ) ..| ).HXFXnX<. .} _ ^ I I I ^ ~ / >.>.{ ^ / L P ) ) ) ) ) ) ) ) ) ) ] ] ) } } W VXGXjXz.$.&.&.&.%.*.=.6.#./.bXLXGXbX).^.^.}.+X%X*X4XjXmXjXfXxXgXyXwXrXkXCXDXJXKXKXKXKXKXKXKXKXKXKXKXKXKXKXKXKXKXJXJXKXKXJXHXCXmXzXzXzXjXjXmXAXJXKXKXJXGXDXCXvXhXdXeX-X+X{.'.!.tXAXCXNX$XA.7.=.@.O.+.} } / ' :.v.D.+.' ) } ) ] ] / $.iXvXiXkXb.} _ P L L B Z B V F  .>.| G k j f f f f f f a a H iXhX(.9X| ) | m n k s a f s M | 1.T d r g g k k F U.MXHXLXBXQ G C B l l k s d b ).DXBX,Xh g y u 9 9 r r N 3.0XzXz.W ( C K C B l c x K _ W $X(.! Q s y s s s s s s L ` >.>.Y K K R K L Y _ D Q.v.E U.(.$.&.>.K K K K K K L I I ^ >.b.:.) Y Y Y _  .{ %.u.(.MXFXFXBXjX;X+XG.C.E.Q.}.oX=XqXsXsXeX5X4XrXgXkXMXZXGXLXKXKXKXKXKXKXKXKXKXKXKXKXKXKXKXKXKXKXKXKXKXKXKXKXKXKXKXKXKXKXKXKXKXKXKXKXKXKXKXKXKXKXKXKXJXJXLXFXDXZXCXmXfXtX3X;X+X+X:X:X+X:X:X&X",
"*.*.=.=.;.w.q.h.g.g.n.M.M.G.K.`.|.|.{.+X%X3XwXtXfXjXmXCXZXHXGXGXJXJXJXJXKXKXKXKXKXKXKXKXKXKXKXKXKXKXKXKXKXKXKXKXKXKXKXKXKXKXKXKXKXKXKXKXKXKXKXKXKXKXKXKXKXKXKXKXKXKXKXKXJXJXGXHXAXCXMXmXzXfXsXeXeX5X3X-X&XXXoXoX^././.!.qXAXAXqXD.g.8.=.;.*.%.&.o.]  .{ ) } } _ _ ^ ^ ^ I I I I U T v ,XBXCXz.+.^ I L L K C B B C B f (.3.d m m k k k k k k k k s k I ~ W iXVXJXvX(.<.G n n M G G M A ,XU.W M a a a a a d a n W W 9XkX3.,.L l z l K U K C 3.bXGX,XU.E n j s s n | | m k k k Z Q VXLXKXVXW B Z c x x m B j n b bX).J N B Z Z Z M P _ } _ K K K C Z C K L _ ( E (.qXhX$.]  . .&.;.h.8.6.6.6.7.7.7.l.j.a.e.e.a.V.L.K.}.-XuXhXCXGXJXKXKXKXKXKXKXKXKXKXKXKXKXKXKXGXDXZXCXCXMXmXzXzXfXfXfXzXCXFXLXJXJXJXKXKXKXKXKXKXKXKXKXKXKXKXKXJXGXAXmXfXuXwX+X}. XjXZXGXHX4XXX_.K.H.S.M.n.f.m.).mXHXJXKXHXNX).#.O.&.&.{ { } ] } ' /.wXzX).'  . .} } W ).FXLXZX1. .} _ ^ ^ ^ ^ ^ ^ I | ..) &./ ~ I ) ) ) ) ) ) ) ) ) ] ] ] ) } } W DXKXzX).$.&.&.%.%.*.=.9.#.).CXKXKXZX(.^.^.[.XX;X1X7XlXNXjXzXlXxXyXyXgXmXZXLXKXKXKXKXKXKXKXKXKXKXKXKXKXKXKXKXKXKXKXKXKXKXKXGXAXCXnXmXmXmXbXZXGXKXKXKXKXKXGXDXBXbXkXdXwX:X.X X@XzXAXmX8X^.c.6.#.O.O.&.} } / ' b.Q.D.X.[ } ) _ ) / / $.fXjX(.z.1...I L L C Z Z Z C } 1.1.P G k z z k k f g g a f 3.hXhX>XW I _ _ V n k s a f M ` >...I m g g g k k S <.vXGXPXZXQ S C B l l m s d b <XBXZXpXp i a a u u r y f Q 0XzXyXA S U K K C x x x x U ( U.$XW Q s y s s s a a a S / :.1.I K K R K Y ..} ) /.u.W 1.1...+.1.P C K K K K K I I ^ &.b.1.^ Y Y _ _ } { ;.b.iXHXPXJXHXpX@X].F.K.`.].}.+X5XgXzXzXtXeXrXgXjXmXZXGXLXKXKXKXKXKXKXKXKXKXKXKXKXKXKXKXKXKXKXKXKXKXKXKXKXKXKXKXKXKXKXKXKXKXKXKXKXKXKXKXKXKXKXKXKXKXKXJXJXGXFXDXCXmXjXsXeX-X:X:X:X-X&XwXtX0X",
"*.*.=.=.w.w.q.p.a.d.n.M.C.G.`.`.|.{..XOX-X5XyXfXjXmXNXZXHXGXJXLXJXKXKXKXKXKXKXKXKXKXKXKXKXKXKXKXKXKXKXKXKXKXKXKXKXKXKXKXKXKXKXKXKXKXKXKXKXKXKXKXKXKXKXKXKXKXKXKXKXKXKXKXKXJXJXGXHXAXMXmXzXjXsXtXyX8X5X3X=X&X+XoX^././.oXtXNXZXhXQ.l.h.6.;.*.%.&.o.]  .} } ) ) ) _ ^ ^ ^ I I I I ( | H 3.DXbX^.$.] I L U K K Z B B C a U.U.W m l k k k k k k k k j k I E ! kXBXZX).(.3.V m M V G S S n 3.U.E G k a a a a g a n W W U.hX<.2.T B l l I Y K C W vXMX(.1.( M j s s N | | m f k k Z Q FXLXFX,XW B Z x x x B m B n b vXiX4.v N Z Z M m C ) ....L K K K K C K K U P S (.).iX<.&.{ ] O.q.e.8.7.6.7.8.r.r.L.n.d.a.p.l.L.H.K.}.-XuXlXCXGXJXKXKXKXKXKXKXKXKXKXKXKXKXKXKXKXGXDXDXDXZXCXmXzXzXzXzXmXCXFXLXJXJXKXKXKXKXKXKXKXKXKXKXKXKXKXKXKXJXGXAXmXjXtXwX+XXXqXvXAXNXqX#X].F.F.J.C.m.j.m.z.mXHXKXKXHXNX/.#.O.>.>.&.} } ] } ' A.&X6X).[ { { ] ] | 4.GXLXFXU.} ) _ ^ ^ ^ ^ ^ I | U | S U.] ^ ^ _ ) ) ) ) ) ) ] ] ] ] ] / { { W FXGXzX!.$.&.&.&.O.@.=.9.5.).ZXKXKXGX(.^.^.oX#X*X1X0XvXCXmXmXnXxXrXrXjXMXDXJXKXKXKXKXKXKXKXKXKXKXKXKXKXKXKXKXKXKXKXKXKXKXKXJXHXAXAXAXNXCXZXFXKXKXKXKXKXKXJXGXDXZXbXjXyX:XOX.X*XzXNXzX).P.u.=.@.O.&.{ ] ] $.:.D.+Xv.X.[  ._ _ ^ ~ E ^.@XfX=Xb.$.~ L L K Z Z G G D >.b.1.S G k z j f f f g f a | U.).iX6X~ C Y P D k j s a d ` 1.b...V s a g f k k M ! iXJXGXJX4.G C B l l m s s b ,XlXQ J 9 r y s u u t r a b <XmX$X$.V C K K K x x x x K | 2.U.,.n s z s s s a a p n / b.1.( K T U I _  .} &.D.W ^.U.S L / 1.( L K T K K K Y Y ^ ) ....^ Y Y _ _  . .;.D.vXFXFXFXAXqX!.~.K.E.].{..X-XgXkXNXzXgXfXaXlXmXAXHXGXLXKXKXKXKXKXKXKXKXKXKXKXKXKXKXKXKXKXKXKXKXKXKXKXKXKXKXKXKXKXKXKXKXKXKXKXKXKXKXKXKXKXKXKXKXKXKXJXJXGXFXDXZXbXjXfXtX3X:X:XwXwX-XwXsXiX",
"*.=.=.=.6.w.q.a.d.j.N.M.H.K.`.|.|.{.OX-X2XyXgXjXmXCXZXHXGXLXJXKXKXKXKXKXKXKXKXKXKXKXKXKXKXKXKXKXKXKXKXKXKXKXKXKXKXKXKXKXKXKXKXKXKXKXKXKXKXKXKXKXKXKXKXKXKXKXKXKXKXKXKXKXKXKXKXJXHXZXCXMXmXkXfXsXsXtX9X8X6X=X&XoXoX(.!.5X@XNXHXmX!.K.g.w.;.;.%.%.o.{ {  .) { >.` ) ^ ^ ^ ^ I I ^ E ( | p IXAX(.u.X.~ D U L K Z Z x V G U.6XW M y k k k k k k k k j l 1.E W hX).8X<.<.U.( C V S G C D B | /.E V k s a a a f f G ,.1.<.U.M ,.T K C V C L L P Q qXNX3.<.,.V j s c N ( | G s l k m b BXGXBXQ H Z B Z Z Z Z Z B D A 0XnX).b <.Z B m m F / ....Y K K K K C C C C U | U.<.eX^.v.o.O.' Q.h.8.7.7.q.p.i.d.K.K.L.i.k.V.L.K.|..X5XgXMXHXGXJXKXKXKXKXKXKXKXKXKXKXKXKXKXKXKXKXLXGXGXHXZXCXNXmXmXmXMXZXGXLXKXKXKXKXKXKXKXKXKXKXKXKXKXKXKXKXKXKXJXGXAXmXfXeX-XOX;X1XcXzXeXXX].F.F.F.J.K.k.L.Y.qXZXKXJXAX(.5.@.%.>.>.&. .} / ) o.5.J.z.c.#.O.X.[ +.| W nXJXHX).' } _ ^ ^ ^ ^ ^ ^ ^ ( | | (.) _ ^ P ^ ) } { { [ [ X.o.{ { %.&.>.$.MXHXzX!.$.&.&.&.*.*.;.9.z.sXDXKXKXAX@X^.^.oX%X1XrXdXvXCXZXZXMXnXxXxXmXAXHXLXKXKXKXKXKXKXKXKXKXKXKXKXKXKXKXKXKXKXKXKXKXKXKXJXGXHXHXAXZXHXFXJXKXKXKXKXKXKXKXKXJXLXAXmXuX:X:X'.uXaXxXzX+X5.9.@.O.O.&.{ ` ' u.5._.+Xu.O.[ .._ _ ^ E /.wX$Xz.b.:.' F D L K K C V I ) b.b...S n k k k f f f j s S /.m.b.U.b.F D C B l l j g f E :.u.:.2.V a f f f k k V W ,XVXJXFX3.W Z B x l m j j b ,XvX3.4 i y s s h h h t p 9 pXmX(.' ^ Y K K K x l C C | 2.M N N f f s f s s s a d v S 1.b.} D U L I _ h.&.w.v.c.sX).H Z C ..2.K K K K K Y Y Y ^ ) } _ _ Y Y _ _  . .u.(.AXLXKXJXqX(.^.W.E.`.|..X;X7XNXAXAXNXzXzXnXZXGXGXLXLXJXJXKXKXKXKXKXKXKXKXKXKXKXKXKXKXKXKXKXKXKXKXKXKXKXKXKXKXKXKXKXKXKXKXKXKXKXKXKXKXKXKXKXKXKXKXKXKXJXLXGXDXZXMXkXjXdXeXwXwXyXuX;X;XtXfX",
"@.=.=.6.w.w.p.a.d.j.M.M.G.K.`.|.{.+X%X-XwXrXjXvXMXZXHXFXGXLXLXKXKXKXKXKXKXKXKXKXKXKXKXKXKXKXKXKXKXKXKXKXKXKXKXKXKXKXKXKXKXKXKXKXKXKXKXKXKXKXKXKXKXKXKXKXKXKXKXKXKXKXKXKXKXKXKXJXGXHXZXCXmXkXjXfXfXdXiX9X6X=X&X+XoX(.!.eXcXAXGXAX*X~.n.h.;.;.*.%.&.{ { } ^ ] :.' ) _ ^ ^ ^ ^ I ~ | U.C v bXHX8X<.#.` D C L K C Z B l n W 0XQ M m k k k k k k k l j ,.| A A iX6X$.~ I ( D C C V S C K C R b.' m k s a a a a a d 1.U.F G V T Z B C V C D L V E ).fX<.A U.M z c c l ( | G s l l m b ,XZXkXQ H Z B Z Z Z K K K U b 4.iX<.E U.S Z M M S / &...} I L K L D D C C B U U.1.z.uXD.b.X.$.Q.e.8.8.8.e.i.x.n.K.K.K.n.n.B.H.K.|.;XeXjXCXHXJXJXKXKXKXKXKXKXKXKXKXKXKXKXKXKXKXKXKXJXLXGXDXZXAXNXNXNXAXZXGXJXKXKXKXKXKXKXKXKXKXKXKXKXKXKXKXKXKXKXKXJXHXmXfXeX-X%X;X;X1XzXfX XT.Y.F.F.J.H.N.L.F. XZXKXJXAX/.5.@.%.>.>.&.{ ] ] ) [ V.K.H.5.#.@.O.X.' $.E 3.GXGX,X$.} _ _ ^ ^ ^ ^ ^ ^ ~ | b.$X| _ ^ I _ } &.%.%.#.@.@.@.;.;.;.*.:.z.AXAXfX(.$.&. .&.*.;.h.u.!.zXLXKXJXkX@XoXoXXX*X2XsXhXbXZXDXHXCXnXlXkXMXZXFXJXKXKXKXKXKXKXKXKXKXKXKXKXKXKXKXKXKXKXKXKXKXKXKXJXJXGXGXHXHXGXJXJXKXKXKXKXKXKXKXKXKXJXAXmXuXwX:X:XzXaX7X).z.5.=.@.+.o.&.{ ` +.f.E.Z._.}.o.] } _ Y P ,.tX1XoXD.' ) ~ F D D T T C P ) >.b.1.| V n k k k f f g f f 1.Q.k.g.>.} ~ V m k k l j z H $.v.v.:.,.m a s f f k k M H ,XBXLXFX).H Z Z x l m j j v ,XmX>X6 i y j y h h h u e 9 pXkX(.' ^ U K K K B C m M 1.1.A f p g s s f s s s a g v S 1.b./ D L I Y _ ;.O.w.g.A.zX0X,.K K K K K K K K K Y Y _  . .) I Y Y Y _ _  .&.b.$XAXJXJXBX)./.^.}.W.].{.OX;XxXAXGXAXNXNXNXAXGXJXKXKXKXJXJXKXKXKXKXKXKXKXKXKXKXKXKXKXKXKXKXKXKXKXKXKXKXKXKXKXKXKXKXKXKXKXKXKXKXKXKXKXKXKXKXKXKXKXKXKXKXKXJXGXDXZXCXmXkXfXsXeXyXuXuX:XOXuXgX",
"*.=.=.6.8.q.e.a.j.n.M.C.F.E._.|.{.OX-X2XyXgXkXmXCXHXHXFXLXLXJXKXKXKXKXKXKXKXKXKXKXKXKXKXKXKXKXKXKXKXKXKXKXKXKXKXKXKXKXKXKXKXKXKXKXKXKXKXKXKXKXKXKXKXKXKXKXKXKXKXKXKXKXKXKXKXKXKXJXGXZXCXMXmXkXjXhXhXsX9X5X3X&X&XoX X XeXaXHXJXGXfX[.S.l.h.;.;.*.%.&.} } ) } b.$.] _ ) ^ ^ ^ I ~ 1.U.( d bXZXkX(.z.[ ~ C L L D C Z k k f (.<.v n n n n n k k k l j T 2.v b ).sXz.A D C V C C C C C K B _ 1.` n k s s g f a a r 2.U.| n k B x x B V C U R B D <.$X(.v (.S z c z l ( | G s l k m b ).BXvXQ W C B Z Z Z K K C T J ,X).W ' U.F G A A M ( &.>.&.) I I U U U L U D B 2.1.W /.&XQ.$.c.D.q.6.8.q.a.g.V.S.Q.`.Q.H.n.M.H.E.|.%XeXjXZXGXJXJXKXKXKXKXKXKXKXKXKXKXKXKXKXKXKXKXKXKXJXLXGXHXZXAXAXAXAXHXGXJXKXKXKXKXKXKXKXKXKXKXKXKXKXKXKXKXKXKXKXJXHXMXfXeX-XOX;X;XqXNXjX@X!._.F.K.J.K.L.L.F.).AXKXJXAX).5.-.%.>.>.&.o.] { ` b.D.V.L.9.6.#.@.O.' ' ( b pXHXdX<.| _ _ _ ^ ^ ^ _ Y I | (.0X<.| _ ^ ] >.h.w.w.9.y.0.q.y.y.h.q.t.!.AXNX4X/.$.&.&.>.;.w.h.b.$XNXLXKXHXcX@XXX$X=X3XeXaXhXbXZXDXHXCXbXlXmXNXZXGXJXKXKXKXKXKXKXKXKXKXKXKXKXKXKXKXKXKXKXKXKXKXKXKXJXJXGXGXHXGXGXJXKXKXKXKXKXKXKXKXKXKXJXAXzXuXwX2XuXzXgX*XZ.n.5.*.%.+.+.&.[ X.#.A.+XZ.c.Q.[ ] >.^ F E (.mXsX}.#.I I F D D D L L L ..$./.1.} P m m m k k k k z f W oXQ.V.u...F m k k k k l l n $.v.D.u.' ( n s a f f k k M H ).BXFXFX).H Z B m l m j j v (.mX).6 i y s y y r p u e b IXvX(.' ^ Y I K K K K B M (.U.V p p g s s s s s f f f v S 1.1.^ D I Y _ _ ;.%.w.0./.zXmX1.I K x x K K K K K Y I  .>.>.} I Y Y _ _ }  .+.b.8XCXJXHXcXz.Z.Q.}._.{.+X-X4XxXHXGXCXAXNXNXHXJXJXKXKXKXKXKXKXKXKXKXKXKXKXKXKXKXKXKXKXKXKXKXKXKXKXKXKXKXKXKXKXKXKXKXKXKXKXKXKXKXKXKXKXKXKXKXKXKXKXKXKXKXKXJXJXFXZXCXmXkXjXdXeXyXuXuX:X'.yXfX",
"=.=.=.6.7.q.e.a.j.n.M.C.F.E._.|..XOX-XwXtXjXvXCXZXHXFXGXLXLXKXKXKXKXKXKXKXKXKXKXKXKXKXKXKXKXKXKXKXKXKXKXKXKXKXKXKXKXKXKXKXKXKXKXKXKXKXKXKXKXKXKXKXKXKXKXKXKXKXKXKXKXKXKXKXKXKXKXKXJXHXAXCXmXkXkXvXhXfXsX8X3X=X&XXX X XyXzXHXLXJXNX@X`.V.g.w.;.*.%.&.{ } ..2.(.z.| ) ) ) ^ ^ ^ ~ $.U.L N <XGXGXmX(.$.( L L L L D Z k m A U.U.E n n n n n k k k k j m 2.E H Q fX(.E L I V D C C C C K C _ 2.| k k s s g f f s f G U.1.M m l x x B V C T T U U <.U.U.u U.,.N c z l ( | S s k k m v 3.DXbX3.H C B Z Z Z K K K ( <XvX9XW ~ 1.P G A A n ( >.>.>.&./ ^ ( U I U B L C ^ +.$.$.$X&Xz.^.D.8.6.8.q.g.x.D.D.Q.`.`.Q.m.A.J.Q.{.%XtXkXZXGXKXKXKXKXKXKXKXKXKXKXKXKXKXKXKXKXKXKXKXKXKXJXJXGXHXHXHXAXHXHXGXJXKXKXKXKXKXKXKXKXKXKXKXKXKXKXKXKXKXKXKXJXHXMXfXeX-XOX;X;X0XAXqXqX+X|.K.K.K.K.K.K.G.).AXKXJXNX).u.-.%.>.>.&. .{ [ $.oXV.r.p.g.6.=.*.%.X.' | W 4.bXzX).| _ _ _ ^ ^ ^ _ Y I | 9XzX<.| _ / [ :.g.h.g.s.s.a.a.g.g.g.d.f.$XNXAX6Xz.o.&.&.>.;.h.h.b.8XNXLXFXBXcX@X=X6X6XwXeXgXkXbXZXHXGXAXMXmXNXAXZXFXJXKXKXKXKXKXKXKXKXKXKXKXKXKXKXKXKXKXKXKXKXKXKXKXJXJXJXGXHXGXGXJXJXKXKXKXKXKXKXKXKXKXJXZXzXuXuXrXNXNXfX{.P.i.6.*.&.&...o.X.O.5.^.^.A.5.' / [ /./ S Q iXNXfXP.X._ Y L D D D D L I 1.z.+XX.~ D m m l k k l k z v (.&XQ.f.$.( D m k k k k l n E b.D.v.X.F G n f a f f f f m H ).ZXLXFX(.N Z B m l m j j v ).vX).9 u y y y y u u u a J BXbX(.} ^ ^ Y Y K K K U F 6X1.M u N s s s s s s f f f v S 1.>.P K Y _ _ ^ >.%.h.#.^.NXmX<.I K K K K K K K K I Y  .b.>.) I Y Y _ _ } } O./.sXCXJXvX>XP.Z.Q.Q.}.}.+X-XrXmXHXFXZXAXAXAXGXJXKXKXKXKXKXKXKXKXKXKXKXKXKXKXKXKXKXKXKXKXKXKXKXKXKXKXKXKXKXKXKXKXKXKXKXKXKXKXKXKXKXKXKXKXKXKXKXKXKXKXKXKXKXKXJXFXDXCXMXkXjXsXtXyXgXuX:X'.4XzX",
"=.=.6.6.7.q.e.a.j.n.M.G.K.T.].{.+X%X2XeXdXjXvXCXZXHXFXGXLXJXKXKXKXKXKXKXKXKXKXKXKXKXKXKXKXKXKXKXKXKXKXKXKXKXKXKXKXKXKXKXKXKXKXKXKXKXKXKXKXKXKXKXKXKXKXKXKXKXKXKXKXKXKXKXKXKXKXKXKXJXGXHXCXMXmXvXvXNXNXjXtX8X3X&XXX X X;XgXvXGXDXAXsXT.I.g.8.=.*.%.&.{ } _ 2.9X(.' } ..} ^ ^ ^ ~ | U.2.G Q BXFXHX(.z.$.E L L L D V m n M ,.U.W A n n n n n k k k k M G | g 3.hX(.| P P L D D C K C C V 2.2.F k k s s f f k f f f U.2.S m x x x x G G T T U | (.$.W e | 1.H H B l D | V k k k k v b IXvX).G B B Z Z C K Y Y | hXbXsXW / ..| n A A G G / &.:.:.+.~ ~ ^ I I I I I I ~ ] } <.yX).+XA.w.8.8.h.v.V.D.D.Q._.}.}.`.Q.Q._.OX3XfXMXDXJXKXKXKXKXKXKXKXKXKXKXKXKXKXKXKXKXKXKXKXKXKXKXJXJXJXGXHXHXGXGXJXJXKXKXKXKXKXKXKXKXKXKXKXKXKXKXKXKXKXKXKXJXHXMXfX8X%X X-X1X0XmXNXqX[.|.E.K.K.E.F.F.A.!.CXKXJXCX/.u.:.;.:.>.&.;.{ ' $.eXv.#.9.9.h.;.;.*.[ ' / E b iXmX(.| _ _ _ _ _ _ _ Y _ | 6XmX).G _ / o.;.h.h.p.s.f.i.p.p.g.g.5.z.eXAXAX!.$.o.&.%.;.h.w.u./.mXGXLXFXvXqX6X3X8X8XeXtXfXkXbXVXDXFXZXBXbXMXAXHXGXJXKXKXKXKXKXKXKXKXKXKXKXKXKXKXKXKXKXKXKXKXKXKXKXKXJXJXGXGXGXGXJXJXKXKXKXKXKXKXKXKXKXJXDXNXzXfXMXAXvXsXZ.i.7.=.%.%.&.$.[ X.5.m.:X/.D.@.) ] :./.F A qXkXzXzXz.X.L K K C D D D L _ >./.oX' D m m m m n m l f v <.6XoXS.s./ D m s z z k k f S D.:.v.b./ S s s s a f f f f n H 3.ZXJXFX<Xn Z Z m l x j j N ).kX).5 u a y a i u u u d 3.BXvX/.} ^ _ Y Y K K U U ( U.1.M u u d s s s s s s f s k S 2..._ Y Y _ _ } { ;.h.' /.NXhX| I K K K K K K K K I ) >.D.>.) I Y Y _ _  .o.u.).fXGXAXfXz.A.J.Q.`.}.+X&X5XzXAXGXFXZXCXAXHXGXJXKXKXKXKXKXKXKXKXKXKXKXKXKXKXKXKXKXKXKXKXKXKXKXKXKXKXKXKXKXKXKXKXKXKXKXKXKXKXKXKXKXKXKXKXKXKXKXKXKXKXKXKXKXKXJXFXDXCXMXzXjXsXtXyXgXuX%X X1XaX",
";.6.6.6.7.r.e.a.j.n.M.G.E._.}..XOX-X5XyXdXjXvXCXDXHXGXGXLXJXKXKXKXKXKXKXKXKXKXKXKXKXKXKXKXKXKXKXKXKXKXKXKXKXKXKXKXKXKXKXKXKXKXKXKXKXKXKXKXKXKXKXKXKXKXKXKXKXKXKXKXKXKXKXKXKXKXKXKXJXJXFXZXCXMXvXkXNXNXvXhX9X3X&X&XXX X@XtX0XAXGXHXzX X`.l.r.6.*.%.&.{ { _ 2.iX9X<.) } } ) ^ ^ ^ ~ 2.| G b 4.FXJX,Xz.b.$.P L L D C M n m T 1.U.W n n n n n n k k k m Z H d ).bX(.| L P L D L L L C C S 2._ V k f f s s s f f f v 2.| F G B Z B B U U T R K 2.6Xb v a n | H H N m D ( m k k z k v 0 <XNX).H B B Z B C K Y _ ,.bXAXmXz.( Y | V V Z H S S ` :.v.:.' ~ ^ ^ I I I I ^ I ^ } $.(.=X=X/.0.8.h.g.V.V.D.J.Q.].}.}.}._._.].&X6XjXMXGXKXKXKXKXKXKXKXKXKXKXKXKXKXKXKXKXKXKXKXKXKXKXKXKXJXJXGXGXGXGXJXJXJXKXKXKXKXKXKXKXKXKXKXKXKXKXKXKXKXKXKXKXJXHXNXfX8X%X X-X1X0XdXzX1X X_.E.K.K.E.+XP.G.!.AXKXJXAX/.5.:.;.>.>.%.%.%.$.z.fXD.#.@.O.*.%.&.{ [ ' ` ~ A (.zX(.| _ _ _ ) _ _ _ _ _ ( U.NXpXA U ( } :.v.h.h.y.s.s.s.h.g.p.c.z.zXAXmXz.' o.&.%.*.h.u.s.^.MXJXJXFXiXqX6X6X8X9XeXyXgXkXbXVXVXDXZXBXMXMXAXHXJXKXKXKXKXKXKXKXKXKXKXKXKXKXKXKXKXKXKXKXKXKXKXKXKXJXJXJXGXGXGXGXLXJXKXKXKXKXKXKXKXKXKXLXDXAXNXNXDXHXvX1XN.r.6.*.%.%.&.+.' $.D.Q.+Xc.:.` ^ } $./.E U.MXkXfX Xz./ L K K K C D D ^ >.>.u.b.1.G f N N m m m N u W $X$XoXv.+.E M z s z z k v p b.D.;.>.} S n s s a a f f f f f H Q AXGXFX).n Z B B l x j j N 3.vX,X4 u i i i u i i u v ).AXhXU.] ^ _ Y I L K U L ( 1.2.m i p a s s s s s s f s k C | ..Y Y Y Y _ _ } ;.*.$./.mXiXW C K K K K K K K L I ) b.v.>.) I Y Y _ _  .o.b.z.zXGXAXfXz.m.J.E.`.}.+X=X5XzXAXGXFXVXAXHXJXJXJXKXKXKXKXKXKXKXKXKXKXKXKXKXKXKXKXKXKXKXKXKXKXKXKXKXKXKXKXKXKXKXKXKXKXKXKXKXKXKXKXKXKXKXKXKXKXKXKXKXKXKXKXKXKXLXFXDXZXMXzXjXsXtXtXgXuX:X X4XgX",
"w.w.w.6.q.r.p.a.j.M.L.H.E._.{..X&X3X8XtXfXhXbXCXDXFXGXLXLXJXKXKXKXKXKXKXKXKXKXKXKXKXKXKXKXKXKXKXKXKXKXKXKXKXKXKXKXKXKXKXKXKXKXKXKXKXKXKXKXKXKXKXKXKXKXKXKXKXKXKXKXKXKXKXKXKXKXKXKXKXJXGXHXCXMXmXxXmXHXZXvXaXwX&X=X$XoX X*XeXqXmXHXAX;X|.L.a.8.=.%.&.{  ...W 0XzXU.^ } ) ) ^ ^ ^ L U } F E b <XVXvX(.b.:./ L L L G Z m m B 2.qX! n m n n n n n n n m B Z e <XCX,X,.L P P I U U U K K F 1.L l k f f s s f f f f f | | F G C K K K T T U U I 1.jXb v f r M k z m m V D m k z z k v 9 <XNX>XW B B Z Z C K Y _ ,.BXGXAXqX| K T U C C G G S F +.v.v.:.] ^ ^ I I ^ ^ ^ ^ ^ ) $.<.wXeXXXt.6.h.g.V.D.K.Q.W.].}.}.}.}.}.oX&X5XjXCXGXKXKXKXKXKXKXKXKXKXKXKXKXKXKXKXKXKXKXKXKXKXKXKXKXKXJXJXJXJXJXJXJXKXKXKXKXKXKXKXKXKXKXKXKXKXKXKXKXKXKXKXKXLXHXNXfX5X%X X*X2X4X4XeX@X{._.Q.E.E._.:XY.G.[.AXKXJXAX/.5.:.;.;.*.%.%.*.$.).fX/.#.X.[ { [ ] ] } ` ' / A <.zXqX| ) _ _ ) ) _ _ _ ^ _ Q BXHXQ U I } >.>.;.;.:.:.:.:.:.:.-.5.).AXAXhX$.[ &.&.*.;.h.u.c.oXCXKXJXDXqX6X1X6X9X9XtXuXgXkXbXVXVXZXHXAXMXCXZXHXJXKXKXKXKXKXKXKXKXKXKXKXKXKXKXKXKXKXKXKXKXKXKXKXKXJXJXGXGXHXGXGXJXKXJXJXKXKXKXKXKXKXKXJXFXFXZXHXJXHXzX!.n.e.w.;.%.%.%.@.' c.^.:XE.5.:. .} } >.b.! dXAXAXuXz.$.S D D K K C D L  .>.>.>.} F k s H N N m m n p 4.5X&XQ.u.~ G N g s c z k v W 6Xu.>.| C n d a a a a d d d f f H b bXFXDX3.N Z Z m l m j j N 4.vX0X7 u u i u u p y y A qXmXiX<.` ^ _ Y I L K T D E | ( k d d d a a a s s s j k m C T U L Y Y Y _ ..} ;.O.$.(.zXqXA C K K K K K K K I _ ) v.h.%.) Y Y Y _  . .*.c.).mXHXAX!.m.N.H.Q.`.}.+X=X7XzXZXFXDXVXAXGXKXKXKXKXKXKXKXKXKXKXKXKXKXKXKXKXKXKXKXKXKXKXKXKXKXKXKXKXKXKXKXKXKXKXKXKXKXKXKXKXKXKXKXKXKXKXKXKXKXKXKXKXKXKXKXKXKXLXFXDXZXCXvXjXsXtXuXgXgX:X%X7XjX",
"w.w.w.6.q.r.p.a.j.M.C.J.W.].{.+X&X3XeXdXhXkXbXZXDXFXGXLXJXJXKXKXKXKXKXKXKXKXKXKXKXKXKXKXKXKXKXKXKXKXKXKXKXKXKXKXKXKXKXKXKXKXKXKXKXKXKXKXKXKXKXKXKXKXKXKXKXKXKXKXKXKXKXKXKXKXKXKXKXKXJXJXHXZXMXmXgXzXAXHXZXhXwX&X&X&XoX^.oX&X(.@XAXAXyX&XI.l.q.;.;.>.&. .} ,.>XmX(./ ..) ) ) ^ ^ ^ L ^ ~ ~ H q IXvX6Xz./.$.L L L G H M m l ,.9X<.M m m m m m n n n n l z 8 ).ZXvX| L P P I I ( T U U F 1.C j f d d g g f f f k k I ( S V K K K K T ( ^ ^ S (.zX>XJ f f f s j k m l V m k k k k f 6 <XCX,XH B M B Z C I Y Y Q bXFXCXkX,.K U T C C G G F F ~ b.v.v.>.} ^ I Y ^ ^ ^ _ _ ) ' $.(.zXeX5.6.h.g.B.D.Q.Q.].].oXoX+X+XoX+X-X7XjXMXFXJXKXKXKXKXKXKXKXKXKXKXKXKXKXKXKXKXKXKXKXKXKXKXKXKXKXJXJXJXJXJXKXKXKXKXKXKXKXKXKXKXKXKXKXKXKXKXKXKXKXKXKXLXHXNXfX5X&X X%X-X1X2X-XXX{._.Q.R.K.W.3X#XZ.^.AXJXKXAX/.u.9.;.;.*.*.%.O.$.).tX/.+.[ ] ] ] ] ] ] ` ` / S W iXqX| ) _ _ ) ) ) _ _ ^ _ A IXGX3.W U _ ) ] [ [ [ [ X.X.{ { o.W ).MXvXiX$.{ &.&.*.=.h.u.A.$XZXKXKXDXqX$X$X6X9XaXtXsXfXkXbXbXSXAXZXAXCXCXZXHXJXKXKXKXKXKXKXKXKXKXKXKXKXKXKXKXKXKXKXKXKXKXKXKXKXJXJXGXGXHXHXFXLXJXJXKXKXKXKXKXKXKXKXJXLXLXGXLXKXHXfXP.x.e.w.;.&.%.*.#.' oX^.wXQ.c.+.{ ~ (./ U.6XjXNXjX+X5.' S G G K K C D ^ 1.>. ...P m H H H N m m n u 3.sXwX&Xc.o.D M g g g c z k v /.^.1.} Y j a r a a a a d d d d n v b nXFXDX3.N Z B m l l j j N Q hX,Xp u u u u p p s a ! tXfX,X<./ ^ _ I I L K T D E ,.A d d d a a a a s s j j l B C L L K Y Y Y _ _ } ;.*.E $XzXqXb Z K K K K K L I I ^ { h.h.&.^ ^ Y Y Y  . .:.5.@XzXNX8Xz.n.m.K.Q.`.+X&X3X0XzXCXHXDXCXZXLXKXKXKXKXKXKXKXKXKXKXKXKXKXKXKXKXKXKXKXKXKXKXKXKXKXKXKXKXKXKXKXKXKXKXKXKXKXKXKXKXKXKXKXKXKXKXKXKXKXKXKXKXKXKXKXKXKXJXFXDXZXCXvXjXfXtXsXfXfXwX-XrXzX",
"w.w.w.7.q.r.e.a.j.N.C.K.W.]..XXX-X5XtXdXhXvXbXZXDXFXGXLXJXKXKXKXKXKXKXKXKXKXKXKXKXKXKXKXKXKXKXKXKXKXKXKXKXKXKXKXKXKXKXKXKXKXKXKXKXKXKXKXKXKXKXKXKXKXKXKXKXKXKXKXKXKXKXKXKXKXKXKXKXKXKXJXFXZXMXvXgXgXzXNXGXbXyX-XOX+X.X].].}.^.z.sXmXzX5X}.D.g.w.>.>.&. ._ | ! sX6X<.| ( ) / / ~ ^ ^ ~ ~ D G N Q NXfX$.b.b.E I L G Z B m M W sX<.G C l Z B l n n n n n v 9 <XAXkX| L I P I T _ | T B S 2.Y l d v d d d p d s j j _ } ~ D K K K L _ _ _ _ S (.zX).p s f f f s f k k k k k k k k f 6 ).DX<XH m m B B C L I _ G pXLXZX<X,.Y U U U U G G G F S ' b.v.:.&.) _ Y _ _ ) _ _ _ _ ..z.9XsXz.Q.6.g.M.Z.T.].].[.+X&X&X+XoX+X-XeXfXmXZXGXJXKXKXKXKXKXKXKXKXKXKXKXKXKXKXKXKXKXKXKXKXKXKXKXKXKXKXKXKXKXKXKXKXKXKXKXKXKXKXKXKXKXKXKXKXKXKXKXKXKXKXLXHXNXfX5X+XoX&X2X4X4X2X%X.X_.Q.Q.Q.!.8XfXP.(.AXJXKXAX/.9.#.9.*.*.%.%.O.$.).sXb.' ` ] ] ] ) ] ` ` ) _ ^ A iXhX<.` ) _ ) ) ) _ _ ^ ( Q iXVX,XQ ( ( ) ] ] ] ] ] { { } } ..E iXAXAXqX<.}  .&.*.=.8.q.c.6XGXKXKXZXqX$X*X4X7XrXaXsXjXkXvXbXbXCXAXAXCXCXZXHXJXKXKXKXKXKXKXKXKXKXKXKXKXKXKXKXKXKXKXKXKXKXKXKXKXJXGXGXHXHXAXAXFXLXJXKXKXKXKXKXKXKXKXKXKXLXJXJXKXZX8XZ.d.8.;.*.%.o.-.' 5.&XoXuX-XZ.' ' $.dX! iXvXNXmXfX/.X.F ( S G C C L I 1.>.} ) F m N N N N n m F G u qX9XwXoX<.P C k f f g s z n <.oX/.b._ l j y a a a a a a a d f f v q lXDXZX3.n Z B l l l j j H <.qXQ u u u u u p p s v ).fXzX(.| ^ _ _ Y I L L U G U.(.v a g g a s s s s s s k l V F S C L I _ Y Y _ { %.O.W ,XzXqXv T Z K K K K L I I  . .&.>.) ^ ^ ^ Y Y _  .@.z.9XsX=XA.f.V.m.J.Q.}.+X-XuXfXzXNXZXZXCXDXJXKXKXKXKXKXKXKXKXKXKXKXKXKXKXKXKXKXKXKXKXKXKXKXKXKXKXKXKXKXKXKXKXKXKXKXKXKXKXKXKXKXKXKXKXKXKXKXKXKXKXKXKXKXKXKXJXJXJXFXDXZXCXvXjXdXsXsXjXfXwX-XsXzX",
"w.w.w.7.q.r.e.a.j.N.C.K.`.]..X%X=X5XtXdXhXvXbXZXDXFXGXJXJXKXKXKXKXKXKXKXKXKXKXKXKXKXKXKXKXKXKXKXKXKXKXKXKXKXKXKXKXKXKXKXKXKXKXKXKXKXKXKXKXKXKXKXKXKXKXKXKXKXKXKXKXKXKXKXKXKXKXKXKXKXKXJXGXDXCXmXjXsXfXmXJXDXdX2X%XOX.X|._.}.Q.A.).zXNX0X$XQ.v.h.;.>.&. .) | W (.fXU.| ( ) ) ~ ~ ~ ^ ~ ~ D D D v iXfXz.b.(.E ~ U G Z Z m M u (.6X,.j l l B m m z n n n v 9 ,XAXiX| L I P I I _ | T V S | T l d b d d d p d a j B L I F D K K C D _ _ R _ S (.mX,Xb f f f f s s f k k k k k k f g e ).DX<XH m m B B C L P _ H pXLXDX).,.Y I U L P G G G D F ~ @.h.h.>. ._ Y Y _ _ _ ) _ _ } <.).fX(.3X0.p.N.T.XXXX[.[.+X&X&XXX+X+X-XeXgXzXNXHXGXKXKXKXKXKXKXKXKXKXKXKXKXKXKXKXKXKXKXKXKXKXKXKXKXKXKXKXKXKXKXKXKXKXKXKXKXKXKXKXKXKXKXKXKXKXKXKXKXKXKXLXHXNXaX4X&X+X=X3X4X4X2X*X.X]./././.^.qXzX(.(.AXGXJXkXA.9.#.6.;.;.;.%.%.$.(.jX<.' ' ] ] ) ) ] ` ` ) _ _ A ).vXz.' } ) ) ) ) ) _ _ ( W ).BXIXJ W ( ( ) ] ] ] ] { { [ } ..W bXZXNX(.<.| ..&.*.=.8.7.D.6XLXKXJXlX$X#X*X2X7XrXaXfXjXkXvXbXCXAXZXAXCXCXZXHXJXKXKXKXKXKXKXKXKXKXKXKXKXKXKXKXKXKXKXKXKXKXKXKXKXJXGXHXHXAXAXCXZXHXJXKXKXKXKXKXKXKXKXKXKXKXKXJXLXCX XA.i.w.;.%.&.{ [ W Q.Y. XwXwXz.#.+.z.iX4.kXbXNXNX6Xb.) F P D G D D L _ 1...) F m N N N M M n M 2.1.W iX(.>X^.<.U C k f v d s a G U.D.v.1.m s s y a a a a a a a d d a d q pXFXZX3.M M B l l l s j H <.6X3.u i u i u p p g b iXNXhX).| ^ _ _ Y I I L K N iXhXJ d i y a s s s a s f k k ,.(.E G U I Y Y Y _  .>.+.W iXbX).v B Z K K K K L I I  . . . ._ Y ^ Y Y Y _  .:.z.zX9XQ.g.p.x.D.J.Q.}.+X-XeXfXzXmXMXCXVXDXJXKXKXKXKXKXKXKXKXKXKXKXKXKXKXKXKXKXKXKXKXKXKXKXKXKXKXKXKXKXKXKXKXKXKXKXKXKXKXKXKXKXKXKXKXKXKXKXKXKXKXKXKXKXKXJXJXJXJXFXDXZXCXvXjXdXsXgXkXjXuX1XsXzX",
"w.8.8.7.q.r.p.a.j.M.H.K.`.]..X%X=X8XtXdXhXvXbXZXDXFXLXJXJXKXKXKXKXKXKXKXKXKXKXKXKXKXKXKXKXKXKXKXKXKXKXKXKXKXKXKXKXKXKXKXKXKXKXKXKXKXKXKXKXKXKXKXKXKXKXKXKXKXKXKXKXKXKXKXKXKXKXKXKXKXKXKXGXDXCXmXzXgXaXvXLXLXbXiX*X%X+X{.].`.Q.D.z.6XmXvX$XQ.V.h.;.&.&. . .} ' <.sX6X<._ _ _ ( ~ ~ ^ ~ I L L D A 4.zXoXz.=X$.S L U Z Z M G v W qXU.G B l n m x x N n n v b iXAX0X| L I I I Y _ | T D F ( U B v d d d d d f a k T ( L V D C K D D _ Y Y _ S (.zXqXb f s s s s s s f f k k k k f g i 3.jX(.H B B C C C L U _ H pXLXFX).,._ I I L P U G G D F F ` :.h.:.&.) _ _ ^ / / ) } } ..$.<.,XkXiX5.u.m.oXwX5X X.X#X$X=X#X+X+X-X4XrXzXNXZXGXJXKXKXKXKXKXKXKXKXKXKXKXKXKXKXKXKXKXKXKXKXKXKXKXKXKXKXKXKXKXKXKXKXKXKXKXKXKXKXKXKXKXKXKXKXKXKXKXKXJXFXAXmXaX4X=XwX-X2X4X5X2X%X.X|./././.^.(.zX$X(.CXGXGX0Xc.=.*.;.;.;.;.&.%.<.hXMX! ' ( | _ } ] ] ` ` ) _ _ W 4.NX(.$...) ) ) ) ) _ _ ( W 4.BXDX).W ( ( | } ] ] ] [ [ [ [ ] ,.ZXZXmX).<... .&.*.=.6.6.Q.1XFXKXZXqX$X$X6X4X7XrXgXjXkXvXvXbXZXHXHXHXCXCXZXFXJXJXKXKXKXKXKXKXKXKXKXKXKXKXKXKXKXKXKXKXKXKXKXKXKXJXGXHXAXAXNXmXmXMXHXJXKXKXKXKXKXKXKXKXKXKXJXGXVXiXY.f.q.;.*.%.;.o.' #.`.5.{.:X:XP.a.f.!.zXcXNXAXpX<.<.} ~ D D S S D D L ..2.} F M M Z M N M M V M 1.1.$.tXfX4.W S V Z k f d d m V $.b.s.:.E k y y s a a a a a a a d d a p b vXGXDX).M N N l k l s j G <.U.U.7 p i r i p p f b IXHXmX).E Y _ Y Y I L L U H bXbXp r h h g a a a a f f v v U.(.E G L P I Y Y _  .b.+.W iXBX<Xb m Z K K K C D P ~ &. ._ Y Y Y Y Y Y Y  . .b./.zX9XD.8.e.l.B.J.Q.}.}.&XwXfXzXzXzXNXZXFXKXKXKXKXKXKXKXKXKXKXKXKXKXKXKXKXKXKXKXKXKXKXKXKXKXKXKXKXKXKXKXKXKXKXKXKXKXKXKXKXKXKXKXKXKXKXKXKXKXKXKXKXKXKXKXKXJXJXJXFXDXZXCXbXjXdXdXgXkXjXuX4XgXzX",
"w.8.8.7.q.r.a.a.j.M.H.K._.[.+X&X1X8XtXdXhXvXbXZXFXGXLXJXKXKXKXKXKXKXKXKXKXKXKXKXKXKXKXKXKXKXKXKXKXKXKXKXKXKXKXKXKXKXKXKXKXKXKXKXKXKXKXKXKXKXKXKXKXKXKXKXKXKXKXKXKXKXKXKXKXKXKXKXKXKXKXKXLXHXZXmXzXfXaXlXFXLXVXlXqX*X%X.X[.}.Q.D.#./.kXmX$X].D.y.;.;.&. . .} ' $.).sXU.<.) _ ( ~ ~ ^ ~ I L D F G v iXeXz.&XU.S L U Z Z B M v v <.(.S M U.H n x x z N m v b IXAXqX| L I I U Y _ | T U F F F Z N g g g d d v a f ,.1.| M C C C D D _ _ Y _ ( (.kX<Xb f a s s s s s f f f k s s s f d W 6XU.E V C C C C L I | H pXJXHXiX,...I I L P U G F F F F ~ [ :.h.>.} ^ I _ ^ / ` ) } ....$.! iXiXz.5.c.&XzXfX XXX=X=X=X&XXXOX-X2XeXgXmXAXHXJXKXKXKXKXKXKXKXKXKXKXKXKXKXKXKXKXKXKXKXKXKXKXKXKXKXKXKXKXKXKXKXKXKXKXKXKXKXKXKXKXKXKXKXKXKXKXKXJXGXHXNXzXrX7X8XeX3X2X5X5X2X%X.X|.Y././.^.).zX0X).mXAXAXqXs.;.*.;.;.;.;.&.>.<.bXZXQ ( ( | _ } ] ] ` ] ) ) ^ | ! mX0X<.2.) _ ) ) _ _ ( ( W Q bXZXbXW ( ( | } ] ] ] [ [ X.[ E ).ZXZXzXz.$...&.%.;.;.8.5.}.@XDXJXmX@X$X&X6X4X7X0XgXjXvXmXmXvXZXGXGXHXAXCXZXHXGXJXKXKXKXKXKXKXKXKXKXKXKXKXKXKXKXKXKXKXKXKXKXKXKXLXGXAXAXNXmXzXjXvXDXKXKXKXKXKXKXKXKXKXKXKXJXHXhX(.R.j.7.=.*.%.&.&.O.D.B.P.OXwX-X&XK.H.Y.zXsXjXmXmX(.E ~ P P D D S D D ) 2./ _ V V V M V M M M V V U.U.W <.fX(.S C Z l j k v v M F b.u.u.` f n y s a a a a a a a a d d f d Q CXJXDX).A M m l k k s j G ' 1.| e i r r r p p f b bXZXvX).E U I U U I L K x W vXBXb a p i a a a a a a f v d (.(.W G L U I Y Y _ ..1.>.W ,XVXIXQ G C K K K C F P ~ >...^ L Y Y Y _ Y _ }  .b.=XjXdXA.e.e.l.S.R.Q.}.}.&X6XsXfXzXzXmXDXLXKXKXKXKXKXKXKXKXKXKXKXKXKXKXKXKXKXKXKXKXKXKXKXKXKXKXKXKXKXKXKXKXKXKXKXKXKXKXKXKXKXKXKXKXKXKXKXKXKXKXKXKXKXKXKXJXJXJXLXGXFXZXCXbXjXfXdXdXjXjXtXwXgXkX",
"w.w.w.0.0.i.i.k.N.M.H.E._.[.+X&X3X8XsXfXhXvXBXZXFXGXLXJXKXKXKXKXKXKXKXKXKXKXKXKXKXKXKXKXKXKXKXKXKXKXKXKXKXKXKXKXKXKXKXKXKXKXKXKXKXKXKXKXKXKXKXKXKXKXKXKXKXKXKXKXKXKXKXKXKXKXKXKXKXKXKXKXJXGXHXMXmXjXaXhXbXDXDXZXaXyX2XXX[.].E.S.v.z.hXNX1XoX^.D.#.;.;.{  .} ] W ! 8X8X/.X.) _ ^ ^ ^ ^ I P L L G M U.fX(.oX=X| I K Z Z M M M M M (.| Q iXH m j j N N m v 4.bXCX,X<.L I I I I _ | Y U F 2.3.H N s s s s s a f d U.iXQ G V C C G D _ _ Y _ | (.vX,Xp k k s f f f f k k f f f f s f f A b.b.( C C C C C L U L Q IXJXHXkX,.( I I P L P F F F F F E / &.:.:.+.] ^ ) ^ / ) ) }  . . .$.$XuX}.N.G.wXvXbXeXXX3X5X6X1X%X X-X3XwXsXkXMXHXGXJXKXKXKXKXKXKXKXKXKXKXKXKXKXKXKXKXKXKXKXKXKXKXKXKXKXKXKXKXJXJXLXKXKXKXKXKXKXKXKXKXKXKXKXKXKXKXLXDXCXkXfXrX7XdXfXwX@X5X5X3X-XOX|.W./././.>XzXzX>XiXkXiX).u.*.;.;.;.;.;.&.>.<.CXZXqXW _ } ) ] ] ] ] ] ] ) _ ( A 0XmX3.$.} _ _ / / ( ( ( ( Q 0XZXBXb 2.( } ] ] ] ] ` ' $./.z.kXDXHX8X$.>.} &.;.;.;.w.t.^.qXGXHX0X!.#X$X6X4X7XrXgXhXvXmXvXvXVXGXGXHXCXCXZXHXGXJXKXKXKXKXKXKXKXKXKXKXKXKXKXKXKXKXKXKXKXKXKXKXKXLXGXZXCXmXkXjXhXlXPXKXKXKXKXKXKXKXKXKXKXKXJXHXiX(.Q.n.7.;.*.&.&.o.O.Q.l.C.fXkXNXzX:XV.5.^.tXqXvXkX$X:.~ P D D D S F / ) } _ I C C C V V V M M M G V (.,X! $.1.~ B Z z l l n v S 1.U.u.[ S f a g g a d a a a a a a a a a p 4.bXJXZX).A N N l l j s k S ..} E t r r h p t g n v 4.bXvX).G U U U U K K K U ,.,XMX,Xu g r a a a a a a f v f <.8XU.G K U U Y Y U _ ..$.W 3.DXIX3.C C K K K U P P ~ } 2.2.1.| .._ Y _  .&.>.:.6XzX0Xf.8.a.V.B.J.Q.}.{.&X5XrXgXjXzXNXDXJXKXKXKXKXKXKXKXKXKXKXKXKXKXKXKXKXKXKXKXKXKXKXKXKXKXKXKXKXKXKXKXKXKXKXKXKXKXKXKXKXKXKXKXKXKXKXKXKXKXKXKXKXKXKXKXJXJXJXLXGXDXDXZXbXkXhXdXdXjXjXtXyXdXjX",
"w.w.w.q.r.i.i.k.N.M.H.E.].[.+X&X6X8XsXfXhXvXBXZXHXGXLXJXKXKXKXKXKXKXKXKXKXKXKXKXKXKXKXKXKXKXKXKXKXKXKXKXKXKXKXKXKXKXKXKXKXKXKXKXKXKXKXKXKXKXKXKXKXKXKXKXKXKXKXKXKXKXKXKXKXKXKXKXKXKXKXKXKXLXHXCXmXkXaXdXhXvXDXDXjXrX4XXX[.].`.H.V.b.).zXsX X&XQ.i.w.*.&. . .] ' W 6XfX6X<.' ) ^ ^ ^ ^ ^ I L L L B G sXeX!.wX1.| L Z Z M M V B B 2.1.<.0XA v Z l N n l n ).CXMXqX<.I P I I I I _ | C m 2.(.A H s g s j j f f v qX0Xb N Z B C D L ^ _ Y _ | (.bX<Xb N k s s f f f k s f f f f s f f N $.:.} C C C C K L U T H IXJXHXvX<.( P I L L L F F F F F P ~ [ >.:.-.&.[ ) ^ ) ) ) )  . . .X.z.uX:XP.T.yXCXAXtX@X5X5X5X5X-X XOX-X3X9XjXmXZXFXLXKXKXKXKXKXKXKXKXKXKXKXKXKXKXKXKXKXKXKXKXKXKXKXKXKXKXKXJXLXLXLXKXKXKXKXKXKXKXKXKXKXKXKXKXJXJXGXZXvXfXtX7X0XdXjXeX@X5X5X3X*XOX|._.R.D./.z.fXkX).4.(.<.<.-.*.;.;.;.*.%.&.&.<.hXbXdX' .. .) ] ] ] ] ] ] ) ) / A (.bX(.'  ._ _ / ` ( | ( | W 3.ZXBXA | | / ] ] ] ] [ X.$.$X).CXGXbX$X$.o.&.&.*.;.;.w.c.[.0XHXHX@X[.oX$X6X4X7XrXgXjXkXvXvXnXbXHXHXZXCXCXZXHXGXLXKXKXKXKXKXKXKXKXKXKXKXKXKXKXKXKXKXKXKXKXKXKXKXLXFXZXMXmXkXhXlXIXFXKXKXJXKXKXKXJXKXKXKXJXGXAXdX@X^.m.6.*.%.&.&.{ O.D.g.Z.mXVXGXAXoXK.d.5.U.6XvXiX/./.2._ U D P F P ) } ) ( P C C C V V V M V m k B d U.fXb.[ ( V Z B B B B m A (.oX:.F m s i p p d s a a g g a a a d f d 3.CXFXGX).A N N l l j s k V ) ^ G s y r r r r g n N J ).0X<.G K K K C C B B B | U.(.,X7 a y a a a a a a f k V E U.U.G K K L U U K T _ | W (.,X).W I D L U U F P I I I | (.qXU.U.1.Y _  .&.:.b.(.mXsXz.e.g.V.S.J.Q.}.oX%X2XyXgXjXzXNXHXLXJXKXKXKXKXKXKXKXKXKXKXKXKXKXKXKXKXKXKXKXKXKXKXKXKXKXKXKXKXKXKXKXKXKXKXKXKXKXKXKXKXKXKXKXKXKXKXKXKXKXKXKXKXKXJXJXJXLXLXGXDXDXCXbXkXhXdXdXfXfXsXtXfXjX",
"q.q.q.q.r.i.a.j.M.C.K.W.].[.XX=X3X8XsXfXkXvXBXZXFXLXJXKXKXKXKXKXKXKXKXKXKXKXKXKXKXKXKXKXKXKXKXKXKXKXKXKXKXKXKXKXKXKXKXKXKXKXKXKXKXKXKXKXKXKXKXKXKXKXKXKXKXKXKXKXKXKXKXKXKXKXKXKXKXKXKXKXKXLXHXAXCXkXaXtX7XiXMXZXNXgX7X@X X].`.K.D.b.<.8XzX@X3XoXD.6.*.&. . .] ` E U.zXfX/.$.` / ^ ^ ^ ^ I U L L K n (.sX!.=X/.( D Z Z B B B C C T 2.3.dXU.A N a N N x N ).CXbXqX<.I P P I I I _ U C D 1.U.v N z s f j j j f p hXiXQ N Z B C D L ^ _ _ _ ( (.CX<XJ N k f f f f f f f f f s s s f n n / >.) K C C C K L U | W pXJXHXmX).( P I P L L L L F F P P P / o.:.u.u.;.{ ) _ _ _ ) }  . .X.>XzXzX@X XfXZXHXtX@X5X8XtXeX3X;X X%X3X8XdXvXCXDXLXKXKXKXKXKXKXKXKXKXKXKXKXKXKXKXKXKXKXKXKXKXKXKXKXKXKXKXKXKXLXLXKXKXKXKXKXKXKXKXKXKXKXKXKXJXLXFXCXkXsXeX1XqXpXlXeX@X5X5X5X-X+X{._.Q.D./.z.6XMX,X,.1.:.&.%.*.*.*.%.%.O.o.o.:.6XtX$X' [ ) } ] ] ] ] ] ] ] } ^ S ).CXhX$.} _ | ( ' | | | | | J GXGX(.( ( } ] ] ] ] ] ' ! eXlXHXZXmX/.$.{ >.%.*.;.;.w.m. XsXAXNX!.].oX&X1X4X7XrXaXfXkXmXvXlXlXMXAXAXCXCXZXHXGXLXKXKXKXKXKXKXKXKXKXKXKXKXKXKXKXKXKXKXKXKXKXKXKXGXDXVXbXvXlXnXIXIXLXKXLXLXJXJXJXJXKXJXLXGXGXAXjXqX&XY.7.=.*.%.&.{ :.v.p.A.NXGXKXHX#XQ.V.6.[ | U.iX8X).E ~ | G ( P ^ { { ] ( P C C C C V V M M M m N N d W (.U.| K K K C C K V <.6X^.E B l s p d p d s a a g g g g a d a Q J bXZXZX<.n M N l z s s k Z P C C H y y i i r g z B | W $.$.C Z Z Z B x l l Z ,.$.` a k z s a a a a a s f k V 2.2.1.G Z B B C C C C D E W (.(.! ~ P U T G G E I Y Y _ | 0XiX6X6X<._ ) { &.:.v./.fXzXc.g.g.B.D.J.Q.}.oX%X2XyXgXjXmXCXHXGXKXKXKXKXKXKXKXKXKXKXKXKXKXKXKXKXKXKXKXKXKXKXKXKXKXKXKXKXKXKXKXKXKXKXKXKXKXKXKXKXKXKXKXKXKXKXKXKXKXKXKXKXKXKXJXJXJXJXLXGXFXDXZXbXkXhXdXdXfXfXsXsXfXhX",
"q.q.q.q.r.i.a.j.M.C.J.W.]..X#X=X6X8XdXfXkXvXBXZXFXLXJXKXKXKXKXKXKXKXKXKXKXKXKXKXKXKXKXKXKXKXKXKXKXKXKXKXKXKXKXKXKXKXKXKXKXKXKXKXKXKXKXKXKXKXKXKXKXKXKXKXKXKXKXKXKXKXKXKXKXKXKXKXKXKXKXKXKXLXHXAXCXkXaXtX2X4XjXNXNXzX9X@X X].`.K.D.b.u./.zX7X$X-X`.q.*.;.&. .] / ` E qXiX$X:.' / / ^ ^ ^ I I L L x V ! zX$XoXoX' G C Z Z Z C C C C T ,.3.qXA N N N m l n 4.vXmX,X<.I P P I P I I C B M | 6X,.M l j j j j s N u 0XkX,XH T C C D L ^ _ Y _ F (.BXpXQ N f k f f f f f f f f k f s f k M / } _ K C B C C K U ..,.<XJXGXNX).~ P I P L L L F F F L P I ^ ` #.u.v.g.&.} _ _ ) } {  . .X.(.NXNXjXcXzXGXGXtX@X4X7XtXtXeX;X'..X-X5X9XhXbXDXFXLXKXKXKXKXKXKXKXKXKXKXKXKXKXKXKXKXKXKXKXKXKXKXKXKXKXKXKXKXKXLXKXKXKXKXKXKXKXKXKXKXKXKXJXJXFXZXvXdX8X5XqXqXpXlXeX#X6X5X6X=XOX{.|.Q.R././.).NX,X<.>.%.%.%.%.%.%.%.&.o.X.X.u.oX&XD.#.o.[ ] ] ] ] ] ] ] ] ) ) S ).ZXbX<.] } ) | ' ( ( _ _ | W BXZX(.F ( / ] ] ] ] { +.! 9XmXHXBXqX$.*.&.&.%.*.;.h.=.D.XXzXHXpX!.E.oX&X=X6X7XrXaXfXjXmXvXlXxXzXNXMXMXbXZXDXFXLXKXKXKXKXKXKXKXKXKXKXKXKXKXKXKXKXKXKXKXKXKXKXJXGXDXCXnXnXlXIXIXIXLXLXLXFXLXJXLXLXLXLXGXGXHXAXzXrX5X^.x.q.w.;.*.X.y.y.t.Y.NXJXKXHXeXD.#.O.} { 2.<.$XtXU.~ F | ( ~ / { } ) ^ I C C C C V V V V m m H m f A v W ,.K L L L K K D <.eXU.v m j s a d d d s a a a a a a a a z H b ,XVXIXQ H N N k k s s k Z C m l N y a a i r a z B T ..I C B B l l l l j j k | } } m j j f f a a a a s f k V 2.1.| G Z B x x x x B C V G (.eXb.] I U U E E ~ I Y Y Y A iXjXzXsX<.$.` { &.:.g.A.(.yXc.x.V.D.D.J.Q.}.+X&X3XeXdXkXmXCXHXFXJXKXKXKXKXKXKXKXKXKXKXKXKXKXKXKXKXKXKXKXKXKXKXKXKXKXKXKXKXKXKXKXKXKXKXKXKXKXKXKXKXKXKXKXKXKXKXKXKXKXKXKXKXKXKXJXJXLXLXGXFXZXZXbXkXhXdXgXfXfXsXsXfXfX",
"y.y.y.t.i.i.a.j.M.C.K.W.[..X&X=X5X9XdXfXkXbXBXDXFXLXJXKXKXKXKXKXKXKXKXKXKXKXKXKXKXKXKXKXKXKXKXKXKXKXKXKXKXKXKXKXKXKXKXKXKXKXKXKXKXKXKXKXKXKXKXKXKXKXKXKXKXKXKXKXKXKXKXKXKXKXKXKXKXKXKXKXKXLXFXZXBXvXgXeXwX2X4XsXNXzX9X*X X].`.K.S.x.9.5.zXfX$X+X:Xi.#.;.&. .] / ) ` z.oX^.b.>.) ) ^ ^ ^ ^ I I L U V b (.sX1XoXz.G Z C C C V V V B C G ,.,.M M m N n n H b (.zX<.| I L L C C C C C m A ,.(.1.D l k k k k s N H ,.kX,XG B C K K K _ Y Y I D 3.AXAX3.N a k f f f f f f f f k k k k m C ) } ) C B B B K K R Y ,.Q bXJXDX<.( U U P I L L L L L P P P ^ / X.u.D.v.;.} ] }  . .&.&.;.:.0XNXHXHXlXAXFXFXfX5X4X7XsXfXsXwXT._.OX2X4XgXvXZXFXLXLXLXKXKXKXKXKXKXKXKXKXKXKXKXKXKXKXKXKXKXKXKXKXKXKXKXKXKXKXKXKXKXKXKXKXKXKXKXKXKXKXLXLXLXFXVXiX8X6XqX,X,XpXkX@X X3X5X6X3X=X+X}.`.R.D.Q.P.dXjX$.;.;.O.O.%.%.%.&.&.&.o.O.u.^.Q.v.;.O.o.[ [ [ } } } ' ' ] ~ / U.CXAX(.$.] } ' ' ) _ _ _ ( E ).fX1./ ' ' ' ' ` ]  .] $.6XhXAXHXvX$.*.*.*.*.;.w.y.p.A.qXMXZXpX).oX}.+X-X6X7XrXgXdXjXzXvXkXdXjXmXvXvXbXBXZXFXLXKXKXKXKXKXKXKXKXKXKXKXKXKXKXKXKXKXKXKXKXKXKXJXGXPXVXnXSXIXIXIXIXPXLXPXUXFXLXLXLXLXGXFXPXAXAXzXxXtX3X}.H.n.d.0.0.q.e.6./.AXJXJXAX3X-.' X.X.[ X.$.$.$./.1...} ) } ] { ] / I L D C S C C C C V m m m m m m n n m Z D F U L _ $./.^.6XW f s s s s s s s f a s s s s s s s N H Q hXiX3.H N n f f s s s k k k k f a a a a p p f s T T K B j j k j j j s s s H ,.E f f f f d d d a s s f f m | 1.( B B B B B B B B C C G ,.(.1._ I I P ~ | Y Y Y Y R T ).bXAXNX,X$.{ { &.%.h.s.oX'.N.f.m.D.D.J.Q.}.+X&X6X9XdXjXbXCXHXFXLXKXKXKXKXKXKXKXKXKXKXKXKXKXKXKXKXKXKXKXKXKXKXKXKXKXKXKXKXKXKXKXKXKXKXKXKXKXKXKXKXKXKXKXKXKXKXKXKXKXKXKXKXKXKXJXJXJXLXFXDXZXCXbXkXhXdXgXgXgXsXfXfXdX",
"y.y.y.t.i.i.a.j.M.G.E.W.[..X&X=X5X9XdXhXkXbXBXDXFXLXJXJXKXKXKXKXKXKXKXKXKXKXKXKXKXKXKXKXKXKXKXKXKXKXKXKXKXKXKXKXKXKXKXKXKXKXKXKXKXKXKXKXKXKXKXKXKXKXKXKXKXKXKXKXKXKXKXKXKXKXKXKXKXKXKXKXKXLXGXDXCXMXkXgX7X4X2XqXzXjX9X1XoX[.`.K.H.V.h.5.$XzXeX[.:XN.6.*.%.&.[ ` ) ] ' u.b.:... .) ) ^ ^ ^ I I P U V v ).mX X!.b.| G G U C V V M m B C T V B m m m n n H ,.6X/.<.( L D C V B B B V V v U.U.( V l k k k k k n ,.,X(.W W G K K K K R U K K C <.NX0Xb f k k k f f f f f f f k k k k m D } } ] D B B B C K R U | Q kXLXVX<.^ U U P P L L L L L P I I I ~ ' :.D.v.>.o.{ o.%.&.;.;.>.u.$XNXDXGXnXbXDXDXjX5X4X7XtXfXjXeX|.|.OX2XeXdXbXZXFXJXKXKXKXKXKXKXKXKXKXKXKXKXKXKXKXKXKXKXKXKXKXKXKXKXKXKXKXKXKXKXKXKXKXKXKXKXKXKXKXKXKXJXFXPXPXbX0XqXqXqX,X,XiXhX1X#X3XwX6X3X6X#X{.`.R.D.K.Z.qXfXz.9.=.*.O.%.%.%.%.&.%.o.@.u.K.D.y.*.O.o.[ [ [ [ } } ' ' 2./ ~ <.mXAX6X<.] ] ` ] }  ._ _ | | E U.$.` ] [ ' ' ` ]  .%.$.z.iXmXAXmX$.*.*.*.-.9.0.i.p.A.qXMXZXNX!.^.}.oX&X1X8X0XaXdXjXzXvXkXfXjXzXvXvXnXVXVXFXLXJXKXKXKXKXKXKXKXKXKXKXKXKXKXKXKXKXKXKXKXKXKXLXGXDXVXVXSXSXIXPXPXPXLXUXUXPXLXGXGXGXFXFXZXAXNXzXjXsXwX+X|.W.K.N.n.n.V.f.Z.AXGXHXkXU.O.X.X.X.X.+.+.o.o.+.+.&.&...} } } ] / I D D D D S C C C V M B m m B B m N N M M C | | ) $.^.^.).Q d s s s s s s s s d f f f f d s j z H H b 3.H N f s a s s s s s s s s s a a a a p p d s H Z x x k k k j s s s s a N H H f f f d d d a a s s f s k Z | T Z m B B B B B B B C C L 1.| Y I I L I | _ _ Y Y R T W ,XvXhX6X1.o. .&.%.v.u.}.}.L.f.m.D.D.J.Q.}.oX&X6X9XdXjXbXCXZXHXLXJXKXKXKXKXKXKXKXKXKXKXKXKXKXKXKXKXKXKXKXKXKXKXKXKXKXKXKXKXKXKXKXKXKXKXKXKXKXKXKXKXKXKXKXKXKXKXKXKXKXKXKXKXKXKXJXJXLXFXDXZXCXbXkXhXdXdXgXgXgXfXfXdX",
"h.h.y.t.p.a.d.n.M.G.E.W.[.XX&X1X5X9XdXjXkXbXBXDXFXJXJXJXKXKXKXKXKXKXKXKXKXKXKXKXKXKXKXKXKXKXKXKXKXKXKXKXKXKXKXKXKXKXKXKXKXKXKXKXKXKXKXKXKXKXKXKXKXKXKXKXKXKXKXKXKXKXKXKXKXKXKXKXKXKXKXKXKXLXGXHXAXAXAXMXhXiX7XqXdXdX8X1XoX[.W.K.G.B.g.i.<.zXdX).+X`.5.=.%.%.[ ` ] } { +.+.}  .} ) ) ^ ^ ^ ^ I P L V v Q vXaXz./.<.T L U C V M M V V B V V m m m m n n H Q iX(.W F D V B B m m m l M M U.1.^ B l f f k k n v Q jX,.H Z Z K K C C K K Z m f <.fX4.b k s y k k k k f f k k k k k k M ( ..} ] D V B B C K R K ( W hXFXBXU.D U U L P L L L L L P P I I / ' $.u.b.;.o.%.*.;.;.:.h.h.v.A.@XZXJXCXpXVXZXfX6X4XeXtXgXjXsX-X{.;XwXdXvXCXHXJXJXKXKXKXKXKXKXKXKXKXKXKXKXKXKXKXKXKXKXKXKXKXKXKXKXKXKXKXKXKXKXKXKXKXKXKXKXKXKXLXLXPXPXFXPXPXBXiX0XqXqX<X,XpXjX8X6X6X5X5X3X=X#X{._.Q.J.K.T.).sXD.t.w.9.*.;.%.%.%.%.%.%.O.#.v.s.9.O.o.o.[ [ [ [ [ } ' ' ..' / W ,XkX).$.' ] } }  . .} ] / | $.E / ' [ ' ' ' [ [ o.%.&.' $.z.U.U.#.*.=.=.w.w.t.s.i.A.@XzXNXhX!.T.].oX&X1X8X0XaXdXjXvXmXvXxXjXvXvXbXbXBXDXFXLXKXKXKXKXKXKXKXKXKXKXKXKXKXKXKXKXKXKXKXKXKXKXJXLXGXDXZXVXVXVXPXPXPXLXLXPXFXGXGXGXLXFXDXZXAXNXkXjXgXeX-XOX+X+X_.Q.E.K.C.P.iXAXAXfX$.O.O.O.@.O.O.O.+.&./ [ { &.>.>...} ] / I D D D D D C V V V V M m m m m m B B x x l B G | u.c./.<.N s s j j j j s f f f f f s s s f k k z v v d p i a a f f f s s s s s s a a a a a d d d s s k k k k f f s s s s f f f f f f f a a a a a a s s s s k k Z B B B B B B B B B B V C C T I P L I P I ) o.} _ Y Y _ | | <.).b.%. . .%.;.>.-.}.:XE.M.A.D.D.K.Q.}.oX$X6X8XiXhXvXbXZXDXGXJXKXKXKXKXKXKXKXKXKXKXKXKXKXKXKXKXKXKXKXKXKXKXKXKXKXKXKXKXKXKXKXKXKXKXKXKXKXKXKXKXKXKXKXKXKXKXKXKXKXKXKXKXKXJXJXJXGXFXDXZXCXbXkXhXdXdXgXsXsXfXfXsX",
"h.h.y.t.p.a.d.n.M.F.E._.[.XX=X1X5X9XdXjXkXbXCXDXFXJXJXJXKXKXKXKXKXKXKXKXKXKXKXKXKXKXKXKXKXKXKXKXKXKXKXKXKXKXKXKXKXKXKXKXKXKXKXKXKXKXKXKXKXKXKXKXKXKXKXKXKXKXKXKXKXKXKXKXKXKXKXKXKXKXKXKXKXJXGXGXHXHXHXHXbXhX9X8X9X9X8X=XXX[.~.E.G.M.l.v.z.zXkXqX'.`.i.0.*.O.X.[ } { { { { } } } ) ) ^ ^ ^ ^ ^ I D M n ,.vXNX(./.b.| I U C C V M V B B B m m m m m m n H W (.iXW S C B m m m l l k k S 1.b.| B z f f k l f H ! zX<.n j x x Z B Z C x x l V U.fX(.W n s n k k k k f f k f k k k k V ( 2.} ) D V V B C K K C G W iXbXpXH P P P L P P L L L L P P P I / ` [ $.#.O.O.*.;.h.h.h.h.v.v.f.<.hXFXCXpXbXkXfX5X5X0XsXaXjXfXeX-X2XrXlXVXHXGXJXKXKXKXKXKXKXKXKXKXKXKXKXKXKXKXKXKXKXKXKXKXKXKXKXKXKXKXKXKXKXKXKXKXKXKXKXKXKXKXKXKXLXLXLXFXFXVXlXpXpXpX<XqXpXkXdX8X8X8X5X3X=XXX{.'.E.J.R.!.).3XQ.s.y.y.=.;.*.*.*.*.%.%.O.@.y.0.=.O.O.o.o.[ [ [ [ [ ' ] ` ` ] E ! 9X8X<.' ] } } } } ] ] ~ ' ' ` ` ' [ [ [ [ [ [ { o.O.o.+.$.+.#.*.=.;.w.w.q.p.s.s.A.#XfXfX X!.~.].oX&X=X5XrXaXhXjXmXmXvXlXvXbXCXZXZXDXFXLXJXKXKXKXKXKXKXKXKXKXKXKXKXKXKXKXKXKXKXKXKXKXKXLXLXLXFXDXDXDXFXFXLXPXFXLXLXLXJXGXGXLXFXDXAXAXNXkXjXgXeX*X;XOXOX+X}.+X}.P.P.).zXNX0X$.O.*.*.@.*.@.*.%.O.[ [ [ ~ &.>...} ] / I L D D D D G V G V m m m m B B m B B x j j l m E $.$XU.,.k s j k j j j f f f f f f s s s f f f f d u v a d f f f f s s s s s s s a a a a a s d d d r a a f f f f f s s s f f d a a f a a s a g g s s s s s j j m m m B B B B B B B V C C C C C D L I P I ) @.o.} Y _ } } _ E ' +.}  .&.%.;.:.u.5.`.`.S.A.A.S.K.Q.}.oX$X=X8XiXdXhXbXCXZXGXLXJXKXKXKXKXKXKXKXKXKXKXKXKXKXKXKXKXKXKXKXKXKXKXKXKXKXKXKXKXKXKXKXKXKXKXKXKXKXKXKXKXKXKXKXKXKXKXKXKXKXKXKXKXJXJXJXGXFXDXZXCXbXkXhXdXgXfXdXdXsXsXyX",
"h.h.p.i.i.d.d.N.C.J.W.].{.XX=X6X5X9XdXjXkXbXCXDXFXLXJXJXKXKXKXKXKXKXKXKXKXKXKXKXKXKXKXKXKXKXKXKXKXKXKXKXKXKXKXKXKXKXKXKXKXKXKXKXKXKXKXKXKXKXKXKXKXKXKXKXKXKXKXKXKXKXKXKXKXKXKXKXKXKXKXKXJXJXJXGXHXHXFXDXBXvXsX9X9X8X6X=XXXoX^.T.F.C.n.c.z.jXAXjX).+XJ.f.6.@.+.X. . .{ o.o.]  . .} ) ) ^ ^ ^ ^ I F S S b hXzX3X^./.>._ Y K C V M M m B B m m m m m N n S S ( (.1.S V m m l l l l z m S | 2.P N z f f k l k b ! iX,Xb p z l l z k l l x x B 1.hXhXH k f f k k k f k k k k k k k n S U 1.| ( D V V B B C K C S G <.iX,X| T L F F F L L P P P P I P I / ` [ X.X.O.O.*.u.v.h.g.g.v.v.j.z.).NXZXlXpXsX1X6X8X9XsXgXjXjXsXsXsXxXBXFXLXJXJXKXKXKXKXKXKXKXKXKXKXKXKXKXKXKXKXKXKXKXKXKXKXKXKXKXKXKXKXKXKXKXKXKXKXKXKXKXKXKXKXKXKXKXJXLXFXDXCXBXBXbXcXpXlXmXhXiX9X9X8X5X=X%X X'.W.R.~.^.^.^.Q.d.i.p.h.h.w.;.;.;.*.%.O.@.#.#.@.O.O.o.o.o.{ { [ [ [ [ [ [ [ ' | $./.$.' ' } } } ] } } ] ] ' ' ' [ [ [ [ [ { } } o.+.+.$.$.-.-.;.;.;.9.0.t.y.s.v.m.T.=XeX=X[.T.}.oX&X=X4XrXdXjXkXmXmXMXbXBXZXZXHXFXGXJXJXJXKXKXKXKXKXKXKXKXKXKXKXKXKXKXKXKXKXKXKXKXKXKXJXJXLXLXGXGXGXLXLXLXLXLXFXLXLXJXGXGXFXFXDXZXCXNXkXjXsXtXwX-X;X;X.X+X+X&X&XY.P.oXzX0X5.w.=.=.=.=.*.*.*.O.X.{ [ [ ` ` } ..] / ~ P F F P F G G C Z B B B B Z x K j C C B B B x l m 3.6X(.G n z k k k k k k j k f f f r f a d v d N f f f f f f f f s s s f f f f s a a a i i d d p d d a d f f f f f s f f f f f f s s s s s k z z j k s j k k l l m B B B B B B B C C C C C L L L P P ^ ) X.X.{  ._ _  . .} { &.&.&.&.%.-.;.-.t.t.s.c.m.N.C.J.Q.}.oX$X$X6X9XdXhXvXMXZXDXGXLXJXKXKXKXKXKXKXKXKXKXKXKXKXKXKXKXKXKXKXKXKXKXKXKXKXKXKXKXKXKXKXKXKXKXKXKXKXKXKXKXKXKXKXKXKXKXKXKXKXKXJXJXJXJXJXLXFXDXZXCXMXkXjXdXfXjXjXdXsXtX8X",
"h.h.p.i.i.d.d.N.C.J.W.].[.XX=X6X5X9XdXhXvXbXCXZXFXGXJXJXJXKXKXKXKXKXKXKXKXKXKXKXKXKXKXKXKXKXKXKXKXKXKXKXKXKXKXKXKXKXKXKXKXKXKXKXKXKXKXKXKXKXKXKXKXKXKXKXKXKXKXKXKXKXKXKXKXKXKXKXKXKXKXKXJXJXJXGXFXDXDXZXBXkXdX9X9X8X6X=X#XoX^.~.R.A.P.z.>XfXAXzX!.+X`.n.i.6.@.o. . .{ X.X.{ }  .} ) ^ ^ ^ ^ ^ ^ / S E z.(.zX5X/.U.>.) _ K C V M V V V B m m m m m m m M S S ..| V m m l l z z z k n M S U B N N f k k k f v b Q iXQ f k z z z k k l l x B ,.(.).N k f s k k f f k k k k k k k N G G S | ( V V V B B B C C S A H W H U L F S F F F L P P P P I I ^ ) ] [ X.O.O.@.@.u.v.v.v.v.v.s.k.P.!.zXAXhXqX*X1X6X8XyXgXdXkXkXjXjXkXvXDXJXKXKXKXKXKXKXKXKXKXKXKXKXKXKXKXKXKXKXKXKXKXKXKXKXKXKXKXKXKXKXKXKXKXKXKXKXKXKXKXKXKXKXKXKXKXKXJXLXFXFXDXDXDXZXpXpXSXnXkXpXiXsX0X5X-X%X X[._.T.~.^.^.~.H.n.d.s.s.h.h.q.9.=.;.*.*.*.@.@.@.*.%.O.o.o.o.o.+.{ [ [ [ [ [ [ [ +.:.` ' } } } ' ] } } } ] [ [ ' [ [ [ [ [ { } } +.+.+.+.@.#.-.;.;.;.-.0.t.y.s.v.m.A.T.XX.X~.~.].oX&X=X4XrXgXjXvXvXMXMXZXZXDXFXFXJXJXJXKXKXKXKXKXKXKXKXKXKXKXKXKXKXKXKXKXKXKXKXKXKXKXKXJXLXJXLXLXLXLXLXLXLXLXLXFXLXLXLXGXGXGXFXDXZXCXNXkXjXgXtXwX-X;X;XXX+X+X+X&X}.N.z.6XtXc.w.6.w.=.=.=.*.*.O.X.{ } { } ] / ` / / ^ ~ P I U U U U G G V V Z B B m D F S v v A G B x Z f v 1.G n m k k k k k k k j j f k f N d b d f f f f f f f f f f f f s s f f f s a a f f v d d v v d f f f f f f f f f f f f f f f s s s f k f s s j k l l l m m m B B B B B B B C C C C L L L L P P ^ ) ' [ } } ) _  . . .{  .&.&.&.%.-.-.-.t.y.b.v.x.N.M.Z.Q.^.oXoX#X6X9XaXhXkXbXCXZXFXGXLXJXJXKXKXKXKXKXKXKXKXKXKXKXKXKXKXKXKXKXKXKXKXKXKXKXKXKXKXKXKXKXKXKXKXKXKXKXKXKXKXKXKXKXKXKXKXKXKXJXJXJXJXJXJXLXFXDXZXCXMXkXjXdXjXkXjXdXsXeX4X",
"h.h.p.i.f.d.n.V.C.J.E.]..XXX-X6X5X9XdXhXvXbXCXZXHXGXGXJXJXJXKXKXKXKXKXKXKXKXKXKXKXKXKXKXKXKXKXKXKXKXKXKXKXKXKXKXKXKXKXKXKXKXKXKXKXKXKXKXKXKXKXKXKXKXKXKXKXKXKXKXKXKXKXKXKXKXKXKXKXKXKXKXJXJXJXGXGXDXZXCXvXjXfXsX9X8X6X=X#XoX^.~.Q.Z./.(.9XdXgX7X#X+X}.H.j.i.9.@.&.o.X.[ o.[ [ ] } ) ) ^ ^ ^ ^ ^ P +.c.A.b.(.uXT.D.>.} I K C C V V V B B m m m m M m m m V m S k m m m m l z c z f v m B B B n N k k l k s k H H H N z j c z z f l l c z l D | W n n k s k k k k k k n k z z k k B G m V V m m V V B V V C C G A A A U K D F F F F F P P I I I ~ ^ ) ] { o.O.O.#.@.9.D.D.c.v.x.d.k.P.#XsXzXqX X X*X6X8XtXgXdXkXkXvXmXBXVXGXJXKXKXKXKXKXKXKXKXKXKXKXKXKXKXKXKXKXKXKXKXKXKXKXKXKXKXKXKXKXKXKXKXKXKXKXKXKXKXKXKXKXKXKXKXKXKXKXJXLXLXLXLXGXFXVXBXCXMXbXhXhXdXyXwX1X;XXX{.'.!.^.^.~.Q.S.N.n.d.s.g.p.y.w.w.=.;.*.;.=.=.*.*.%.%.%.o.o.o.o.o.o.[ [ [ [ [ o.&.] / } } } } ' ] ] ] ] [ [ [ [ [ [ [ [ [ { o.o.+.o.o.&.*.;.;.;.;.;.9.0.t.i.s.x.m.m.A.W.~.^.^.}.oX&X=X4XrXaXjXkXvXmXCXDXFXGXJXJXJXJXKXKXKXKXKXKXKXKXKXKXKXKXKXKXKXKXKXKXKXKXKXKXKXKXKXJXJXJXJXJXJXJXLXLXLXLXLXLXLXLXLXGXGXFXFXDXZXCXNXkXjXgXtXwX-X*X%X+X{.}.]._.`.Z.A./.-XD.0.7.6.6.=.=.*.*.O.X.[ [ [ [ [ [ ] ] ) / ~ I I I U U U G G G C G D S ( $.<.).,X,X).Q n j K l B M n n m m l k k n z k j k k f f d p 9 p s j f f f k f f f k f f f f f f f f a f N N p b b d v v f f f f f k s k f f f f f f f f s f k k k l l m B Z B B m B B B B B V V V V C C D D L L L L P I ^ ^ ) ) ) ) _ _ }  .} } { &.o.O.%.;.;.-.w.y.u.v.x.n.M.S.Q.^.^.oXXX=X8XsXdXlXvXCXZXDXGXLXJXJXKXKXKXKXKXKXKXKXKXKXKXKXKXKXKXKXKXKXKXKXKXKXKXKXKXKXKXKXKXKXKXKXKXKXKXKXKXKXKXKXKXKXKXKXKXKXJXJXJXJXJXJXGXFXDXZXCXMXkXjXhXhXkXjXfXsXwX2X",
"h.h.p.i.f.d.n.B.C.J.E.]..XXX=X6X5X9XdXhXvXbXCXZXDXGXGXLXJXJXKXKXKXKXKXKXKXKXKXKXKXKXKXKXKXKXKXKXKXKXKXKXKXKXKXKXKXKXKXKXKXKXKXKXKXKXKXKXKXKXKXKXKXKXKXKXKXKXKXKXKXKXKXKXKXKXKXKXKXKXKXKXJXJXJXGXGXDXZXMXmXjXfXsX9X8X6X=X$XXXoX^.Q.Y.#XfXsXcX4XeX-X}.+XI.B.d.y.-.-.O.o.X.X.X.[ [ ] } ) ) ^ ^ ^ ^ ~ :.x.n.z./.&X/.b.>. .^ K C S V V V V V V B m m M m m m m m Z m m m m m l z z z f f k m B l l N z z k k N s N m z Z l z z z g f l l c z j M S S n k f f f k k k k k k n k n k k k M m m m m m V C V B B V V Z G A G K T D F F F F F P P I ~ ~ ~ ^ ) ] { o.O.O.@.@.#.Q.D.c.c.c.x.f.F.&XeXwX@X[.+X=X6X8XtXdXdXkXmXMXCXDXFXGXJXKXKXKXKXKXKXKXKXKXKXKXKXKXKXKXKXKXKXKXKXKXKXKXKXKXKXKXKXKXKXKXKXKXKXKXKXKXKXKXKXKXKXKXKXKXKXKXKXKXKXKXJXJXLXDXZXAXAXCXvXkXjXrXeX2X;XXX X'.!.^.^.Q.Q.H.B.N.n.d.g.g.p.y.w.w.=.;.;.=.*.*.*.%.%.%.%.%.O.o.o.o.X.[ [ [ [ &.{  . .} } } ' ] [ ] [ [ [ [ [ [ ] [ [ [ [ [ +.+.o.o.O.%.%.;.;.;.;.;.9.0.t.i.s.x.V.M.M.K.W.^.}.}.oX#X=X4XrXaXjXkXvXMXCXFXLXLXJXJXJXKXKXKXKXKXKXKXKXKXKXKXKXKXKXKXKXKXKXKXKXKXKXKXKXKXKXJXJXJXJXJXJXJXJXLXLXLXLXLXGXLXLXGXGXFXFXDXZXCXNXkXjXdXtXwX-X%X&X+X{.].W.`.`.C.N.c.D.D.d.7.6.6.=.=.*.*.O.o.X.[ [ } [ [ } ] ) / ~ ~ ~ I I P P L F F G F F $.(.$X$XjXAXGXVXBX).H x x x B k m m m m m m n n z k v v A Q ).iXhXiXQ N d f k k k k k k f f f f g g f f a d N J ,XvXnX,X3.Q v n f f s j j j f f f f f f s f f f f v v Q ,.,.| ( D V V B B B B B V V V V C C D L L L L L L I ^ _ ^ ^ / / ^ _ } } } } } +.o.O.%.*.;.;.w.y.u.v.v.n.M.C.Q.~.^.oXXX=X8X9XdXhXvXMXZXDXFXGXLXJXJXKXKXKXKXKXKXKXKXKXKXKXKXKXKXKXKXKXKXKXKXKXKXKXKXKXKXKXKXKXKXKXKXKXKXKXKXKXKXKXKXKXKXKXKXKXJXJXJXJXJXJXGXFXDXZXCXMXkXjXhXhXkXkXjXdXwX-X",
"y.y.t.i.i.d.n.M.H.F.E.].[.XX=X6X5X9XdXhXvXbXBXZXDXFXGXLXLXLXKXKXKXKXKXKXKXKXKXKXKXKXKXKXKXKXKXKXKXKXKXKXKXKXKXKXKXKXKXKXKXKXKXKXKXKXKXKXKXKXKXKXKXKXKXKXKXKXKXKXKXKXKXKXKXKXKXKXKXKXKXKXJXLXGXGXGXDXZXMXvXjXhXiX9X8X5X1X$X#XoX^.W.^.1XfXzXeX-X:X}.S.K.B.V.h.6.;.-.-.O.o.o.X.X.[ [ ] ] ) ) ^ ^ ^ ' #.c.m.D.A.c.:..._ ^ I D S S S V V V B B B B M M m m m m m m m m m m m m m z z k k n n m m x x z n n n n z z k k j j z k f f v k k l l f n n n k k g z z z z z k k k k k k n n k k n m n m m B C C C C Z Z Z Z G G D L D F F F F F F P I ~ ^ ^ ) ] { { o.O.O.*.@.#.D.Q.R.c.c.c.M.E.+X&X&X XoX&X=X6X8XiXdXhXkXmXCXZXFXGXGXLXKXKXKXKXKXKXKXKXKXKXKXKXKXKXKXKXKXKXKXKXKXKXKXKXKXKXKXKXKXKXKXKXKXKXKXKXKXKXKXKXKXKXKXKXKXKXKXKXKXKXKXKXJXGXFXHXAXAXCXMXvXkXaXrX4X1X;XXX X[.[.^.^.Q.K.S.M.N.j.d.g.g.p.q.w.w.;.;.;.=.;.*.*.%.%.%.%.+.O.O.o.o.o.o.o.o.o.{  . .} } [ [ [ [ [ [ [ [ [ [ [ [ [ [ X.X.o.o.o.o.O.O.O.*.;.;.;.;.9.9.0.t.i.s.x.V.M.M.F.E.~.].}.oX&X=X5X9XaXxXkXnXbXCXFXLXLXJXKXKXKXKXKXKXKXKXKXKXKXKXKXKXKXKXKXKXKXKXKXKXKXKXKXKXKXKXJXJXJXJXKXKXJXJXLXJXLXLXLXLXLXGXGXGXFXFXDXZXCXmXmXjXgXtXwX3X*X&X&XoX].W.`.W.G.G.M.V.V.d.0.7.6.6.=.=.*.*.O.o.[ [ [ [ } ] } ] / ^ ^ ^ ~ I P P P P F P P ( (.8X9XkXHXJXKXKXJXBX3.n C C C V m m m m m m m m m d v ! (.9XMXZXGXBXiX6X<.C s l k k k k k f f f h h a a v A ).iXAXHXLXDXiX(.$./ n k z N z z j f v v v k m l s f E <.9X0X$X^.v.u.$.A n V B Z B V V V V C C C D D L L L L L P ^ ^ ^ ^ ^ / ) ) } } } } o.+.o.O.%.;.;.-.h.y.s.s.v.x.m.C.R.~.^.oX#X=X6X9XdXhXkXbXCXZXFXFXLXLXJXKXKXKXKXKXKXKXKXKXKXKXKXKXKXKXKXKXKXKXKXKXKXKXKXKXKXKXKXKXKXKXKXKXKXKXKXKXKXKXKXKXKXKXJXJXJXJXJXLXLXLXFXDXZXCXCXMXkXhXhXhXvXvXhXsXwX-X",
"y.y.t.p.i.d.n.M.H.F.E.].[.XX=X6X5X9XdXhXvXbXBXZXDXDXGXGXLXLXKXKXKXKXKXKXKXKXKXKXKXKXKXKXKXKXKXKXKXKXKXKXKXKXKXKXKXKXKXKXKXKXKXKXKXKXKXKXKXKXKXKXKXKXKXKXKXKXKXKXKXKXKXKXKXKXKXKXKXKXKXKXJXLXGXGXFXDXZXMXvXkXkXiXiX9X5X1X$X#XoX^.Q.^.@XtXtXuX.XP.f.6.5.#.w.w.w.w.-.-.-.%.o.o.X.X.{ } } ) ) / ^ ^ / +.:.u.#.X.' ~ ~ U L L D S S S C V V B Z B Z M M m m m m m m m m m m m m m n z m m n n m m x x l n n n z z z k k f f f f f f k k k l l n v k k k g z z z j k k k k k k k k n n n n m m m m m m l l B C C C Z Z G G D D D F D F F F P P ~ ~ / / ) ] } o.o.O.*.*.#.u.5.+XQ.c.c.D.D.E.}.+XoX[.+X&X=X6X9XiXdXhXvXMXCXZXFXLXGXLXKXKXKXKXKXKXKXKXKXKXKXKXKXKXKXKXKXKXKXKXKXKXKXKXKXKXKXKXKXKXKXKXKXKXKXKXKXKXKXKXKXKXKXKXKXKXKXKXKXKXKXKXLXGXHXHXAXAXCXMXmXkXfXrX7X2X*X%XXX.X.X[.~.Q.R.J.C.N.n.n.d.g.g.p.y.w.9.w.=.;.;.;.;.-.*.%.%.%.O.O.O.O.O.o.o.o.o.o. .{ { } { [ [ [ [ [ [ [ [ [ { [ X.X.o.o.o.O.o.O.O.O.O.*.;.;.;.;.w.w.w.y.y.s.x.n.V.M.J.E.~.].[.oX&X=X6X9XaXxXkXvXbXZXDXLXLXLXJXKXKXKXKXKXKXKXKXKXKXKXKXKXKXKXKXKXKXKXKXKXKXKXKXKXKXKXJXJXJXJXKXKXJXJXLXLXLXLXLXLXLXGXGXGXFXFXDXZXCXMXmXjXgXsXeX2X=X-X&XoX[.~.W.W.F.C.M.n.j.a.q.7.6.=.=.=.=.*.%.O.o.[ { { } ] } } ) / ( ^ ^ ~ ~ I I P P P ~ $.(.zXmXAXJXKXKXKXKXZX,X! S C S V V m m m m m m m m n $.!.eXzXHXGXLXHXNXjXqX3.M j k k k k k f f f p h f f Q (.iXmXHXJXKXLXmX6XQ.b.( n k H z z z f v v v n j l f W U.6XzXzXuX-X`.D.#.E S V B Z B V V V V V C C D L L U L L P P ^ ^ ^ ^ ^ / ) ) ] } } { o.&.&.%.%.;.;.;.h.y.y.s.v.x.m.C.R.Q.^.oXXX=X5X7XiXhXlXvXBXZXDXFXFXLXJXJXKXKXKXKXKXKXKXKXKXKXKXKXKXKXKXKXKXKXKXKXKXKXKXKXKXKXKXKXKXKXKXKXKXKXKXKXKXKXKXKXKXKXJXJXJXJXJXLXLXLXFXDXZXCXCXmXkXhXhXhXvXvXhXsXwX&X",
"y.y.t.p.d.d.n.B.H.F.E.].[.XX=X6X5X9XdXhXvXbXBXZXZXDXGXGXLXLXKXKXKXKXKXKXKXKXKXKXKXKXKXKXKXKXKXKXKXKXKXKXKXKXKXKXKXKXKXKXKXKXKXKXKXKXKXKXKXKXKXKXKXKXKXKXKXKXKXKXKXKXKXKXKXKXKXKXKXKXKXKXJXLXGXGXFXDXZXCXbXvXkXhXiX9X8X6X=X#XoX^.Q.Q.oX=X3X XP.5.i.5.6.6.q.h.w.;.;.-.;.-.&.o.X.X.{ } } ] ) ) ^ / ^ } $.' E F S D D L P L L C C C C C V M Z H Z Z B B m m m m m m m m m m m n n m m m m N m B x l l m l l l l m k n v f v f f v n k k n n l l z z z z z j k k k k n n n n m n n m n n m m m m m m H B n S ~ I U U L D D D D F F F P P ~ ~ ~ ^ / } ] } } o.o.O.@.@.#.-.5.5.+XQ.S.D.D.R._.].[.oX&X=X1X6X9XiXdXhXvXMXZXDXFXGXGXLXJXKXKXKXKXKXKXKXKXKXKXKXKXKXKXKXKXKXKXKXKXKXKXKXKXKXKXKXKXKXKXKXKXKXKXKXKXKXKXKXKXKXKXKXKXKXKXKXKXKXKXKXJXGXFXHXHXZXZXMXMXkXjXgXyX4X2X=X%XXXoX[.^.Q.Q.R.Z.A.m.n.x.d.g.g.s.y.u.w.9.9.w.;.;.;.;.-.*.*.O.O.O.O.O.O.O.O.o.o.o.o.o.{ { X.[ [ [ [ X.X.o.X.o.X.o.o.o.o.O.O.O.O.O.O.O.*.;.;.;.;.w.u.y.t.s.s.g.V.V.B.J.E.W.].[.oX#X=X6X7XiXdXlXvXbXCXDXGXLXLXJXJXKXKXKXKXKXKXKXKXKXKXKXKXKXKXKXKXKXKXKXKXKXKXKXKXKXKXKXJXKXKXKXKXKXJXJXJXJXJXLXLXLXGXGXGXGXFXDXZXCXmXmXkXgXsXeX4X-X-X&X+X[.~.W.W.G.G.M.V.j.d.i.0.6.6.=.;.;.*.*.%.O.o.[ { [ } ] ] ] ) ^ ^ ^ ^ ~ ~ ^ ^ ^ ~ ^ 1.(.zXAXGXJXKXKXKXKXDXjX>XG C V S M m m m m m m m n A /.wXzXHXJXLXLXLXGXAXkXqX| m k k k k k k k f d v n H ).iXNXHXHXJXKXKXZXjX6X/.| n k N z z z k n v v n x s A (.iXNXCXAXAXzX5X+XD.X.E V B Z Z V V Z C C C C D L L L P P P I ^ ^ ^ _ ^ ) ) ) ] { { { &.&.&.%.*.;.;.;.h.y.y.s.g.x.m.C.R.Q.^.oXXX=X6X7XiXdXhXlXbXZXDXFXFXLXLXJXKXKXKXKXKXKXKXKXKXKXKXKXKXKXKXKXKXKXKXKXKXKXKXKXKXKXKXKXKXKXKXKXKXKXKXKXKXKXKXKXKXJXJXJXJXLXLXLXLXLXFXDXZXCXCXmXkXjXhXhXvXvXhXsXwX%X",
"y.y.t.p.d.d.n.B.H.F.E.].[.XX=X6X5X9XdXjXkXvXbXBXZXPXFXGXLXLXKXKXKXKXKXKXKXKXKXKXKXKXKXKXKXKXKXKXKXKXKXKXKXKXKXKXKXKXKXKXKXKXKXKXKXKXKXKXKXKXKXKXKXKXKXKXKXKXKXKXKXKXKXKXKXKXKXKXKXKXKXKXJXLXGXGXGXDXZXCXbXvXkXhXiXiX8X6X=X$XoX^.Q.R.~.oXY.P.c.x.d.d.6.q.y.w.w.=.;.;.;.;.>.&.o.o.{ { } ] ) ) ) ^ ^ _ ( F D D D D L L P L L L L D S S A A N H Z B B B m m m m m m m m m m m n n m m m N N N v v n n m l x x l n n n v f f f f v k k k v n l l g g f v v k n k k k n n n n n n n n n n m m m m m n N v W <.$.$...2.D D F D F F F P P ~ ~ ~ ^ ` ] ] } } { o.o.O.@.-.-.5.5.5.c.J.D.D.D.R.W.~.[.oX&X=X1X6X9XiXdXlXmXMXZXZXHXGXGXLXJXKXKXKXKXKXKXKXKXKXKXKXKXKXKXKXKXKXKXKXKXKXKXKXKXKXKXKXKXKXKXKXKXKXKXKXKXKXKXKXKXKXKXKXKXKXKXKXKXKXKXJXJXGXFXHXHXHXZXCXbXvXjXdXtXeX5X3X=X#XoXoX^.~.W.W.Y.Z.A.m.n.x.g.g.s.s.y.y.u.w.w.9.9.-.-.-.;.*.*.@.@.%.O.O.O.O.O.O.o.o.o.o.o.o.o.o.o.o.+.+.o.o.o.o.O.o.O.o.O.O.O.O.O.O.O.*.;.;.;.9.h.u.y.y.s.s.g.V.B.B.J.E.W.^.[.oXXX=X6X7XrXxXlXvXbXCXDXFXFXLXLXJXKXKXKXKXKXKXKXKXKXKXKXKXKXKXKXKXKXKXKXKXKXKXKXKXKXKXKXKXKXKXKXKXKXKXJXJXJXJXLXLXLXGXGXGXFXFXDXAXCXMXmXjXgXsXyX4X6X=X&XXX[.~.~.W.F.G.M.N.j.d.p.0.6.6.=.;.;.;.*.*.%.O.o.[ [ [ [ ] ] ) / / ^ ^ ^ ^ / / ( ^ / 1.).fXAXFXJXKXKXKXLXGXmX0X,.C V S V M M m M M M M n E oXuXAXKXKXKXKXKXKXGXAXiX3.M k k k k k k k k d v A Q 0XjXAXHXGXGXKXKXJXHXzX6XW n M k z z n n n n v n B N (.iXvXCXPXGXGXNXsX-X}.9.` V V Z Z Z Z V C C C C D L U P P P P I ^ ^ ^ ^ _ ) ) ) ] { { {  .&.&.%.%.;.;.;.h.y.y.s.d.x.m.C.R.Q.^.oXXX=X6X4X0XaXhXlXnXBXZXFXFXFXLXLXLXLXLXLXKXKXKXKXKXKXKXKXKXKXKXKXKXKXKXKXKXKXKXKXKXKXKXKXKXKXKXKXKXKXKXKXKXKXKXKXKXJXJXJXJXLXLXLXLXLXFXDXZXCXCXmXkXjXdXhXvXvXjXdX3XOX",
"y.y.t.i.d.d.n.B.S.F.E.].[.XX=X6X5X9XsXhXkXvXbXBXZXDXFXFXLXLXJXKXKXKXKXKXKXKXKXKXKXKXKXKXKXKXKXKXKXKXKXKXKXKXKXKXKXKXKXKXKXKXKXKXKXKXKXKXKXKXKXKXKXKXKXKXKXKXKXKXKXKXKXKXKXKXKXKXKXKXKXJXJXLXGXGXFXDXAXCXbXvXkXhXiXiX8X6X1X$XoX}.Q.Q.Q.R.R.Z.D.V.x.d.i.t.y.q.w.w.;.;.;.;.;.&.o.o.{ { { } ] ) ) ) ( _ _ Y I U I I U U L L D F D S A E W W A H B B B B m m m m m m m m m m m n N H x z J 3.,X,X).Q A A m j x l n n n k n n k k n k j l v i g J J 4.U.U.<.' E S V m m m m m m n n n m m m m m M M v J 3.0X$XA.b.:.} / / P D F ~ ~ ~ ~ ~ ~ / / ] ] ] ] { { o.O.O.*.=.9.5.5.f.f.N.S.S.Z.R.W.W.[.oX&X=X6X6X9XiXhXlXvXMXZXZXDXFXGXLXJXKXKXKXKXKXKXKXKXKXKXKXKXKXKXKXKXKXKXKXKXKXKXKXKXKXKXKXKXKXKXKXKXKXKXKXKXKXKXKXKXKXKXKXKXKXKXKXKXKXKXJXLXLXFXFXFXHXZXZXBXvXkXdXaXtXeX5X1X*X#XoX[.~.~.W.T.F.C.A.m.m.x.v.v.s.s.i.y.t.u.9.9.-.-.-.;.;.=.@.@.@.@.@.@.O.O.O.O.O.O.o.o.o.o.o.o.o.o.o.o.o.o.o.O.O.O.O.O.O.O.O.O.O.%.*.;.;.;.9.y.y.y.y.s.s.v.V.B.S.J.R.W.^.[.oX$X=X6X7XrXgXlXnXbXBXDXFXFXFXLXLXJXJXKXKXKXKXKXKXKXKXKXKXKXKXKXKXKXKXKXKXKXKXKXKXKXKXKXKXKXKXKXKXKXKXJXJXJXJXLXLXGXGXFXFXFXDXDXAXCXmXvXjXfXsXeX4X2X=X-X#XoX[.~.W.E.G.C.M.n.d.i.p.0.9.6.=.;.;.=.*.*.O.o.o.{ { [ ] ] ] ] / / / / / / ( / ~ ] 1./.6XBXKXJXJXKXKXLXJXAXNX).S G G V V V B V M M M V ' oXuXAXKXKXKXJXJXJXJXGXBX).f n l k k k k k k A v A U.dXNXHXHXHXGXKXKXLXGXNXsXU.S s k N N m m m m m M C ,.0XNXNXHXGXKXHXAXfX&XQ.h.[ V C C C V V C C C D D L L U U P P P I ^ ^ ^ ^ _ ) ) ] } { { { o.&.&.%.;.;.;.;.y.y.h.s.v.V.m.C.R.Q.^.[.XX&X=X6X7XiXdXlXnXbXVXDXDXFXLXLXLXLXJXJXLXJXJXJXJXJXKXKXKXKXKXKXKXKXKXKXKXKXKXKXKXKXKXKXKXKXKXKXKXKXKXKXKXKXKXKXKXJXJXJXJXJXLXLXLXLXFXDXZXCXCXvXkXjXdXhXmXmXjXdX3XOX",
"y.y.t.i.d.d.n.B.H.F.E.].[.XX=X6X5X9XdXfXkXvXbXBXZXDXDXFXGXLXLXJXKXKXKXKXKXKXKXKXKXKXKXKXKXKXKXKXKXKXKXKXKXKXKXKXKXKXKXKXKXKXKXKXKXKXKXKXKXKXKXKXKXKXKXKXKXKXKXKXKXKXKXKXKXKXKXKXKXKXKXKXJXLXGXGXFXDXAXCXbXvXlXhXdXiX8X6X6X$XoX}.`.Q.Q.R.R.D.D.m.x.g.i.t.y.h.w.w.;.;.;.;.*.%.o.o.{ { { { ] ] ) ) ^ _ _ Y Y U I U U P L F S S | <.(.qXiXiX,X<.G V V m B m M m m m m m m m k m f f H ).IXPXVXHXMXiX(.<.A V l m n n n n n n k n n k j m v H J 3.IXBXhX9XoXA.b.2.V k m m m m m n n m m m m m M G V N 3.bXkXfX^.^.D.u.&.] ~ F ~ ~ ~ ~ ~ ~ ^ / ] ] ] ] { { o.o.O.O.*.=.-.5.i.i.d.n.m.C.Z.R.W.W.].[.XX&X1X6X9XiXhXlXbXCXZXZXDXFXGXLXJXKXKXKXKXKXKXKXKXKXKXKXKXKXKXKXKXKXKXKXKXKXKXKXKXKXKXKXKXKXKXKXKXKXKXKXKXKXKXKXKXKXKXKXKXKXKXKXKXKXKXKXJXLXGXFXFXDXDXZXBXbXkXhXdXgXyX7X4X1X$X#X X X!.~.W.T.Y.C.A.m.m.x.x.v.s.s.s.t.t.9.0.9.9.-.-.-.=.=.@.@.@.@.@.@.@.O.O.O.O.O.O.O.O.O.O.O.O.O.O.O.O.O.O.O.O.O.%.%.*.*.*.*.*.*.;.-.-.u.y.y.y.i.s.d.x.n.M.M.F.Y.W.^.[.oX$X=X6X7XrXgXxXnXbXBXDXFXFXFXGXLXJXJXJXJXKXKXKXKXKXKXKXKXKXKXKXKXKXKXKXKXKXKXKXKXKXKXJXKXKXKXKXKXKXJXJXJXJXJXLXLXGXGXFXFXFXDXZXZXCXmXvXjXdXgXrX4X2X=X-X#X+X[.'.W.T.G.C.M.N.n.d.a.t.w.w.=.;.;.=.*.*.%.O.o.o.{ { [ [ ] ] ] ] ] / / ^ / / / ] $.~.8XZXKXKXJXJXJXJXLXGXAX).v G C C V V V V V V V F $.}.wXNXHXKXKXKXJXJXJXJXHX0XW n l l k k k k k f f A U.iXNXAXHXHXGXJXJXLXGXzX6X(.| m k m N M M M M Z B V 3.fXmXNXAXCXHXZXNXeX.XM.9.` S C C C S S C D D D D L L P P P P P I ^ ^ ^ ^ ) ) ) ] { { { { { o.&.%.;.;.;.;.y.y.y.s.v.n.m.C.R.Q.^.[..X&X=X6X4X0XaXhXkXbXBXVXDXFXFXFXLXLXLXLXLXLXJXJXJXJXKXKXKXKXKXKXKXKXKXKXKXKXKXKXKXKXKXKXKXKXKXKXKXKXKXKXKXKXKXKXKXJXJXJXJXJXLXLXLXLXFXDXZXCXbXvXkXjXdXhXmXmXjXdX2XOX",
"y.y.t.i.d.d.n.B.H.F.E.].[.XX=X1X5X8XdXfXkXvXbXBXVXDXDXFXFXLXLXJXKXKXKXKXKXKXKXKXKXKXKXKXKXKXKXKXKXKXKXKXKXKXKXKXKXKXKXKXKXKXKXKXKXKXKXKXKXKXKXKXKXKXKXKXKXKXKXKXKXKXKXKXKXKXKXKXKXKXKXKXLXGXGXGXDXZXAXCXbXvXhXhXdXsX9X6X3X=XXXoX[.].W.R.R./.D.A.x.g.i.t.y.w.w.w.;.;.;.;.-.%.O.o.o.{ { { [ ] ] / / ( _ Y Y I ~ ~ I P P E W U.$X6XjXmXZXHXZXhX).,.G V V B V V V V m m m m m M n ,.hXBXLXJXKXJXAXkXsX8X<.G m m n n n n n n n n n n j s N b <XBXDXZXJXAXfX$X^.b.P L m M M m m m m m m m m m V V k H lXCXAXAXyX=X`.V.b.} ~ ^ ~ ~ ~ ~ / / / ` ] ] ] { { o.&.&.%.@.=.#.9.7.q.e.a.j.m.M.Z.R.Q.W.~.[.XX#X1X6X9XsXhXlXbXCXZXZXDXFXGXLXJXKXKXKXKXKXKXKXKXKXKXKXKXKXKXKXKXKXKXKXKXKXKXKXKXKXKXKXKXKXKXKXKXKXKXKXKXKXKXKXKXKXKXKXKXKXKXKXKXKXKXKXJXJXGXGXGXFXDXZXVXbXvXkXjXfXsXrX4X1X*X*X#XXX[.!.~.W.R.F.C.M.m.m.x.x.x.x.f.s.t.t.0.0.w.9.9.=.=.=.=.@.@.*.*.*.*.@.@.@.@.O.O.O.O.O.O.O.O.O.O.O.O.O.O.O.@.*.*.*.*.*.*.*.*.*.;.;.9.y.y.y.y.s.s.d.x.n.M.M.F.Y.W.^.[.oX#X=X6X7XrXgXjXkXbXBXDXFXFXFXGXLXJXJXJXJXKXKXKXKXKXKXKXKXKXKXKXKXKXKXKXKXKXKXKXKXKXKXJXKXKXKXKXKXJXJXLXLXLXLXLXLXGXGXFXDXDXDXAXCXCXmXvXjXdXgXrX7X4X2X=X&X&XoX'._.`.K.J.B.B.n.l.d.p.w.w.w.6.6.;.;.*.*.O.o.X.X.X.o.[ [ ] ] ] ] ` ` / / / / ` +.Z.6XVXKXKXJXJXJXJXLXJXHXqXA S B C C C V V V V V D ' D.[.tXmXLXKXKXKXJXGXAXNXiX,.M m m m l l l k f f A <.qXxXMXZXFXGXGXJXJXZX9X^.<.S m m M M M M M B Z Z n (.7XzXzXzXjXjXNXzX-XE.5.+./ S D D D D D D D D L L L P U U I I I ^ ^ ^ ^ _ ) ) ] ] { { { o.o.o.&.;.;.;.;.w.y.h.s.s.x.m.m.C.R.Q.~.[..XOX&X1XqX7XiXhXlXvXBXVXDXPXFXFXLXLXLXLXJXJXJXJXJXJXJXJXJXJXKXKXKXKXKXKXKXKXKXKXKXKXKXKXKXKXKXKXKXKXKXKXKXKXKXKXKXJXJXJXJXLXLXLXLXFXFXDXZXCXbXvXjXjXfXhXmXmXkXdX3X%X",
"y.y.t.p.f.d.n.M.C.F.E.].[.XX*X1X6X8XsXfXjXvXvXbXVXZXDXFXFXLXJXKXKXKXKXKXKXKXKXKXKXKXKXKXKXKXKXKXKXKXKXKXKXKXKXKXKXKXKXKXKXKXKXKXKXKXKXKXKXKXKXKXKXKXKXKXKXKXKXKXKXKXKXKXKXKXKXKXKXKXKXJXLXGXGXFXDXZXZXCXbXvXhXhXdXsX9X5X3X=XXX.X[.].T.R.R.Z.Z.A.x.d.i.t.y.q.w.w.;.;.;.;.*.%.o.X.X.o.{ { { [ ] / / / ^ ^ ^ ~ E E I I P E U.$XtXdXAXHXGXFXHXvXjX(.<.G V V V V V V V M B m B M Q iXCXDXKXKXKXKXGXAXzXsX6X,.n m n M n n n n n n n n l M p ,XnXbXDXFXJXJXAXfX3X/.F L m m m M M m m m m B B B m m H (.bXZXGXMXgXwX`.B.v.&./ / ~ ~ ~ ~ / / / ` ` ] [ { o.&.&.&.%.@.#.#.9.7.q.e.a.j.N.C.Z.R.Q.W.~.[. X#X1XqX9XaXhXlXbXCXZXZXDXFXFXLXJXKXKXKXKXKXKXKXKXKXKXKXKXKXKXKXKXKXKXKXKXKXKXKXKXKXKXKXKXKXKXKXKXKXKXKXKXKXKXKXKXKXKXKXKXKXKXKXKXKXKXKXJXJXLXGXGXFXDXDXZXBXbXvXjXjXgXrX7X4X2X1X*XXX.X[.'.W.W.R.J.C.D.m.m.x.x.x.x.f.s.t.t.0.w.w.9.9.=.=.=.=.*.*.*.*.*.@.@.@.@.O.O.O.O.O.O.O.O.O.O.O.O.O.O.O.*.@.*.*.*.*.*.*.*.*.;.;.9.u.y.i.i.s.s.x.x.n.M.M.F.Y.W.^.[.oX#X=X6X7XrXgXjXkXbXBXZXDXFXFXGXGXLXLXJXJXKXKXKXKXKXKXKXKXKXKXKXKXKXKXKXKXKXKXKXKXKXKXJXJXKXKXJXJXJXJXLXLXLXLXGXGXGXFXDXDXDXDXAXCXMXmXvXjXhXdXrX7X4X2X=X&X&X.X[._._.E.J.H.B.V.l.d.p.0.0.w.w.w.=.=.*.*.%.O.o.o.X.X.[ [ [ [ ] ] ] ] ] / / / ] +.5.!.bXKXKXJXJXGXHXHXHXAXdX<.F C C S S C V V V V M F u.A.(.sXZXKXLXGXAXNXaX9X(.<.M m m m l l l k m n M Q $X4XdXvXHXGXGXHXGXbX6X/.$.M M M m M M M M B Z Z M z.6XwXuXeX6X6XsXwX_.c.+.' ~ S D D D D D D D D L L L P P P I I I ^ ^ ^ ^ ) ) ) ] ] { { o.o.o.&.%.%.;.;.;.w.y.y.s.s.x.m.m.C.R.Q.~.[.oXXX%X=X6X7X0XdXlXvXbXVXZXDXFXFXFXLXLXLXLXLXLXLXJXJXJXJXJXKXKXKXKXKXKXKXKXKXKXKXKXKXKXKXKXKXKXKXKXKXKXKXKXKXJXJXJXJXJXJXLXLXLXFXFXFXFXDXZXCXbXvXjXfXdXxXmXvXjXdX3X%X",
"y.y.y.p.f.d.n.B.C.G.E.~.[.XX&X=X5X8XtXdXhXlXvXnXBXZXDXFXFXLXLXKXJXKXKXKXKXKXKXKXKXKXKXKXKXKXKXKXKXKXKXKXKXKXKXKXKXKXKXKXKXKXKXKXKXKXKXKXKXKXKXKXKXKXKXKXKXKXKXKXKXKXKXKXKXKXKXKXKXKXKXJXLXGXFXFXDXZXZXBXbXkXlXhXdXsX9X5X6X=XXX.X[.[.~.T.R.Z.C.m.x.g.s.i.y.y.y.y.9.-.=.;.*.*.O.o.o.o.o.{ { { ] ] ` / ) / ^ ^ ~ ~ ^ I ~ E !.eXjXNXHXGXJXJXGXDXMXjXU.F C G V Z C C B M V B m d <XbXHXGXJXKXKXJXGXHXZXZXiX<.H n M M m m m n n n m m Z d W hXZXDXFXLXJXGXHXNXsX6XU.S M M M M M M M M V B C Z Z v (.kXHXGXJXHXgX X}.Q.v.&./ ~ ~ / / / / / ` ` ] [ o.o.o.&.%.%.O.@.#.#.6.0.q.p.a.j.V.M.Z.R.R.T.~.'. X#X1XqX9XaXhXnXMXCXZXZXDXFXFXLXJXKXKXKXKXKXKXKXKXKXKXKXKXKXKXKXKXKXKXKXKXKXKXKXKXKXKXKXKXKXKXKXKXKXKXKXKXKXKXKXKXKXKXKXKXKXKXKXKXKXKXKXJXJXJXLXLXGXFXFXZXBXbXbXvXkXxXaX0X7X7X4X*X%XXX X'.~.W.E.J.S.S.M.m.v.x.x.x.s.s.s.t.t.w.w.w.9.9.=.=.=.=.=.*.*.*.@.@.@.@.@.@.@.@.@.@.@.@.@.@.@.@.@.@.@.@.@.*.*.*.*.=.=.=.=.-.-.9.w.y.y.s.f.x.x.x.n.M.C.F.Y.W.^.[.oX#X=X6X7XrXgXjXkXvXBXZXDXFXFXGXGXLXJXJXJXJXJXKXKXKXKXKXKXKXKXKXKXKXKXKXKXKXKXKXKXKXKXJXJXJXJXJXJXJXJXJXJXLXLXFXFXFXFXDXDXDXZXZXCXMXmXvXkXjXaXrXyX4X2X-X-XOX+X{.]._.W.K.H.B.B.n.d.a.i.0.q.w.w.;.;.=.*.*.O.O.o.X.X.X.[ [ [ ] ] [ ] ] ` ` ` ] [ +.<.vXVXKXKXHXNXAXmXzXiX(.! A D D D D S S S S S C S ' /.z.!.iXZXZXkXtXwX!.b.$.F M m m m m m m n n n M E <.z.^.6XAXZXZXHXAX0X/.<.( S V M m m M M N Z Z V V / b.^.oX}.[.~.+X}.Z.c.+.` P C D D D D D D D D L L L L P I I I I ^ ^ / / ) ) ) ] ] { { o.o.o.%.%.*.;.;.;.w.h.s.s.d.V.m.D.C.R.Q.~.^.oXXX&X*X6X4X9XdXhXvXbXBXVXZXFXFXFXLXLXLXLXLXLXLXJXJXJXJXJXJXKXKXKXKXJXJXJXJXJXJXJXJXJXJXKXKXJXJXJXJXJXJXJXJXJXJXJXJXLXLXLXGXFXFXFXFXFXDXZXCXbXvXjXfXdXxXmXvXjXdX5X*X",
"y.y.t.t.i.d.n.B.C.G.E.~.[.XX&X=X3X8XtXdXhXlXnXnXBXCXZXDXFXLXLXJXJXKXKXKXKXKXKXKXKXKXKXKXKXKXKXKXKXKXKXKXKXKXKXKXKXKXKXKXKXKXKXKXKXKXKXKXKXKXKXKXKXKXKXKXKXKXKXKXKXKXKXKXKXKXKXKXKXKXJXJXLXFXFXDXDXZXCXMXvXkXlXhXdXsX9X5X6X=X#X.X[.[.~.T.Y.G.C.m.x.x.v.s.i.y.t.y.w.-.=.-.*.*.O.O.o.O.o.o.o.{ [ ] ] ] ) / / ^ ^ ^ ^ ~ ~ W $XfXmXCXHXLXKXKXKXGXHXMX6XE F l V V C C B V V B V v iXbXGXJXJXJXJXJXJXJXKXFXMX3.H N M V M M m m m m M m Z N ).NXZXFXLXLXJXGXFXAXsXeXU.A M M M M M M M V V B C Z Z J vXMXAXHXHXAXrX-X+XD.:.&.] ~ / / / / / / ] ] ] [ o.o.o.&.&.%.O.@.#.#.6.0.q.p.d.n.V.M.C.F.Y.T.~.'. X#X1XqX9XaXhXkXMXCXZXZXDXFXFXLXJXKXKXKXKXKXKXKXKXKXKXKXKXKXKXKXKXKXKXKXKXKXKXKXKXKXKXKXKXKXKXKXKXKXKXKXKXKXKXKXKXKXKXKXKXKXKXKXKXKXKXKXKXJXJXLXLXGXFXDXZXZXBXbXvXkXjXgXaX0X7X4X1X*XXX.X'.].~.W.R.Z.S.D.m.m.c.x.x.s.s.s.s.y.t.w.y.u.w.9.9.6.=.=.=.=.=.=.=.@.@.@.@.@.@.@.@.@.@.@.@.@.@.@.@.@.*.*.=.=.=.=.=.=.-.-.-.9.9.u.y.y.s.f.x.x.x.n.M.C.F.T.W.~.[.oX#X*X4X7XrXdXhXkXvXbXBXDXDXDXFXFXGXLXLXLXJXJXKXKXKXKXKXKXKXKXKXKXKXKXKXKXKXKXJXKXKXKXJXJXJXJXJXJXJXJXLXLXLXLXFXFXFXDXDXDXZXAXCXCXMXmXvXkXjXgXrXrX4X2X2X-X&X.X{.]._.`.E.J.C.M.n.j.d.i.i.0.w.9.;.;.=.=.*.*.O.O.o.X.o.X.X.[ [ [ [ [ ] ] ` ] [ X.%.$.).mXZXCXpXqX@X=X=X^.<.E A S S D D S S S S S D S E $.}.oXqXiXcXcXoX}.D.#.~ F m m m m m m m m n n M A ' $.u.U.dXNXMXNX9X(.<.' F V V M m m M M Z Z Z C V L 1.b.Q.D.Z.Z.R.}.Q.A.X./ I D D D D D D D D D D D L L P I I I I ^ ^ / _ _ ) ) ] ] { o.o.%.%.O.%.*.;.;.-.w.y.s.s.x.V.m.A.C.R.Q.~.^.}.oX&X=X6X4X9XdXhXkXvXbXBXVXDXFXFXFXLXLXLXLXLXLXJXJXJXJXJXJXKXKXKXKXJXJXJXJXJXJXJXJXJXJXKXKXJXJXJXJXJXJXJXJXJXJXJXLXLXGXGXFXFXFXFXFXDXZXCXbXvXvXjXfXgXgXmXvXkXdX5X-X",
"y.y.t.t.f.d.n.B.C.G.R.~.[.XX&X=X3X8XtXdXhXlXvXnXbXBXZXHXFXGXLXJXJXKXKXKXKXKXKXKXKXKXKXKXKXKXKXKXKXKXKXKXKXKXKXKXKXKXKXKXKXKXKXKXKXKXKXKXKXKXKXKXKXKXKXKXKXKXKXKXKXKXKXKXKXKXKXKXKXKXJXJXGXFXFXDXDXZXCXMXvXkXhXhXdXsX9X5X6X=X#X.X.X[.~.T.Y.J.C.m.V.v.v.s.s.s.y.y.u.9.-.-.-.-.*.O.O.%.o.o.o.o.{ [ ] ] ] ) / / / ^ ^ ( ( W oXtXzXbXAXGXJXKXKXKXJXHXhX! W C D C C C V V C C U A iXmXGXJXJXJXJXJXKXKXLXFXnXiXQ V m V M M M M M M M M k v qXAXFXKXJXJXKXJXGXAX8X&Xb.E M V V V V V V B Z C C C n 3.ZXHXCXNXNXzXrXwX}.x.-.&.] / / / / / / ` ` ] ] [ X.o.o.o.&.%.@.@.=.#.9.0.t.i.d.n.m.M.C.F.Y.T.~.'. X#X1X4XtXdXhXkXMXCXZXZXDXFXFXFXJXKXJXJXKXJXKXKXKXKXKXKXKXKXKXKXKXKXKXKXKXKXKXKXKXKXKXKXKXKXKXKXKXKXKXKXKXKXKXKXKXKXKXKXKXKXKXKXKXKXKXKXKXKXJXJXLXGXFXDXDXZXCXCXMXvXkXxXaXrX0X8X6X*X#XXX.X[.~.W.R.Z.S.D.D.m.m.c.x.x.s.s.s.s.y.y.y.u.q.w.0.9.9.6.=.=.=.=.=.=.=.@.@.@.@.@.@.@.#.*.@.@.*.*.*.*.=.=.=.=.=.=.6.=.9.9.9.9.9.u.y.y.s.f.x.x.x.n.M.C.F.T.W.~.[.oX#X*X2X7XrXdXhXhXvXBXVXZXDXDXFXFXLXLXLXLXJXJXJXJXKXKXKXKXKXKXKXKXKXKXKXKXKXKXJXJXKXKXJXJXJXJXLXLXLXLXLXLXLXLXFXFXFXDXDXZXZXAXCXCXMXmXvXkXjXgXaXrXeX4X3X-X&X.X{.].]._.E.J.H.M.M.j.j.a.i.0.0.w.w.;.=.=.*.*.O.O.O.O.O.X.X.X.[ [ [ [ [ [ [ [ o.o.O.#.<.>XiXjXdX8XP.M.c.:.E E S S S D D D D S S D D S E ' 5.oXiXkXqX).z.D.:./ F G V V V m m m m m n n M M A ' <.b.(.8XzXzX6X(.$.F S V V V M V V V Z Z V C D D D 1.:.u.u.s.D./.b.$.] ^ ~ F D D D D D D L L L L P P I ~ ^ ^ ^ ^ ^ _ ) ) ) ] ] ] { o.%.%.O.%.*.*.;.-.9.y.y.s.s.x.m.m.A.C.R.Q.~.^.oXoX$X*X1XqX9XiXhXkXvXbXBXVXZXDXFXFXFXFXLXLXLXLXJXJXJXJXLXJXJXJXJXJXJXJXJXJXJXJXJXJXJXJXJXJXJXJXJXJXJXJXJXJXJXLXLXGXGXGXFXFXFXFXFXFXDXZXCXbXvXkXjXfXgXgXmXvXkXfXwX-X",
"y.y.t.t.f.d.n.B.S.G.E.~.[..X&X-X3X5XtXsXhXhXvXvXnXCXZXZXDXFXFXLXLXKXKXKXKXKXKXKXKXKXKXKXKXKXKXKXKXKXKXKXKXKXKXKXKXKXKXKXKXKXKXKXKXKXKXKXKXKXKXKXKXKXKXKXKXKXKXKXKXKXKXKXKXKXKXKXKXKXJXLXGXFXFXDXDXZXCXMXvXkXhXhXdXsX9X8X6X=X#X.X.X[.~.W.R.J.C.M.v.v.x.v.x.s.s.y.y.u.9.-.-.-.*.O.%.%.O.%.o.o.o.[ [ ] ] ] ) / / / ( ( ( W /.3XdXmXAXHXJXKXKXKXKXGXCX>XH G C C C C V V C C K M ,XNXAXGXGXGXJXJXKXKXFXZXNXqX,.C V S M M M M M M M M n A qXmXHXJXLXLXKXJXLXCX6XY.$.E V V V V V V V V V C C C N 3.VXZXkXzXfXuXuX-XE.f.-.&.{ ] / / / / / ` ` ` ' [ X.X.o.o.%.%.@.@.=.#.9.0.y.s.d.x.m.M.C.F.Y.T.~.'. X#X1X4XyXaXhXkXMXCXZXZXDXDXFXFXJXJXJXKXJXJXKXKXKXKXKXKXKXKXKXKXKXKXKXKXKXKXKXKXKXKXKXKXKXKXKXKXKXKXKXKXKXKXKXKXKXKXKXKXKXKXKXKXKXKXKXKXKXKXJXJXJXFXFXDXDXZXCXCXMXvXkXxXaXrX0X8X6X1X#XXX X[.^.~.T.Y.Z.S.D.A.m.m.c.x.x.s.s.s.i.i.y.y.0.0.0.0.0.9.9.=.=.=.=.=.=.=.=.@.@.@.@.#.=.=.*.*.*.*.=.=.=.=.=.=.=.=.6.6.9.9.9.9.9.9.y.i.s.f.x.x.n.n.M.Z.Y.T.~.~.[..X#X*X2X7XrXdXhXhXvXbXBXZXDXFXDXFXFXLXLXLXJXKXJXJXKXKXKXKXKXKXKXKXKXKXKXKXKXKXJXJXJXJXJXJXJXJXLXLXLXLXLXLXLXFXFXFXDXDXDXZXAXAXCXCXMXmXvXkXxXgXaXrXeX4X2X-X&X.X.X[.]._.E.J.H.M.M.n.n.d.i.t.0.w.w.w.=.=.=.*.*.O.O.O.O.o.X.X.[ [ [ [ [ [ [ [ +.@.*.#.u.<.! ).(.(.u.@.' ' S F F F S F F D D D D D L D E ' E $.).(.sX/.$.' / L G G V V V B m m m m m n M M n A E W z.U.).z.U.1.} I C S V V V V V V Z Z V C D D D F E E ' ' ' ' ' ' ` ^ ~ ~ F D D D L L L L L L P P I ~ ~ ^ ^ ^ / ) ) ) ) ) ] ] { o.O.O.O.O.*.*.;.-.9.u.y.s.s.x.m.m.m.C.R.T.~.~.[.XX#X=X1X6X9XiXhXhXvXvXbXBXZXZXDXDXFXFXFXLXLXLXLXLXLXLXLXLXJXJXJXJXJXJXJXJXJXJXJXJXJXJXJXJXJXJXJXJXJXJXJXLXLXLXLXLXGXFXFXFXFXFXFXFXDXZXCXbXvXkXjXfXgXgXmXvXkXfXeX-X",
"y.y.y.y.s.d.n.V.S.J.E.~.[..X#X=X6X5X8XsXhXhXlXvXvXbXCXZXDXDXFXFXLXJXJXKXKXKXKXKXKXKXKXKXKXKXKXKXKXKXKXKXKXKXKXKXKXKXKXKXKXKXKXKXKXKXKXKXKXKXKXKXKXKXKXKXKXKXKXKXKXKXKXKXKXKXKXKXKXKXJXLXFXFXDXDXZXBXBXbXvXkXhXxXgXaX0X4X6X=X#XXXoX[.~.W.R.J.S.m.m.v.v.v.x.c.s.i.y.u.9.-.-.;.*.*.%.%.%.O.%.o.o.{ [ ] ] ] ] ` ) ) / ( ( W /.$XtXNXAXGXKXKXKXKXKXFXCX,XW T D C C C C V C C C M ! tXNXAXAXGXGXJXJXGXCXzX;Xz.| L F S M M M M M M M M C A 6XfXMXDXFXGXLXLXHXmX(.$.' A S C V V V V V V V C C C M 3.ZXAXzX-X;X%X#XoXJ.t.X.o.{ [ / / / / ` ` ` [ [ [ X.X.o.O.%.*.@.#.=.6.9.0.y.f.d.n.m.M.C.Y.Y.T.!.[.XX#X1X5X9XaXhXkXmXCXCXZXDXDXFXFXLXJXJXJXJXJXKXKXKXKXKXKXKXKXKXKXKXKXKXKXKXKXKXKXKXKXKXKXKXKXKXKXKXKXKXKXKXKXKXKXKXKXKXKXKXKXKXKXKXKXKXKXKXKXJXJXLXLXFXDXZXZXCXBXMXmXkXxXaXaX9X7X6X1X*X#XXX.X^.~.W.R.Z.Z.C.C.A.m.m.x.x.x.d.s.f.s.i.i.t.t.t.t.t.0.0.9.9.-.-.=.=.=.=.=.=.=.=.=.=.=.=.=.=.=.=.=.=.=.=.=.-.-.9.9.9.9.w.w.w.y.y.i.f.f.x.x.m.N.M.Z.Y.T.~.[.[.XX#X*X2X7XrXdXhXhXvXbXBXVXDXDXDXFXFXLXLXLXJXKXJXJXJXJXJXJXJXJXJXJXJXJXJXJXJXJXJXJXJXJXJXJXJXJXLXLXLXLXGXGXFXFXFXFXDXDXZXAXCXCXCXMXMXmXvXkXhXdXaXrXyX4X3X=X%XXX.X[.[.].W.R.H.B.M.N.n.f.f.i.t.0.w.9.=.=.=.*.*.O.O.O.O.O.O.X.X.X.X.X.X.[ X.X.O.O.*.-.-.#.$.$.$.$.' / ^ ~ F F F F F F F F F D D D L U ( | X.$.$.$.$.' ' ' E S G Z Z V V V V m m M m M M M M S F E E W W ' ' ] ) _ F D S V C V V V V C C C S S D D F F ~ / ` ` ` ` / / ~ ~ F F F L L L L P P P I I I ~ ~ ^ ^ ^ / ) ) ` ] ] ] [ { o.%.%.O.%.*.*.;.-.-.u.u.y.s.x.m.m.m.C.R.T.~.~.[.oX#X$X1X6X0XiXdXhXkXvXbXbXBXZXZXDXDXFXFXFXLXLXLXLXLXLXLXLXJXJXJXJXLXLXLXLXJXJXJXJXJXJXJXJXJXJXJXJXLXLXLXLXLXLXGXGXFXFXFXDXFXFXFXFXDXZXBXbXvXkXjXdXaXgXmXvXkXjXeX*X",
"y.y.y.y.s.d.n.V.S.J.E.~.[..X#X=X1X6X8XsXhXhXlXvXvXbXMXCXZXDXDXFXLXLXJXKXKXKXKXKXKXKXKXKXKXKXKXKXKXKXKXKXKXKXKXKXKXKXKXKXKXKXKXKXKXKXKXKXKXKXKXKXKXKXKXKXKXKXKXKXKXKXKXKXKXKXKXKXKXJXJXFXFXFXDXDXZXBXBXbXvXjXhXxXgXaX0X4X6X=X#XXXoX[.~.W.R.J.S.m.m.v.v.v.x.x.s.s.y.9.9.-.-.;.;.*.%.%.%.O.%.&.o.{ { ] ] ] ] ] ] ) ) ( ( W $.^.!.qXmXAXFXFXLXLXDXbXhX,XG U D D L K C C C C U U $.z.tXzXNXHXGXGXHXCXiX$XP.5.~ L S S M M M M V M M M B v U.6XdXkXMXZXDXDXZXkX).5.W ` S C C S V V V S S S D S n Q nXkX=XT.Y.T.^.oXK.9.X.o.{ [ [ ] ` ` ` ` [ [ X.X.X.o.o.O.%.*.@.#.6.9.9.0.y.f.d.n.m.M.Z.Y.Y.T.!.[.XX%X1X5X9XaXhXkXmXMXCXZXDXDXDXFXLXJXJXJXJXJXKXKXKXKXKXKXKXKXKXKXKXKXKXKXKXKXKXKXKXKXKXKXKXKXKXKXKXKXKXKXKXKXKXKXKXKXKXKXKXKXKXKXKXKXKXKXKXKXJXLXLXFXFXFXZXZXCXbXMXmXkXxXgXaXrX7XqX1X*X#X#X X^.^.~.T.R.F.Z.C.C.A.m.m.n.x.x.d.d.f.f.i.i.i.i.t.t.t.t.0.9.9.9.9.-.-.=.=.=.=.;.=.=.=.=.=.=.=.=.=.=.=.-.-.-.-.9.9.9.9.w.y.y.i.s.s.s.f.x.m.m.A.C.G.Y.T.~.[..XXX#X*X2X7XrXdXhXhXvXbXBXVXDXDXDXFXFXFXLXLXJXKXJXJXJXJXJXJXJXJXJXJXJXJXJXJXJXJXJXJXJXJXJXJXJXJXLXLXLXLXGXGXFXFXFXDXDXZXZXAXCXCXCXMXMXvXvXkXhXdXaXrXrX4X6X=X%XXX.X{.[.].W.E.J.C.M.M.n.d.f.s.t.t.w.9.9.=.;.*.*.*.@.@.O.O.O.O.o.o.o.X.o.X.X.O.O.@.*.-.;.*.&.+.X.| | _ ^ I P F P P F F F F F F F L U U _ | { &.$.X.} } ` / E S G C V V C V V V M M M M M M V C G F ~ ' ' [ [ } ) _ L D D S S C C C C C C C S S D D D P ~ / / ) / ] ] ) / ~ P P P P L L I I I I ~ ~ ~ ~ ^ ^ ^ / / ) / / ] ] ] [ { o.%.%.O.O.@.*.;.-.-.u.y.i.s.s.c.m.m.A.Z.R.T.~.[.oX#X#X=X6XqX9XiXhXhXvXvXbXBXBXVXVXDXFXFXFXLXLXLXLXLXLXLXLXJXJXJXJXLXLXLXLXJXJXJXJXJXJXJXJXLXJXJXJXLXLXLXLXLXLXGXGXFXFXFXFXFXFXFXFXDXZXBXbXvXkXjXdXaXgXmXnXlXjXeX*X",
"y.y.y.y.s.d.x.N.S.J.R.W.[..X&X=X1X6X8X9XdXhXhXlXlXvXmXCXZXZXDXFXFXLXLXJXKXKXKXKXKXKXKXKXKXKXKXKXKXKXKXKXKXKXKXKXKXKXKXKXKXKXKXKXKXKXKXKXKXKXKXKXKXKXKXKXKXKXKXKXKXKXKXKXKXKXKXKXJXLXLXFXFXFXDXDXZXBXBXbXvXkXhXgXgXaX0X4X6X=X#XXX.X[.~.W.R.J.C.A.m.m.V.v.v.v.c.s.y.9.9.-.-.-.;.;.*.%.%.O.%.%.&.o.{ [ ] ] ] ] ] ] ) ( ' ' $./.3X).qXzXNXvXlXzXfX6X).<.| F F D L K D C Z C C D ' /.P. XxXAXGXZXvXdX$XU.z.:.F D S V V V V V M V V B H H ' z.^.=XfXzXMXMXMXfX(.z.E S S S S S S S S S S S D D D d ).0X/.c.z.A.Q.D.u.[ o.o.o.{ [ [ [ [ ` [ [ X.o.o.o.o.o.O.%.*.*.#.9.9.w.t.i.s.d.n.V.M.Z.Y.T.~.'.[.XX%X=X6X9XaXhXkXmXMXCXCXZXDXDXFXLXLXJXKXJXJXKXKXKXKXKXKXKXKXKXKXKXKXKXKXKXKXKXKXKXKXKXKXKXKXKXKXKXKXKXKXKXKXKXKXKXKXKXKXKXKXKXJXJXJXKXKXKXKXJXLXLXFXFXDXZXZXCXCXbXvXlXjXxXaXsX9X4X6X1X$X#XXXoX[.^.T.T.R.F.F.C.C.A.N.n.n.x.x.d.d.d.f.f.s.s.i.y.t.y.u.u.w.0.9.9.w.-.-.-.-.-.-.-.-.-.-.-.=.-.-.-.-.;.;.-.9.9.9.9.w.y.h.y.s.s.f.s.d.x.m.m.A.C.G.Y.T.~.[..XXX#X*X2X7X9XaXdXhXkXbXBXBXZXDXFXFXFXFXLXLXLXLXJXJXJXJXJXJXJXJXJXJXJXJXJXJXJXJXJXJXJXJXJXJXLXLXLXLXLXLXFXFXFXFXFXDXDXZXZXZXCXCXCXbXMXvXkXkXhXdXgXrXrX4X2X=X%XXX.X.X[.].W.E.J.H.M.M.N.n.d.f.i.t.q.w.9.=.=.=.*.*.@.@.@.O.O.O.O.O.o.o.o.o.o.O.O.@.=.-.-.#.@.+.{ } | ( ( ~ P P P P P P P F F F F P I I _ } { &.&.o.} } ) ( F S S S S V V C C V V V M M M V V C L U ( / ' [ { { ] _ L G D S S S S S S S S S D D D D D P ~ / / / ) ] ] ] / ~ ~ P P P P I ~ ~ I I ^ ^ ^ ^ ^ / / / ) ) ) ] ] ] [ [ o.o.%.%.%.%.*.*.-.-.u.u.y.u.s.s.c.m.m.A.Z.R.T.~.[.oXXX#X$X1XqX0XiXhXhXkXvXbXbXBXVXVXPXPXFXFXFXFXLXLXFXFXGXLXLXLXLXLXLXLXLXLXLXLXLXLXLXLXLXLXLXLXLXLXLXLXLXLXLXGXGXGXFXFXFXFXFXFXFXFXDXVXBXbXvXkXjXdXaXgXmXnXlXjXeX*X",
"y.y.y.y.s.d.n.V.S.J.E.W.[..XXX&X=X6X6X9XiXhXhXlXlXkXvXMXCXZXDXFXFXLXLXJXKXKXKXKXKXKXKXKXKXKXKXKXKXKXKXKXKXKXKXKXKXKXKXKXKXKXKXKXKXKXKXKXKXKXKXKXKXKXKXKXKXKXKXKXKXKXKXKXKXKXKXKXJXLXLXFXFXFXDXDXZXBXbXvXvXkXhXgXgXaX0X4X6X=X#XXX.X[.~.Q.R.R.S.C.D.M.V.v.v.v.x.s.y.9.9.-.-.-.;.;.*.%.%.%.%.O.o.o.{ [ [ ] ] ] ] ] ) | ' ' ' ' ^.wXtXzXdX@X@X5X&X!.b.1._ L F F L L L D D C C D A $.^.!.qXjXNXmXiX6X/.b.:.` F D Z Z V V V V V V M M N n E :.u./.(.6XjXjXjXtX/.' E D S S S S S S S S S S D D L G A z.u.u.b.:.:.X.[ %.o.o.o.o.{ { { } [ [ +.o.o.o.o.o.O.O.*.*.*.=.6.6.9.t.i.s.d.n.V.M.Z.Y.T.~.'.[.XX%X=X6X0XsXdXkXvXMXCXCXZXDXDXFXLXLXJXKXJXJXKXKXKXKXKXKXKXKXKXKXKXKXKXKXKXKXKXKXKXKXKXKXKXKXKXKXKXKXKXKXKXKXKXKXKXKXKXKXKXKXKXJXJXJXKXKXKXKXJXLXLXFXFXFXZXZXCXCXMXmXkXjXxXaXsX9X7X6X1X1X$X#XoXoX^.~.W.Y.Y.F.G.C.C.M.m.m.n.n.x.x.x.d.f.f.f.s.i.t.t.y.y.w.0.0.9.9.w.-.-.-.-.-.w.w.w.-.-.-.-.-.-.;.;.;.9.9.9.9.w.y.y.h.p.p.s.f.d.d.x.m.m.C.C.G.Y.T.~.[..XXX#X*X2X7X9XgXdXhXhXvXBXBXZXDXFXFXFXFXLXLXLXLXJXJXJXJXJXJXJXJXJXJXJXJXJXJXJXJXJXJXJXJXJXJXLXLXLXLXLXLXFXFXFXFXFXDXDXZXZXCXCXCXMXbXMXvXkXkXhXfXgXrXrX4X2X=X%XXX.X.X[.]._.Q.J.H.M.M.M.n.x.d.s.t.y.w.w.6.=.=.=.*.@.@.@.@.O.O.O.O.O.O.O.o.O.O.*.@.=.-.#.#.&.&.{ } | ( ( ~ ~ ~ I I P P P P F P L P I I ^ } o.&.&.o.} } ) ( F S S S S V C C C V V V M M V V C C U U ( ( ` [ { { ] / P F D D D S D D S S D D D D D D D L ~ ( / / ) ] ] ] / / ~ ~ ~ I P I ~ ~ I I ^ ^ ^ ^ ^ / / / ) / ) ] ] ] [ [ o.o.%.%.%.%.*.*.-.9.u.u.u.y.i.s.x.c.m.A.Z.R.T.~.^.oXXX#X$X1XqX0XiXpXhXhXvXvXbXbXBXVXVXPXDXFXFXFXFXFXFXFXGXGXLXLXLXLXLXLXLXLXLXLXLXLXLXLXLXLXLXLXLXLXLXLXLXLXGXGXGXGXFXFXFXFXFXFXFXFXZXVXBXbXvXkXjXdXaXgXvXnXlXjXeX*X",
"u.y.y.y.s.d.x.m.C.G.R.W.]..X+X&X=X6X6X8XiXhXhXhXlXlXkXbXCXZXDXFXLXLXJXJXJXJXKXJXKXKXKXKXKXKXKXKXKXKXKXKXKXKXKXKXKXKXKXKXKXKXKXKXKXKXKXKXKXKXKXKXKXKXKXKXKXKXKXKXKXKXKXKXKXKXKXJXLXLXLXFXFXFXFXZXVXBXbXvXkXkXhXdXaXiX7X4X6X=X#XXXoX[.~.T.Q.R.D.D.M.m.m.v.v.v.x.s.y.t.0.9.9.-.;.;.;.*.%.%.%.O.O.o.o.{ [ ] ] ] ] ] ] ` ' ' X.X.$.z.(.fXzXwX X[.Q.b.$.| ~ L F D L L L D D D L D F F ' U.=X=XuXeX6X=X/.1.` E D D G Z V V V V V V V C V S S S | <.1.U.(.6X(.z.' / I L D D D D S S D S S S F D D D S E E / ` X.[ X.o.&.o.o.o.o.o.+.o.+.+.+.o.o.o.o.o.O.O.O.*.*.=.=.9.9.0.t.s.d.d.n.m.M.Z.Y.T.~.~. XXX#X=X5X0XsXdXkXvXMXCXCXZXDXDXFXFXLXLXLXJXJXKXKXKXKXKXKXKXKXKXKXKXKXKXKXKXKXKXKXKXKXKXKXKXKXKXKXKXKXKXKXKXKXKXKXKXKXKXKXKXKXKXJXKXJXJXKXJXJXJXJXLXFXFXDXDXZXCXCXMXnXkXjXfXgXsXyX8XqX1X1X=X$X#XoXoX^.~.W.R.Y.F.G.C.M.m.m.m.n.x.x.x.d.d.f.f.i.i.y.t.t.t.t.0.0.w.9.9.9.9.9.9.9.9.w.9.;.;.;.w.w.9.9.9.9.9.9.w.w.y.y.y.y.s.s.s.s.f.d.x.m.m.S.S.J.T.W.~.[..XXX%X*X4X7X9XaXdXhXhXvXbXBXVXDXDXFXFXFXFXLXLXLXLXLXJXLXLXLXLXLXJXJXJXJXLXLXLXLXLXLXLXLXLXLXLXLXGXGXGXFXFXFXFXFXFXFXDXZXZXCXCXCXMXMXmXvXkXhXhXfXgXaXrX4X2X=X&X#X+X.X[.[.].W.J.H.L.M.M.N.n.x.f.i.y.y.w.9.;.=.;.*.*.*.@.@.@.O.O.O.O.O.O.O.O.@.*.=.=.=.=.*.O.&.{ } / ( ( ~ ~ ~ ~ ~ P P P P P L L L I ^ / } { &.%.o.{ } _ ( L D S S S C C C V V V C V V V C C C L U ( ( ` ] { { ] / P D D D D D D D D D D D D D D D F F ~ ^ / / ` ] ] ] } ] / ~ ~ ~ P P I I ^ ^ ^ ^ ^ ^ / / / / ) ] ) ] ] ] [ [ o.o.%.%.%.*.*.=.-.9.u.u.u.u.t.s.x.c.c.A.Z.R.T.~.^.oXXX#X$X1X6X0X9XiXdXhXlXvXbXbXVXBXVXVXDXDXFXFXFXFXFXFXFXFXFXFXFXFXGXGXGXGXLXLXLXLXLXLXLXLXFXFXFXLXLXLXLXLXFXGXGXFXFXDXDXDXFXDXDXDXVXBXbXvXkXjXhXdXsXaXvXnXnXvX0X4X",
"u.y.y.y.s.s.x.m.C.G.R.W.~.[..X#X=X=X6X8XiXiXhXhXhXhXkXmXCXZXDXFXLXLXJXJXJXJXJXJXKXKXKXKXKXKXKXKXKXKXKXKXKXKXKXKXKXKXKXKXKXKXKXKXKXKXKXKXKXKXKXKXKXKXKXKXKXKXKXKXKXKXKXKXKXKXKXJXLXLXLXFXFXFXFXZXVXBXbXvXkXkXhXdXaXiX7X4X6X=X#XXXoX[.~.T.Q.R.D.D.D.M.m.m.v.v.d.s.i.t.0.9.9.-.;.;.;.;.*.%.%.O.o.o.o.{ [ [ ] ] ] ] ] ] ] [ o.o.X.$.$.<.oXwXZ.z.X.[ ~ I L L F F L L L L D D D D L F S ,.<.z.z.z.z.:.$.' ~ F D D G S S S C V V V V C S S S S F ( } $.<.$.$.$.} ] I L D D D D D S D D S F F F L D F S E ~ / ] [ { &.&.o.o.o.o.o.o.o.o.o.o.o.o.o.o.O.O.O.O.*.*.=.#.9.9.0.t.s.d.d.n.m.M.Z.Y.T.~.^.oXXX#X=X4X0XsXdXhXvXbXBXCXZXZXDXFXFXLXLXLXJXJXKXKXKXKXKXKXKXKXKXKXKXKXKXKXKXKXKXKXKXKXKXKXKXKXKXKXKXKXKXKXKXKXKXKXKXKXKXKXKXKXKXKXJXKXJXKXJXJXJXJXLXFXFXDXDXZXCXCXMXnXkXjXfXgXsX9X0X4X6X1X=X$X$X$XoX[.~.W.T.R.Y.J.G.C.B.M.M.V.m.x.x.x.d.s.s.f.f.i.i.t.t.y.t.t.y.u.0.0.0.0.9.9.9.9.9.9.9.9.9.9.9.9.9.0.9.w.y.u.y.y.y.y.s.s.s.d.d.x.m.m.m.S.S.J.T.~.^.[..XXX%X*X4X7X9XaXdXdXjXkXbXBXVXZXDXDXFXFXFXFXLXLXLXLXLXLXLXLXLXLXJXJXLXJXLXLXLXLXLXLXLXLXLXLXLXLXGXGXGXFXFXFXFXFXFXFXDXZXZXCXCXCXMXMXvXvXkXjXhXfXgXaXrX4X2X1X=X#XoX.X[.[.].W.E.H.C.M.M.m.n.x.d.s.y.y.q.w.9.=.;.=.*.*.@.@.@.O.O.O.O.O.O.O.@.*.=.9.6.9.;.*.%.o.{ ] ) / ~ ~ ~ ~ ~ ~ P P P P P P P P I ^ / ] o.%.%.o.{ ] ) ^ P F S S S C S C V V V C V V V C V C L U ~ ( ` ] { { ] / P F D D D D D D D D D D D D D D F F ~ ^ / / ` ] ] ] ] ] / / ^ ~ ~ P I I ^ ^ ^ ^ ^ ^ / / / / ` ` ] ] ] ] [ { o.o.%.%.%.@.*.=.-.9.u.u.u.u.t.s.x.c.c.A.Z./.Y.~.^.oXoX#X$X1XqX0X0XiXiXhXlXvXbXbXBXBXVXVXZXDXFXFXFXFXFXFXFXFXFXFXFXFXLXGXGXGXLXLXLXLXLXLXLXLXFXFXFXFXFXFXFXFXGXGXFXFXFXDXDXDXZXZXZXVXBXbXvXkXjXjXdXaXaXaXvXnXnXbXaXsX",
"u.y.y.y.s.s.x.m.M.C.Y.W.~.[.oXXX&X-X1X6X9XiXdXdXhXhXkXvXMXZXDXFXFXLXJXJXLXLXJXJXJXJXKXKXKXKXKXKXKXKXKXKXKXKXKXKXKXKXKXKXKXKXKXKXKXKXKXKXKXKXKXKXKXKXKXKXKXKXKXKXKXKXKXKXKXKXKXJXLXLXLXFXFXFXFXZXVXBXbXvXkXjXhXgXaXiX7X4X6X=X#XXXoX[.~.T.Q.R.D.D.D.D.M.m.V.x.v.s.y.y.w.9.9.9.;.;.;.;.*.*.%.%.+.O.o.o.{ [ [ [ ] ] ] ] [ [ o.&.%.O.+.$.u.$.u.+.` / L L I L P L D L L L D D F D L L ( | $.:.#.#.$.$.' ` ~ F D D D S S S S S V V S S S S S S F F ~ ' W ' $.+.+.} _ I L D D D D D F F F F F F F F F F F ~ ^ / } { &.&.&.o.o.o.o.o.o.o.o.o.o.o.O.O.O.O.O.%.*.;.=.=.w.9.0.p.s.d.d.n.M.C.Z.Y.W.~.[..XXX%X=X5X0XsXdXhXvXbXbXBXZXZXDXDXFXLXLXLXLXJXKXKXKXKXKXKXKXKXKXKXKXKXKXKXKXKXKXKXKXKXKXKXKXKXKXKXKXKXKXKXKXKXKXKXKXKXKXKXKXKXKXKXKXKXJXJXKXJXJXJXLXFXFXDXDXZXZXCXMXvXlXxXjXfXdXtX9X8X6X1X1X$X$X$XoXoX[.].~.W.E.R.J.H.S.S.D.M.M.m.m.V.x.x.x.d.f.f.f.i.i.i.y.t.y.y.y.t.u.y.u.u.u.u.u.u.u.u.w.w.0.0.y.y.u.u.y.y.y.y.y.i.s.s.d.x.x.n.m.M.D.S.S.J.T.~.^.[..XXX%X*X4X7X7XsXdXxXhXkXvXbXBXVXZXZXDXFXFXFXLXLXLXLXLXLXLXLXLXLXLXLXLXLXLXLXLXLXLXLXLXLXLXLXGXLXGXGXGXFXFXFXFXFXFXDXZXZXCXCXCXMXMXvXvXkXkXjXhXfXgXaXrX4X2X1X=X#XoX.X[.[.].W.E.F.H.L.M.M.N.V.d.s.p.y.y.q.w.-.=.;.*.*.@.@.@.@.O.O.%.%.O.O.*.-.9.9.9.=.;.*.O.o.{ ] / / / / ^ ^ ~ ~ ~ ~ P ~ I I P I ~ ^ / [ o.&.%.o.{ ] / ^ P D D D D D D D C C C C V V C C C D F U ~ ( ` [ { { ] / ~ F F D F D D D D D D D D D D D F L ~ ^ / / ] ] ] [ } } / / ^ ~ ~ ~ ^ ^ ^ ^ ^ ^ ^ ^ / / / / ` ` ] } ] ] [ { o.%.%.%.%.*.*.-.-.9.u.u.u.u.t.s.x.c.c.A.Z.Y.T.~.^.oXXX#X$X$X1XqX0XiXiXpXhXvXnXnXbXBXBXVXZXVXDXDXFXFXFXFXFXFXFXFXFXFXFXFXFXFXFXFXFXFXFXFXFXFXFXFXFXFXFXFXFXFXGXFXFXFXFXDXDXZXZXZXCXCXMXvXvXkXjXfXgXgXgXpXbXSXSXCXxXzX",
"9.y.y.y.i.s.x.m.C.C.J.Y.T.!.[..XXX-X=X6X8X9XaXdXdXhXjXkXMXCXZXDXFXFXLXJXLXLXKXJXJXJXKXKXKXKXKXKXKXKXKXKXKXKXKXKXKXKXKXKXKXKXKXKXKXKXKXKXKXKXKXKXKXKXKXKXKXKXKXKXKXKXKXKXKXKXKXLXLXLXLXFXFXFXDXZXVXBXbXvXkXjXdXgXaXiX7X4X6X=X#XXXoX[.~.~.Q.R.D.D.D.D.m.m.m.x.v.s.s.y.0.9.9.9.;.;.;.;.*.*.%.%.+.o.o.o.o.[ [ [ [ ] ] ] [ { o.%.%.%.@.w.u.-.:.X./ ) P L I I I L L L L L L L L L L L L ^ [ #.#.#.X.[ ] ` ~ F D D D D D S S S S S S S S S S S D F ~ / ' ' X.@.&.{ ) ^ I L F F F F F F F F F F F F F F F P ~ / } { &.&.&.o.o.o.o.o.o.o.o.o.o.o.O.O.O.O.O.%.*.;.=.=.0.0.0.i.s.d.d.n.M.C.Z.Y.W.~.[..XXX%X=X5X8XtXdXhXkXvXbXBXZXZXZXDXFXLXLXLXLXKXKXKXKXKXKXKXKXKXKXKXKXKXKXKXKXKXKXKXKXKXKXKXKXKXKXKXKXKXKXKXKXKXKXKXKXKXKXKXKXKXKXKXKXKXJXJXKXJXJXJXLXFXFXDXDXZXCXCXMXnXlXxXjXjXfXsX9X8X5X6X1X$X$X&X$XoX[.[.].].W.E.R.J.Z.D.S.D.D.D.D.m.m.m.m.x.x.d.d.s.s.s.f.s.s.i.y.y.y.y.y.y.y.y.y.y.y.y.y.y.y.t.t.y.y.y.y.y.y.y.t.i.s.d.x.x.x.n.m.S.S.S.J.J.T.~.^.[..XXX%X*X1X7X7XaXaXdXdXjXvXbXbXBXVXZXDXDXFXFXFXFXLXLXLXLXLXLXLXLXLXLXLXLXLXLXLXLXLXLXLXLXLXLXGXLXGXGXGXFXFXFXFXFXFXDXZXZXCXCXCXMXMXvXvXkXkXjXhXfXdXaXyX4X6X1X=X#XoX.X[.[.].W.E.K.H.C.C.M.V.V.x.s.s.p.y.y.w.w.=.;.=.*.@.@.@.@.@.O.O.O.*.@.-.-.w.w.9.=.;.*.O.o.[ ] / / / / ( ^ ~ ~ ~ ~ ~ ~ ~ ~ ~ ~ ~ / ` [ o.&.%.o.{ ] / ~ P F D D D D D S C C C C C C C D D D F F ~ ( ` [ { o.} / ~ P F D D F F F D D F F D D D F F L I ~ ~ / ] ] ] [ ] } ] / / ( ~ ~ ^ ^ ^ ^ ^ ^ ^ ^ / / / / ] ] ] ] ] ] [ { o.%.%.%.%.*.*.-.-.u.u.u.9.u.t.s.c.c.c.A.Z.R.R.~.^.oXoXoX$X$X1XqX0X0XiXiXhXlXvXnXnXbXBXBXBXBXVXVXDXFXFXDXFXFXFXFXFXFXFXFXFXFXFXFXFXFXFXFXFXFXFXFXFXFXFXFXFXFXFXFXFXFXFXDXDXZXZXCXCXMXmXvXkXkXjXfXgXgXgXpXvXnXnXMXkXNX",
"-.u.u.y.t.s.x.m.m.Z.J.Y.T.~.'..XXX&X=X6X4X9XsXaXdXdXfXkXmXCXAXDXFXGXLXLXLXLXJXJXJXJXJXJXKXKXKXKXKXKXKXKXKXKXKXKXKXKXKXKXKXKXKXKXKXKXKXKXKXKXKXKXKXKXKXKXKXKXKXKXKXKXKXKXJXJXJXLXLXLXFXFXFXDXZXZXBXbXvXvXkXhXgXaXiX9X7X6X6X=X#XXXoXoX^.~.Q.R.D.C.A.D.m.m.m.x.v.s.s.y.t.9.9.9.-.;.;.-.;.*.%.%.&.&.%.o.o.[ [ [ [ [ [ [ [ o.o.%.*.*.7.r.7.=.@.X.' ` ~ ( ^ I I I P I L L L L L P P P Y _ { @.-.#.O.+.} ] ~ F F D D D D D D S S S D D G D D D F F ~ ~ ' ' +.*.&.o.} / ~ P F F F F F F F F F F F F F P P ~ ~ ^ ] } o.&.&.&.o.o.o.o.O.+.+.+.+.+.O.O.O.O.O.*.;.;.=.-.0.0.y.i.s.x.x.n.M.C.F.Y.W.~.[. XXX%X*X6X8X9XaXhXkXvXbXBXBXZXDXDXFXFXLXLXLXJXKXKXKXKXKXKXKXKXKXKXKXKXKXKXKXKXKXKXKXKXKXKXKXKXKXKXKXKXKXKXKXKXKXKXKXKXKXKXKXKXKXKXKXKXJXKXKXJXLXLXLXFXFXDXZXZXCXCXMXvXkXlXjXjXfXaX9X9X4X6X1X=X$X$X&XoXoX[.[.'.W.W.W.R.J.Z.Z.Z.D.S.S.m.m.m.m.m.x.x.x.x.x.x.s.s.s.s.s.s.y.y.y.y.y.i.i.i.y.y.y.y.t.t.t.t.t.t.t.t.i.i.i.s.s.x.x.x.n.m.m.S.S.S.J.R.W.~.[.[..XXX#X*X1X4X7XrXsXaXdXjXkXvXbXBXBXVXZXZXDXFXFXFXFXFXFXFXGXGXGXGXLXLXLXLXGXGXGXGXGXGXGXGXFXFXFXFXFXFXFXFXFXFXDXDXFXDXZXVXBXBXBXbXbXvXvXkXjXjXdXdXgXaX7X7X6X1X&X&X+X.X.X[.]._.E.F.J.H.H.B.B.V.x.d.s.s.p.y.q.w.=.=.=.=.#.@.@.@.@.@.O.@.@.=.-.9.y.q.9.=.=.O.o.{ ] ] / / ( / ( ^ ~ ~ ~ ~ ~ ~ ~ ~ ^ ^ ^ / ] { &.;.%.O.{ ] / ~ P F D D D D D S D C D D S S D D D D F P I ( / [ o.&.} ] / ~ F D D F F F F F L L D D P L F L P ~ ^ / ` ] [ [ [ } } ] / ( ~ ~ ^ ^ ^ ^ ^ ^ ^ ^ / / / ] ] ] ] ] ] [ [ X.o.O.%.%.%.@.*.-.-.9.u.u.9.t.t.s.c.c.c.A.Z./.R.~.^.^.oXoX$X@X1XqXqX0XiXiXdXhXkXvXnXnXnXbXBXBXVXVXDXDXFXFXFXFXFXFXFXFXFXFXFXFXFXFXFXFXFXFXFXFXFXFXFXFXFXFXFXFXFXFXFXFXDXDXZXZXCXMXvXvXvXkXlXhXhXdXsXrXtXiXiXiXhXdXdXdX",
"-.u.u.u.t.s.x.x.m.C.Z.Y.T.~.'.[..XXX&X=X6X8X9XsXsXgXdXjXmXCXZXDXFXGXLXLXLXLXJXJXJXJXJXJXKXKXKXKXKXKXKXKXKXKXKXKXKXKXKXKXKXKXKXKXKXKXKXKXKXKXKXKXKXKXKXKXKXKXKXKXKXKXKXKXJXJXJXLXLXFXFXFXFXZXZXVXBXbXvXkXjXhXgXiXiX9X7X6X6X=X#XXXoXoX^.~.Q.R.Z.A.A.A.m.m.m.v.v.s.i.y.t.9.9.9.9.;.-.;.;.*.*.%.%.&.O.o.o.{ { [ o.[ [ [ o.o.%.%.*.=.7.r.7.#.@.X.' ' ~ ( ^ ^ I I I I I L P P P I P I ^ ) { @.-.=.O.o.{ ] ~ P F F F D D D D D D D D D D D D D F F ~ ~ / ' O.*.%.&.{ ] ~ ~ P F F F F F F F F F F P P P P ~ ~ ~ / ] { o.+.&.o.o.O.O.+.+.O.O.@.O.O.O.O.O.O.*.*.;.=.9.0.0.y.i.s.x.x.n.M.C.F.Y.W.~.[. XXX&X*X1X5X9XaXdXhXnXvXBXCXZXZXFXFXFXLXLXLXJXJXKXKXKXKXKXKXKXKXKXKXKXKXKXKXKXKXKXKXKXKXKXKXKXKXKXKXKXKXKXKXKXKXKXKXKXKXKXKXKXKXKXKXKXJXJXJXJXLXLXLXFXFXDXDXZXCXbXMXvXkXkXkXjXfXgXtX0X8X5X6X1X=X$X#XXXXX.X[.'.~.W.W.R.R.R.Z.Z.Z.D.C.A.m.m.m.m.m.c.x.x.x.x.x.s.s.s.s.s.s.s.s.s.s.i.i.i.i.i.y.i.t.t.s.s.t.t.t.t.s.s.s.s.s.x.x.x.n.m.m.m.C.S.J.R.W.~.[.oX.XXX@X;X1X4X7XyXsXsXgXdXjXvXbXbXBXBXZXVXZXDXFXFXFXFXFXFXGXGXGXGXLXLXGXGXGXGXGXGXGXGXGXGXFXFXFXFXFXFXFXFXFXFXDXDXDXZXZXZXCXBXBXbXvXvXvXkXjXjXdXdXdXaX7X7X6X1X&X#X+X.X.X[.]._.E.F.F.H.H.S.B.V.x.d.s.f.p.y.y.w.9.=.=.=.#.@.@.@.@.@.@.@.=.-.9.0.0.0.9.=.*.O.o.{ ] / / / / / ( ^ ~ ~ ~ ~ ~ ~ ^ ^ ^ ^ ^ / ] { &.;.%.o.[ ] / ~ P F D D D D D S D C D D D D D D D D F F I ^ ) { o.&.{ ] / ~ F D D F L L F D L L L L L L F L P ~ ~ / / ] [ [ [ [ } ] / ( ^ ^ ^ ^ ^ ^ ^ ^ ^ / / / ` ] ] ] ] ] [ [ [ X.o.O.%.%.%.@.*.;.-.9.u.u.9.9.t.f.c.c.c.A.D./.R.~.^.^.oXoX#X@X$X1XqX0X9XiXdXhXkXkXvXvXnXbXbXBXBXBXZXDXDXDXFXFXFXFXFXFXFXFXFXFXFXFXFXFXFXFXFXFXFXFXFXFXFXFXFXFXFXFXFXFXDXDXZXCXmXkXhXhXhXhXdXdXsXtX8X5X6X1X6X6X6X6X5X5X",
"-.u.u.t.t.s.d.x.m.C.Z.R.T.~.].[..XXX&X=X6X4X8XyXtXsXdXjXmXMXCXDXFXGXLXLXLXLXJXKXJXJXJXJXKXKXKXKXKXKXKXKXKXKXKXKXKXKXKXKXKXKXKXKXKXKXKXKXKXKXKXKXKXKXKXKXKXKXKXKXJXJXJXJXJXJXJXLXLXFXFXFXDXZXZXVXBXbXvXkXjXhXaXaXaX0X7X6X1X=X#XXXoXoX^.Q.Q.R.Z.D.C.C.A.m.m.c.v.s.s.y.y.0.w.9.9.;.-.-.;.*.*.%.%.%.O.O.o.o.o.o.o.[ [ o.O.O.%.*.;.;.0.t.0.#.#.X.` ` / ^ ^ ^ ~ I I P I I P P P I ~ I ^ ) X.#.9.#.O.o.[ ] / ~ F F F F F D D D D F D D D D D F F F ~ / / [ o.*.%.&.+.' ~ ~ ~ P F P P P F F P P P P P P ~ ~ ~ ~ / ] ] { o.&.+.+.O.O.%.%.*.*.;.%.%.%.@.O.@.*.;.=.-.9.t.t.t.s.s.x.x.N.C.C.G.Y.W.~.[..XXX$X*X6X5X9XsXgXhXkXvXMXCXZXZXDXFXFXFXLXJXJXJXJXJXJXJXJXJXJXJXJXKXKXKXKXKXKXKXKXKXKXKXKXKXKXKXKXKXKXKXKXKXKXJXJXKXKXKXKXKXKXKXKXKXKXJXJXJXLXLXLXLXFXFXFXDXZXCXbXbXvXvXkXkXjXfXaX9X0X7X5X6X1X=X&X&XXXXX.X X[.'.!.W.T.R.R.R.Z.Z.D.Z.C.A.A.m.m.N.m.n.x.x.x.x.x.x.c.s.f.f.s.s.s.s.s.s.s.s.s.s.s.s.s.s.s.s.s.s.f.s.s.c.c.x.x.x.n.m.m.D.A.C.Z.J.Y.W.~.[.oX.XoX#X;X1X2X7X9XtXsXgXgXjXkXvXbXbXBXBXVXZXZXDXFXFXFXFXFXFXFXGXFXGXGXGXGXGXGXFXFXGXGXGXGXFXFXFXFXFXDXDXFXFXFXDXDXDXZXZXCXBXBXBXbXvXvXkXkXjXjXfXdXgXrX7X4X6X1X%X&X+X.X.X[.]._.E.F.F.F.H.C.M.m.x.d.s.a.i.p.y.y.w.6.=.=.=.@.@.@.@.@.@.=.=.9.0.0.0.0.9.=.*.O.X.[ ] ` / / / / / / / ^ / ~ ^ ^ ^ ^ ^ ^ ^ / ] o.%.-.%.o.[ ] / ~ ~ F F D D D D D D D D D D D D D D D F F ~ ^ ) } &.&.o.} / ~ P F F F F F L L L L L L L P P P P P ~ / / ] ] [ [ [ } ] ] / ( ^ ^ ( ( ( ^ ^ / / ] ] ] ] ] ] [ [ [ [ X.o.O.%.%.%.%.@.*.-.-.9.u.u.9.9.t.f.x.x.c.m.D.R.R.T.!.^.oX X X$X@X1XqX4X9XiXaXfXjXkXkXkXvXnXbXbXBXBXZXDXDXDXFXFXFXFXFXFXFXFXFXFXFXFXFXFXFXFXFXFXFXFXFXFXFXDXDXDXDXDXDXDXDXZXCXvXkXdX9X8X6X6X6X=X#XXX X'.!.W.~.~.~.^.^.^.",
"-.u.u.t.t.s.d.x.m.A.Z.R.T.T.~.[.[..XXX*X6X6X8X0X9X9XaXjXvXMXCXZXDXFXLXLXJXLXJXJXJXJXJXJXKXKXKXKXKXKXKXKXKXKXKXKXKXKXKXKXKXKXKXKXKXKXKXKXKXKXKXKXKXKXKXKXKXKXKXKXJXJXJXJXJXLXLXLXLXFXFXFXDXZXZXBXbXvXvXkXhXdXaXiXrX0X7X6X1X=X#XoXoXoX^.Q.Q.R.R.Z.C.C.A.m.m.c.x.s.s.y.y.0.0.w.9.;.-.-.;.-.*.*.%.%.O.O.o.o.o.o.o.X.o.O.O.O.%.*.;.;.9.u.u.#.+.X.] ] ^ ^ ^ ^ ~ I I I I I P P P I ~ ~ ~ / X.@.#.#.@.+.[ ] / ~ F F F F F D D D F F D D D D D D F F ~ / / ] o.*.*.%.+.[ / ~ ~ P F P P P F F P P P P P P ~ ~ ~ ~ / / ` [ o.&.&.+.O.%.*.*.;.*.*.*.*.*.*.*.@.*.;.=.-.9.t.t.t.s.s.x.x.N.C.C.G.Y.W.~.[..XXX#X*X6X5X9XiXgXxXkXvXMXCXCXZXZXDXFXFXFXLXLXLXLXJXJXJXJXJXJXJXJXKXKXKXKXKXKXKXKXKXKXKXKXKXKXKXKXKXKXKXKXKXKXJXKXKXKXKXKXKXKXKXKXKXJXJXJXJXLXLXLXGXFXFXDXDXZXCXbXbXvXvXvXkXjXfXaXrX0X7X7X5X1X=X=X&X#XXX X X[.'.!.~.T.Y.R.R.Z.Z.Z.Z.C.C.A.A.m.m.m.n.x.n.x.x.x.x.x.x.s.f.f.f.f.f.s.s.s.s.s.s.f.s.s.f.f.f.f.f.f.s.s.x.x.x.x.x.m.m.m.m.S.Z.Z.J.Y.T.~.[.[.oXoX#X*X1X1X4X9XyXtXsXsXfXkXvXvXbXbXBXBXZXZXDXFXFXFXFXFXFXFXFXFXFXFXFXFXFXFXFXFXFXFXGXGXFXFXFXFXDXDXFXDXDXDXDXDXZXZXVXBXBXbXbXbXvXkXkXjXjXfXdXdXaXrX7X4X2X=X%X&X+X.X.X{.]._.E.K.F.F.G.C.m.m.n.d.d.i.i.p.t.y.w.9.6.=.=.@.@.@.#.#.=.=.9.w.0.0.0.w.9.=.@.O.X.[ ] ` ` / / / / / / ^ / ~ ^ ^ ^ ^ ^ ^ / / ` o.%.;.%.o.[ ] / ~ P F F D D D D D D D D D D D D D D D D F I ^ ) } &.&.+.[ / ~ P F F F F F L L L L L L P P P P P P ~ ^ / ] ] ] [ [ } } ] / / ^ ^ ( ( ^ / / / / ` ] ] ] ] ] [ [ [ [ X.o.O.O.%.%.%.@.*.-.-.9.u.u.9.9.t.s.x.x.c.m.D.R.R.T.~.^.^.(. X$X@X$X1XqX8X9XsXfXjXjXkXkXvXnXbXbXbXBXVXZXZXDXDXDXDXDXFXFXFXFXFXFXFXFXFXFXFXFXFXFXFXFXFXFXDXDXDXDXDXDXDXDXZXBXMXhXiX8X6X$XoX^.~.~.Y.Z.P.P.P.c.N.c.c.c.c.c.",
"9.w.u.t.t.i.d.x.m.A.D.R.R.T.~.[.oX.XXX$X1X6X5X7X7X0XaXhXkXMXCXZXDXFXFXGXLXLXLXJXJXJXJXJXKXKXKXKXKXKXKXKXKXKXKXKXKXKXKXKXKXKXKXKXKXKXKXKXKXKXKXKXKXKXKXKXKXKXKXKXJXJXLXLXLXLXLXLXFXFXFXDXZXVXCXBXbXvXvXjXjXdXaXiX9X0X4X6X1X=X#XoXoX[.^.~.T.R.R.Z.Z.Z.C.A.m.c.x.x.s.y.y.t.u.u.w.9.9.-.-.;.*.*.*.%.O.O.O.o.X.X.X.o.O.%.O.O.O.*.;.-.9.9.9.-.@.[ ] ) / ^ ^ ^ ^ ^ I I I I P P P P I ~ ~ / [ O.;.*.O.o.[ ` / ~ E F P F F F F F D D D D D D D F F F P P / ] { &.*.*.O.X.` ~ ~ ~ P P P P P P P P P ~ ~ ~ ~ ~ ~ ~ / / / ] [ +.o.&.*.*.*.*.*.;.*.*.*.*.*.*.*.*.;.-.9.9.u.u.t.f.x.x.n.N.C.C.G.Y.W.~.'..XXX#X=X6X5X8X9XdXhXkXvXbXbXCXZXZXDXFXFXLXLXLXLXLXLXLXLXLXJXJXJXJXJXJXJXJXKXKXKXKXKXKXKXKXKXKXJXJXKXKXJXJXJXJXKXKXKXKXJXJXJXJXJXJXJXLXLXLXLXLXLXGXGXFXDXDXZXZXBXbXbXvXvXkXkXjXhXdXaX9X0X7X4X6X=X=X&X#XXX X X X'.].~.W.Y.R.R.R.Z.Z.Z.Z.C.C.A.A.m.m.m.n.x.c.x.x.x.x.f.s.s.f.f.f.f.f.f.f.f.f.f.f.s.s.s.f.f.s.s.s.c.c.x.c.x.c.x.m.m.m.A.C.C.Z.F.Y.T.!.^.[.oXoX#X$X*X1XqX8X9XyXtXgXfXjXkXvXbXbXBXBXVXVXDXDXFXFXFXFXFXFXFXFXFXFXFXFXFXFXFXFXFXFXFXFXFXDXDXDXDXDXDXDXDXDXZXZXDXZXVXBXBXbXbXvXvXkXkXjXhXdXdXaXaXrX7X2X6X=X%X&X+X.X.X{.{.'.T.E.F.J.G.S.M.V.n.d.d.i.a.p.e.y.q.w.6.=.=.#.@.@.#.#.=.=.9.q.q.q.q.9.=.@.@.O.X.[ [ ` ` / / / / / / / / / / ^ ~ ~ / ~ / / [ o.*.;.%.o.[ ] / ~ P L L F D D D D D D F F D D D D F F F F ~ ^ / ] o.&.&.[ ` ~ ~ F F F P P F F F F L L L P P P P P ~ ^ / ` ] [ [ [ } } ] / / ^ / / / / / / / / ] ] ] ] [ [ [ [ [ { X.o.o.%.%.%.%.*.*.-.9.9.9.9.9.t.t.s.x.c.c.m.A.Z.R.T.~.!.^.oXoX#X@X@X1X6X8X9XiXdXfXhXjXjXkXnXbXbXbXBXVXVXVXVXDXDXDXPXDXDXFXFXFXFXFXFXFXFXFXFXFXDXDXDXDXDXDXDXDXDXZXZXZXZXZXbXmX0X!.Z.P.P.f.m.A.c.c.m.N.N.f.f.k.f.c.N.M.M.",
"9.u.u.t.t.i.d.x.m.A.D.R.R.T.~.^.[.oXXX$X*X6X4X8X7X0XaXdXkXbXCXZXDXDXDXFXGXFXGXJXJXJXJXJXKXKXKXKXKXKXKXKXKXKXKXKXKXKXKXKXKXKXKXKXKXKXKXKXKXKXKXKXKXKXKXKXKXKXKXJXJXJXJXJXLXLXLXLXFXFXFXDXZXVXBXBXbXnXkXjXfXdXaX9X0X7X4X6X=X$XXXoXoX^.^.~.T.R.R.F.Z.Z.C.A.m.c.x.x.s.y.y.t.u.y.w.9.9.-.-.-.*.*.*.%.O.O.O.o.X.X.X.o.O.O.O.O.O.*.;.-.-.9.-.-.+.[ ] ) / ^ ^ ^ ^ ^ I I I I I P P P ~ ~ E ~ [ O.;.*.O.o.{ ` / ~ E F P F F F F F D D D D D D D F F F P P ^ ) ] +.*.@.O.X.' / ~ ~ ~ P P P P P P P ~ ~ ~ ~ ~ ~ ~ ~ / / / / ] { o.&.*.-.*.*.*.*.*.;.*.;.*.*.*.*.;.-.9.9.t.t.t.f.x.x.n.N.C.C.F.Y.W.~.'..XXX#X=X6X6X8XtXaXfXjXkXvXbXBXCXZXZXDXFXFXFXLXLXLXLXLXLXLXLXJXJXJXJXJXJXJXJXJXKXKXKXKXKXKXKXKXJXJXJXJXJXJXJXJXKXKXJXKXJXJXJXJXJXJXLXLXLXLXLXLXLXGXGXFXDXDXZXZXBXbXbXvXvXkXkXjXhXdXaXrX0X7X4X2X=X=X*X#XXXXX X X'.].~.W.Y.Y.R.R.Z.Z.Z.Z.C.C.A.A.m.m.m.n.x.c.x.x.x.x.f.s.s.f.f.f.f.f.f.f.f.f.f.f.s.s.s.f.s.s.s.s.c.c.x.c.c.x.x.m.m.m.A.C.C.Z.F.E.T.~.^.^.oXoX#X$X*X1X6X8X0XrXrXsXdXhXjXkXvXbXBXBXBXVXZXDXDXFXFXFXFXFXFXFXFXFXFXFXDXDXFXFXFXFXFXFXDXDXDXDXDXZXZXZXZXZXZXZXZXVXBXBXbXbXbXvXvXkXkXhXdXdXaXsXrX0X7X2X6X=X%X&X+X.X.X{.|.'.T.T.F.F.G.S.D.V.n.d.d.i.p.p.e.q.w.6.9.=.=.#.#.#.=.#.=.9.w.y.y.y.w.9.=.@.@.O.X.[ [ ] ` / / / / / / / / / / / ~ ~ / ~ / ` [ %.*.;.%.o.[ ] / ~ P L L L L D D D F F F F D D D D F F F F ~ / / [ +.&.+.[ ` ~ ~ F F F L L F F F F L L L L P P P P ~ ^ / / ] ] [ } } } ] ` / / / / / / / / / ] ] ] ] [ [ [ [ [ [ { o.o.o.%.O.%.*.*.*.=.9.9.9.9.9.t.t.s.x.x.c.c.A.D./.R.R.~.^.^.oXXX#X@X1X1X6X8X9XsXdXfXhXjXlXkXnXvXbXbXBXBXVXVXVXVXZXVXZXDXDXDXDXDXDXDXDXFXFXFXDXDXDXZXZXZXZXZXZXZXZXVXZXCXCXbXzXqXP.P.P.c.f.M.R.Z./.Z.G.G.F.Y.W._.[.}.}.`.",
"6.w.w.0.t.i.d.x.m.D.S.Z.R.T.~.^.oXoXoX#X$X1X6X4X7X0XaXdXkXMXCXZXDXDXDXFXHXPXPXFXGXLXJXLXJXKXKXKXKXKXKXKXKXKXKXKXKXKXKXKXKXKXKXKXKXKXKXKXKXKXKXKXKXKXKXKXKXJXJXJXJXJXJXJXLXLXLXLXFXFXDXZXZXBXBXBXbXnXkXjXfXdXrX0X0X7X4X6X1X$XXXoXoX^.^.~.T.R.R.R.Z.Z.C.D.m.x.v.s.s.i.y.t.u.u.9.9.9.9.-.-.*.*.@.%.O.O.O.O.X.X.X.X.O.O.O.O.O.*.;.-.9.9.-.#.+.[ ] ) ) ) ) ^ ^ ^ ^ ~ I I P I ~ ~ ~ ~ ~ ~ [ O.;.;.%.o.[ ` / ~ ~ ~ P P F F F F F F F F F F F F F F L P I / ] { @.*.@.+.[ ` / ~ ~ ~ ~ P P P P ~ P ~ ~ ~ ~ ~ ~ / / / / / ] [ [ o.*.-.*.=.;.;.;.;.;.;.;.;.;.=.-.9.9.0.t.t.i.f.d.x.n.N.C.C.G.F.W.~.'.[..X#X=X1X5X8XtXgXfXjXkXvXbXBXCXZXZXDXDXFXFXFXGXGXLXLXLXLXJXJXJXJXJXJXJXJXJXJXKXKXKXKXKXKXKXKXJXJXJXJXJXJXJXJXJXJXJXJXJXJXJXJXJXJXJXLXLXLXLXGXGXGXGXFXDXDXZXZXBXbXbXvXvXkXkXjXhXdXaXrXrX7X4X2X2X=X-X%XXXXXXX.X[.].~.W.T.T.R.R.R.R.Z.Z.Z.C.C.C.A.m.m.m.m.m.x.x.x.c.x.x.d.d.d.d.d.d.d.d.f.f.s.s.s.s.d.d.c.c.x.x.c.c.c.c.x.c.m.m.m.A.C.C.Z.G.F.R.T.!.^.oXoXoX#X$X*X1X6X8X0X9XyXtXgXfXjXkXvXbXbXbXBXBXZXZXDXDXDXDXFXFXFXFXFXFXFXFXFXDXDXDXDXDXDXDXDXDXDXDXZXZXZXZXZXVXVXVXVXVXBXBXbXbXbXvXkXkXjXhXdXdXaXsXtX7X4X2X2X=X%X&XOX.X.X{.[.'.W.E.Y.F.G.C.S.M.V.d.d.a.p.e.p.q.q.0.6.6.6.#.#.=.=.6.w.q.t.p.p.y.w.6.#.@.@.X.[ [ [ ] ] ` ` / / / / / / / / / / / / / / ] o.%.;.;.%.o.[ ` / ~ P P I L P L L L L L F F F F F F F F F F ~ / / [ +.&.&.+.] ~ ~ E F P P P L P P P L L L L P P P P ~ ^ / / ` ] [ } { } [ ] ` / / / / / ` ` ` ` ] [ [ [ [ [ [ [ X.+.o.o.O.O.O.%.*.*.*.-.9.9.9.u.9.t.t.s.x.x.c.c.A.A.Z.R.T.T.!.^.oX X#X@X$X1X6X4X9XiXdXfXhXjXlXkXvXvXbXbXBXBXBXBXZXZXZXZXZXZXZXZXZXDXDXDXDXDXDXDXFXDXZXZXZXZXZXZXZXZXZXZXCXCXCXvXzXqX!.A.A.c.P.T.oXoXoXoX{.{.+XOX=X5XiXtXwX&X",
"6.w.w.0.t.i.d.x.m.D.S.R.R.T.~.^.[.oXXXXX$X*X6X6X4X7XrXgXkXvXMXCXZXDXDXDXZXVXSXDXFXGXLXLXJXJXJXJXKXKXKXKXKXKXKXKXKXKXKXKXKXKXKXKXKXKXKXKXKXKXKXKXKXKXKXKXJXJXJXJXJXJXJXJXLXLXLXFXFXFXDXZXVXBXBXbXbXvXkXjXdXgXtX0X7X7X4X6X=X$XXXoXoX[.^.~.W.R.Y.R.Z.Z.Z.D.m.c.v.s.s.s.y.t.t.9.9.9.9.9.-.-.*.*.@.%.O.O.O.O.X.X.X.X.O.O.O.O.@.*.;.-.:.9.:.#.+.{ } ) ) ) / ^ ^ ^ ^ ~ ~ ~ ~ I ~ ~ ~ ~ ~ ~ [ O.;.;.%.o.[ ] / ~ ~ ~ P P F F F F F F F F F F F F F F L P P ^ / [ +.;.;.+.[ ` / ~ ~ ~ ~ P P P ~ ~ P ~ ~ ~ ~ ~ ~ / / / / / ` ] [ o.@.-.=.=.;.=.=.=.=.=.=.=.=.-.-.9.9.0.t.t.i.f.d.x.n.N.C.C.G.F.R.W.'.[..XXX*X1X6X8X9XaXdXjXlXvXbXbXCXCXZXDXFXDXFXFXFXFXGXGXGXGXLXLXLXJXJXJXJXJXJXJXKXKXKXKXKXKXKXKXJXJXJXJXJXJXJXJXJXJXJXJXJXJXJXJXJXJXJXJXLXLXJXGXGXGXGXFXDXDXZXZXBXbXbXvXvXvXkXjXhXgXaXrXrX7X4X2X2X=X*X%XXXXXXX.X[.[.^.~.T.T.R.R.R.Y.Z.Z.Z.C.C.C.A.A.m.m.m.m.x.x.x.c.x.x.x.x.x.d.d.d.d.d.f.f.s.c.c.s.d.d.c.c.x.x.c.c.c.c.x.c.A.A.m.A.C.C.Z.G.F.R.T.!.^.[.oXoX#X$X*X1X6X5X8X7XeXyXsXdXhXkXkXnXvXbXbXBXZXZXVXDXDXDXDXDXDXDXDXFXFXFXDXDXDXDXDXDXDXDXDXZXZXZXZXZXZXBXBXBXVXVXBXBXBXbXbXvXvXvXkXjXjXdXdXaXaXrXyX7X4X2X2X=X%X%XOX.X.X{.{.'.T.R.E.F.G.C.C.M.n.d.d.a.p.p.p.q.q.7.7.6.6.6.#.6.6.6.9.q.p.p.p.y.w.6.#.@.O.X.[ [ [ ` ] ` ` ` / / / / / / / / / / / / ` [ O.*.;.;.%.o.[ ] / ~ P I I L L L L L L P F F F F F F F F F F ~ / ) [ o.+.&.X.` ~ ~ E F P P P P P P P L L L L P P P P ~ ^ / / ` ] [ } { { [ ] ] ` ` ` / / ` ` ] ` ] [ [ [ [ [ [ [ X.o.o.o.O.O.O.%.*.*.*.-.9.9.9.9.9.t.t.s.x.x.c.c.m.A.Z./.R.T.!.~.^. X#X#X$X1X6X6X8X9XsXdXdXhXhXlXkXvXvXbXbXBXBXBXBXBXBXBXZXZXZXZXZXZXZXZXZXZXDXDXDXZXZXZXZXZXZXZXZXZXCXBXBXCXCXvXkXqX!.R././.P.!.*X1X1X1X-X-X*X2X0XiXMXvXsXyX",
"9.w.w.t.t.i.d.x.n.m.D.D.R.T.~.^.[.oXoXXX$X*X1X2X4X7X0XgXjXvXbXCXZXZXZXZXCXlXpXCXHXFXGXLXJXJXJXJXJXKXKXKXKXKXKXKXKXKXKXKXKXKXKXKXKXKXKXKXKXKXKXJXKXKXKXKXJXJXJXJXJXJXLXLXLXLXFXFXFXFXZXVXBXBXBXbXvXlXlXhXdXaX9X7X7X5X6X1X*X$XXXoX^.^.^.~.W.R.Y.Y.Z.Z.Z.D.m.x.v.s.s.i.t.y.u.t.9.9.9.9.-.-.*.*.@.*.O.O.O.O.o.o.X.X.O.@.@.@.@.*.;.9.-.9.-.@.+.{ ] ] ) ) / / ^ ^ ^ ^ ~ ~ ~ ~ ~ ~ ~ ~ ~ ~ [ O.;.;.*.o.[ ` / ~ ~ E P P F F F F F F F F F F F F F F F F P ~ / ] o.&.>.&.X.` / ~ ~ ~ ~ ~ P P ~ ~ ~ ~ ~ ~ ~ ~ ^ / / / / / ` ] [ X.O.@.-.-.-.-.=.=.-.-.-.=.-.-.9.9.0.0.i.i.s.s.f.x.m.N.A.C.Z.F.R.W.~.[..XXX&X1X5X8X9XsXdXjXkXvXvXbXBXBXZXZXDXDXDXFXFXFXGXGXGXGXLXLXLXLXLXJXJXJXJXKXJXJXJXJXJXJXJXJXJXJXJXJXKXJXKXJXJXJXJXJXJXJXJXJXJXJXLXLXLXGXGXGXGXFXFXFXDXDXZXZXBXbXbXvXvXvXvXjXjXgXaXrX0X7X7X2X2X=X*X%X#XXXXX X[.[.^.~.W.T.R.R.R.R.Y.Z.Z.Z.Z.C.A.A.A.m.m.m.m.x.x.x.c.c.x.x.x.x.x.x.f.x.f.s.s.s.x.x.x.x.x.x.x.x.c.c.c.c.c.c.A.A.A.A.Z.Z.Z.F.Y.R.T.~.^.[.oXoXXX#X$X1X6X5X8X7XeXyXaXaXdXjXkXkXvXvXbXbXCXBXZXVXZXZXZXZXZXDXDXDXFXFXDXDXDXDXDXDXDXDXDXDXZXZXZXZXCXCXBXBXBXBXbXbXbXbXvXvXvXkXkXjXjXdXdXsXrXrXrXyX4X4X2X=X%X%XOXXX X{.{.'.T.T.R.Y.F.Z.C.B.N.d.d.d.a.p.p.i.0.7.7.7.9.6.6.6.6.9.0.t.i.a.p.y.w.=.=.@.O.X.[ [ [ ' ] ` ` ` ] / / / / / / / / / / / ` [ O.*.;.=.%.o.[ ] / ~ I ~ ~ P P P P P P P P L F F F F F F F L ^ / ) ] { o.&.o.' / ~ F P F F F L P P P P P P P P P I P ~ ^ / / ] ] [ { { { } [ ] ` ` ` ` ` ` ` ` ] [ [ [ [ [ [ [ [ o.o.o.o.O.O.O.%.*.*.*.=.9.9.9.u.u.t.t.s.d.x.x.c.m.A.A./.R.T.!.!.^.oXXX#X$X1X1X6X4X9XsXsXdXxXhXhXlXlXnXvXbXbXbXbXbXbXBXBXBXBXCXCXZXZXVXVXVXVXZXZXZXZXZXZXZXZXZXVXVXBXCXCXCXBXMXvXkX0XXX!.^.!.!.4XtXsX9XrXeXwXuXuXjXMXZXDXmXfX",
"9.w.w.t.t.s.d.x.V.m.D.D.R.T.~.^.^.[.oXXX#X*X*X6X2X4X7XaXfXkXvXMXCXCXCXAXMXpXpXMXHXHXGXLXJXJXKXJXJXJXKXKXKXKXKXKXKXKXKXKXKXKXKXKXKXKXKXKXKXKXKXJXKXKXKXKXJXJXJXJXJXJXLXLXLXLXFXFXFXDXZXVXBXBXbXbXvXlXlXhXdXsX9X7X7X5X6X1X$X$XXXoX^.^.^.~.W.T.Y.Y.Z.Z.Z.A.m.c.v.s.s.s.i.i.u.9.9.9.9.9.-.-.*.@.@.*.O.O.O.O.O.o.X.X.O.@.@.@.@.*.-.9.:.:.-.O.o.[ ] ] ) ) / / ^ ^ ^ ^ ^ ^ ~ ~ ~ ~ ~ ~ ~ / [ o.*.;.*.o.[ ] / ~ ~ ~ P P F F F F F F F F F F F F F F F F P P ~ ` +.+.>.;.+.[ ` / ~ ~ ~ ~ P P ~ ~ P ~ ~ ~ ~ ~ ^ / / / / / ` ] [ X.O.@.*.-.=.-.-.9.9.9.9.9.9.9.9.0.9.0.i.i.s.s.s.f.c.N.A.Z.Z.F.Y.T.!.[.oXXX&X=X6X5X0XtXgXdXjXkXvXbXbXBXVXVXDXDXDXDXDXFXFXFXGXGXGXGXLXLXLXLXJXJXJXJXJXJXJXJXJXKXJXJXJXJXJXJXKXJXKXJXJXJXJXJXJXJXJXJXJXJXJXLXLXGXGXGXFXFXFXFXDXZXZXCXBXbXbXbXvXvXvXjXjXgXaX0X0X7X4X2X2X=X=X%X#XXXXX XoX[.^.~.T.T.T.R.R.R.Y.Z.Z.Z.Z.Z.A.A.A.m.A.m.m.c.c.x.x.c.x.x.x.x.x.x.x.x.x.x.x.x.x.x.x.x.x.x.x.c.c.c.m.m.m.m.A.A.A.A.Z.Z.Z.F.Y.R.T.~.^.^.oXoXXX#X$X*X6X5X5X7X7XeXtXaXdXhXkXlXvXvXbXnXbXBXBXBXCXCXZXZXZXZXDXDXDXDXDXDXDXDXDXDXDXDXDXZXZXZXCXZXCXCXBXbXbXbXbXbXbXvXvXkXkXkXjXxXfXdXgXaXrXrX7XyX4X4X2X=X%X%XOXXX X{.{.'._.T.R.Y.F.Z.S.B.N.d.d.d.a.a.i.i.i.0.5.0.7.5.7.7.0.0.t.p.s.g.p.y.w.=.@.@.O.X.[ [ [ [ [ ] ] ] ` / / / / / / / / / / / ` X.O.=.;.;.O.o.[ ] / ~ ~ ~ ~ I P P P P F P P L F F F F F F L L ^ / ) ] [ o.&.o.[ ` ~ ~ P P F F L L P P P P P P P P I I ~ ^ / / ] ] [ { { { { { [ ] ` ` ] ] ` ` ` ] [ [ [ [ [ { X.[ o.o.o.o.O.O.O.*.@.@.*.=.9.9.9.u.u.t.t.s.x.x.x.x.m.A.A.Z.Y.Y.!.!.!.^.oX#X#X*X1X6X6X9X9XsXaXdXhXhXhXlXlXvXvXbXnXnXbXbXbXbXBXBXBXBXCXCXBXBXVXBXVXVXVXVXVXVXVXVXVXVXBXBXBXBXBXBXbXvXkXrX$X^.XX(.@X7XsXdXiXaXrXyXyXsXzXvXZXHXCXlX",
"9.u.u.t.t.s.d.x.x.m.D.D.R.T.~.^.^.[.oXXX#X$X*X1X2X2X7XrXfXkXvXbXCXCXCXNXNXpXpXMXZXDXGXLXLXLXJXJXJXJXJXJXJXKXKXKXKXKXJXJXJXKXKXKXKXKXKXKXKXKXJXJXKXKXKXKXJXJXJXJXJXJXLXLXLXFXFXFXDXDXZXVXBXBXbXbXvXlXlXhXdXsX0X7X8X5X6X*X$X#XXXoX^.^.^.~.W.T.Y.Y.F.Z.Z.D.m.v.v.x.s.s.s.s.i.9.9.9.9.9.-.-.*.@.@.*.O.O.O.O.O.O.O.O.O.@.@.@.@.*.-.9.-.-.@.X.X.[ ] ] ) ) ) / / / ^ ^ ^ ^ ^ ^ ~ ~ ~ ~ ~ / [ o.*.;.-.o.[ ] / ~ ~ ~ ~ P L L F F F F F F F F F F F F F F F P ~ / [ o.>.:.&.[ ` / ~ ~ P P P P ~ ~ ~ ~ ~ ~ ~ ~ ^ / / / / ` ` ] [ X.X.O.@.@.=.-.9.9.9.9.9.9.0.0.0.0.9.9.i.i.s.s.s.f.c.N.A.Z.Z.F.Y.T.~.[.oXXX#X*X6X5X7X9XaXxXhXkXvXvXbXBXBXZXDXDXDXDXDXDXFXFXGXGXGXGXLXLXLXLXJXJXJXJXJXJXJXJXKXKXKXKXJXJXJXJXJXKXJXJXJXJXJXJXJXJXJXJXLXLXLXLXGXGXGXFXFXFXFXFXDXZXZXCXBXbXbXbXvXvXvXjXhXgXaXrXrX7X7X2X2X2X=X%X#X#XXXXXoX[.[.^.~.~.T.T.R.R.Y.Z.Z.Z.Z.Z.A.A.A.A.A.m.m.c.c.c.x.c.c.x.c.c.x.x.x.x.x.x.x.x.c.c.c.c.c.c.x.c.c.m.m.m.A.A.A.A.A.C.Z.Z.Z.F.E.W.T.!.^.^.oXoXXX#X#X$X1X6X5X7X7X7XtXaXdXhXhXlXkXvXnXbXbXbXBXBXBXBXCXZXZXZXZXDXZXDXDXPXPXPXDXDXDXDXDXZXZXZXCXBXCXCXCXbXbXbXbXbXvXvXvXkXkXjXhXhXdXdXaXaXrXrX7X7X4X5X2X=X*X%X%XXXXX.X{.'.'.T.T.Y.F.G.S.B.V.n.j.d.a.a.i.i.i.0.0.0.0.7.0.0.0.0.p.i.d.g.p.q.6.#.@.O.O.X.[ [ [ [ [ ] ] ] ] ] ] ] / / / / / / / ` ] X.@.;.=.=.%.o.[ ] / ~ ^ ^ ^ ~ ~ ~ ~ ~ P P P P P P F F F L L P ^ ^ ) ] [ o.&.+.X.] / ~ ~ ~ P P P P P P I P I I ~ ~ ~ ~ ~ ^ / / / ] [ { o.o.o.o.{ [ ] ] ] ] ] ] [ [ [ [ [ [ { { o.o.o.o.+.O.O.O.O.*.@.@.*.=.9.9.9.u.u.t.t.s.s.x.x.x.c.A.A.Z.Y.Y.T.!.!.^.oXXX#X$X1X6X6X8X9XsXaXgXxXhXhXlXlXlXvXbXnXnXbXbXbXbXbXbXbXbXBXBXBXBXBXVXVXVXVXVXVXVXVXVXBXBXBXBXBXBXBXbXbXvXkXgX1X#X6X1X6XtXsXdXiXiXyXeX1XuXuXaXMXAXCXnX",
"-.u.u.t.t.s.d.x.x.m.D.Z.R.T.~.^.^.[.oXXX#X#X*X=X2X2X4XtXfXkXvXbXBXBXMXMXmXpXpXMXHXFXLXLXLXLXJXJXJXJXJXLXJXJXJXKXKXJXJXJXJXKXKXKXKXKXKXKXKXKXKXKXKXKXKXKXJXJXJXJXJXJXLXLXLXFXFXFXDXZXZXBXBXbXbXbXvXlXhXhXdXsX9X7X8X5X6X*X$X#XXXoX^.^.^.~.W.T.Y.Y.F.Z.Z.D.m.c.x.x.s.s.s.s.i.u.9.9.9.9.-.-.*.@.@.@.O.O.O.O.O.O.O.O.O.@.@.@.@.*.-.9.-.-.O.[ [ ] ] ] ) ) ) / / / ^ / ^ ^ ^ ^ ~ ~ ~ ~ ~ / [ o.%.;.-.o.[ ' / ~ ~ ~ P P L L L L F F F F F F F F F F F F F P ~ ~ ] +.&.:.>.+.[ / ~ ~ ~ P P P ~ ~ ~ ~ ~ ~ ~ ~ ^ / / / ` ` ] ] [ [ X.O.O.@.=.-.9.9.0.9.9.9.0.0.u.9.t.t.i.s.s.s.s.f.c.N.A.Z.Z.F.Y.T.~.[.oXXX$X=X6X5X7X9XaXgXjXkXvXvXbXBXBXVXZXDXDXDXDXDXFXFXGXGXGXGXLXLXLXLXJXJXJXJXJXJXJXJXKXKXKXJXJXJXJXKXKXKXJXJXJXJXJXJXJXJXJXLXLXLXLXLXGXGXGXFXFXFXFXFXDXZXZXCXBXbXbXbXvXvXvXjXhXgXaXrXrX7X7X2X2X2X=X%X#X#XXXXXoX[.[.^.~.~.W.T.T.R.R.R.Z.Z.Z.Z.Z.A.A.A.A.A.m.m.m.c.c.x.c.c.x.x.x.x.x.x.x.x.x.c.c.c.c.x.x.x.x.c.m.m.m.m.A.A.C.A.C.Z.Z.Z.Z.F.E.T.T.!.^.^.[.oXXX#X#X$X1X6X5X7X7X7X9XsXdXhXhXlXkXkXnXnXbXbXbXBXCXCXCXCXZXZXZXZXZXDXDXDXPXPXDXDXDXDXZXZXZXZXVXBXCXCXCXbXbXbXbXbXvXvXvXkXkXjXhXhXdXdXaXaXrXrX7X7X4X5X2X=X*X%X%XXXXX.X{.{.'.W.T.E.F.G.S.B.B.n.j.d.a.a.a.i.i.r.0.0.0.0.0.0.0.i.i.i.d.g.p.0.9.#.@.O.O.X.[ [ [ [ [ ] ] ] ] ] ] ] ` ` / / / / / ` [ o.*.=.=.=.%.o.[ ] / ^ ^ ^ ^ ~ ~ ~ ~ ~ P P P P P P P P P L L P ^ ^ ) ] [ o.&.+.+.[ / ~ ~ ~ ~ ~ P P P P P P I I ~ ~ ~ ~ ^ ^ / / / ] [ { o.o.o.o.+.{ [ [ [ [ [ [ [ [ [ [ [ [ { X.o.o.o.o.O.O.O.O.O.@.@.@.*.=.9.9.9.9.9.t.t.s.s.x.x.x.c.A.A.A.Y.Y.T.!.!.!.^.XX#X$X$X1X6X4X9XtXaXaXdXxXhXhXlXlXvXvXbXbXbXbXbXbXbXbXbXbXbXbXBXBXBXBXBXBXBXBXVXVXBXBXBXBXBXBXBXBXbXbXbXvXkXdX4X@X8X7X8XtXsXiXiX9X7XeX@XuXsX0XmXCXMXvX",
"-.u.u.t.t.s.d.d.x.m.D.Z.R.Y.W.^.^.[.oXoXXX#X*X*X2X1X4XtXfXjXvXbXBXBXbXmXvXpXpXMXFXLXLXLXLXLXLXLXLXLXJXJXJXJXJXJXJXKXJXJXJXJXJXKXKXKXKXKXKXKXKXKXKXKXKXJXJXLXLXLXLXLXLXLXFXFXFXFXDXZXZXBXBXbXbXvXvXlXhXhXdXsX0X7X4X4X6X*X$X#XXXoX^.^.^.!.~.T.Y.Y.Y.Z.Z.D.m.c.x.x.s.s.s.s.s.y.y.9.9.9.-.=.*.@.@.@.O.O.O.O.O.O.O.O.@.@.@.@.*.;.-.9.-.-.O.X.[ ] ` ` ) ) ) / / / ^ / ^ ^ ~ ~ ~ ~ ~ ~ / ` [ o.&.;.-.+.[ [ ` ~ ~ ~ ~ P F F F F F F F F F F F F F F F F F P ~ ~ ` X.+.;.;.+.[ ` / ~ ~ I ~ ~ ~ ~ ~ ~ ~ ~ ~ ~ / / / / ` ` ` ] [ [ X.X.O.@.#.=.9.9.9.0.0.0.0.0.t.t.t.t.y.y.s.s.s.x.c.N.A.Z.F.F.Y.W.~.[.oXXX$X*X6X5X7XrXaXgXxXlXvXvXbXbXBXBXZXZXZXZXFXFXFXFXFXFXFXFXLXLXLXLXLXLXLXJXJXJXJXJXJXJXJXJXJXJXJXJXJXJXJXJXJXJXLXLXLXLXLXLXLXLXGXGXGXGXFXFXFXFXFXFXDXZXZXBXBXbXbXvXvXvXvXjXhXdXaXaXrX7X7X4X4X2X=X*X%X#XXXXXoX}.[.^.~.~.W.W.T.R.Y.Y.Z.Z.Z.Z.Z.A.A.A.A.A.m.m.m.m.m.c.x.x.x.x.x.x.x.x.x.x.x.c.x.x.c.c.x.c.c.c.m.m.A.A.A.A.A.A.Z.Z.R.R.Z.Y.W.T.~.!.^.^.^.oXoX#X#X$X1X6X4X4X4X7X9XaXaXdXhXhXlXkXnXvXbXnXbXbXbXbXCXCXCXCXZXZXZXVXZXZXZXZXDXDXDXZXZXZXZXVXVXVXBXBXBXbXbXbXbXbXbXvXvXlXhXlXhXhXdXdXgXrXrX7X7X7X4X2X3X-X*X%X%XXXXX.X.X[.'.'.W.R.Y.F.C.S.B.n.j.d.d.d.d.a.i.i.i.i.r.0.i.i.i.i.f.d.d.s.y.0.=.@.@.O.o.X.[ [ [ [ [ ] ] ] ] ] ] ] ` ` ` ` ` ` ` ` [ +.;.=.=.=.%.o.[ ] / / ~ ^ ^ ^ ~ ~ I I I P I I P P P P P P P P ^ ^ / ] [ o.&.+.o.[ ` ~ ~ ~ ~ P I P ~ P I I I I ~ ~ ~ ~ ^ ^ / / / ] ] { +.o.o.o.+.+.[ [ [ [ [ [ [ [ [ [ [ [ [ X.X.o.o.o.O.O.O.O.O.@.@.@.#.=.9.9.9.9.y.t.t.s.s.x.x.x.c.m.A.A.Z.Y.Y.T.!.!.(.XX#X#X$X1X6XqX7X9XsXgXaXxXhXhXlXlXvXnXbXbXbXbXbXbXbXbXbXbXbXbXBXBXBXBXBXBXBXBXBXBXBXBXBXBXBXbXbXbXbXbXvXvXkXfXrXqXsXtXsXsXiXsX9X0X4X4X4XsXfX0XhXNXmXlX",
"-.u.u.t.t.s.d.d.x.m.D.Z.Z.R.R.Q.^.^.[.oXXX#X#X*X-X*X6XyXfXkXbXBXBXBXBXbXvXpXpXCXFXLXLXLXLXLXLXLXLXLXJXJXJXJXJXJXJXJXJXJXJXJXKXKXKXKXKXKXKXKXKXKXKXKXJXJXJXJXLXLXLXLXLXLXFXFXFXFXDXZXZXBXBXbXbXvXvXlXhXhXdXsX0X7X4X4X6X*X$X#XXXoX^.^.^.!.~.T.T.Y.Y.Z.Z.D.m.c.x.x.s.s.s.s.s.y.y.9.9.9.-.=.*.@.@.@.@.O.O.O.O.O.O.O.@.@.@.@.*.;.;.w.9.;.O.X.[ ] ] ` ) ) ) / / / / / ^ ^ ~ ~ ~ ~ ~ ~ / ` [ o.&.:.-.+.X.[ ` ~ ~ ~ P P F F F F F F F F F F F F F F F F F P ~ ~ ` [ o.*.*.@.+.[ / ~ ~ ~ ~ ~ ~ ~ ~ ~ ~ ~ ~ ~ / / / / ` ` ` ] [ [ X.X.O.@.#.=.9.0.0.t.0.0.t.t.t.t.t.t.y.y.s.s.s.x.c.N.A.C.Z.F.R.W.~.[.oXXX$X=X6X5X7XrXaXgXjXjXkXvXbXbXBXBXZXVXZXZXDXDXFXFXFXFXFXFXLXLXLXLXLXLXLXLXJXJXJXJXJXJXJXJXJXJXJXJXJXJXJXJXJXJXLXLXLXLXLXLXLXGXGXGXGXGXFXFXFXFXFXFXDXZXZXBXBXbXbXvXvXvXvXjXhXdXaXaXrX7X7X4X5X2X1X*X%X#X#XXXoXoX[.^.~.~.W.W.T.R.R.R.Z.Z.Z.Z.Z.Z.A.A.D.A.m.m.m.m.m.m.x.c.c.c.x.x.m.c.x.x.x.x.x.x.c.c.c.c.m.c.m.m.A.A.A.A.A.A.Z.Z././.Y.R.W.T.T.!.^.^.[.oXoX#X#X$X1X6X4X4X5X7X9XiXaXdXhXhXkXlXkXnXvXbXnXnXMXbXBXBXCXCXCXZXZXZXVXVXVXZXZXZXZXZXZXZXZXZXVXVXBXBXBXbXbXbXbXbXvXvXkXlXjXhXhXhXdXdXgXrXrX7X7X8X5X3X3X-X*X*X%X#XXX.X.X{.'.'.W.W.Y.F.H.S.B.n.n.d.d.d.d.a.i.i.r.i.r.r.i.i.f.d.d.d.d.s.i.0.=.@.@.O.O.X.[ [ { [ [ [ [ ] ] ] ] ] ` ` ` ` ` ` ` ` [ +.;.w.6.=.%.o.[ ] / / ^ ^ ^ ^ ~ ~ ~ I I P I I P P P P P P P P ^ ^ ) ` [ o.&.&.o.[ / ~ ~ ~ ~ P I P I I I I I I ~ ~ ~ ^ ^ ^ / / / ] ] { +.o.o.o.+.+.+.[ [ [ [ [ [ [ [ [ [ [ X.o.X.o.+.+.O.O.O.O.O.@.@.@.#.=.9.9.0.9.y.y.y.s.s.x.x.x.c.m.A.A.Y.Y.Y.!.!.!.(.XX#X#X$X1X1XqX7X7X9XaXaXgXxXhXhXlXvXnXnXbXbXbXbXbXbXbXbXbXbXbXBXBXBXBXBXBXBXBXBXBXBXBXBXBXbXbXbXbXbXbXvXvXkXjXfXaXfXdXsXiX9XtX8X8X4X4X4XfXfX0XhXmXmXlX",
"-.u.u.t.t.s.s.d.x.m.D.S.Z.Y.Y.W.^.^.^.oXoX#X#X*X*X*X1XyXdXjXbXBXVXVXBXBXbXlXlXCXDXFXFXGXLXLXLXLXLXLXJXJXJXJXJXJXKXJXJXJXJXKXKXKXKXKXKXKXKXKXJXJXKXJXJXJXJXLXLXLXLXLXFXFXFXFXFXFXDXZXBXBXbXbXbXvXnXlXhXhXdXsX7X7X4X6X1X*X$X#XXX X^.^.^.~.~.W.W.R.Y.Z.Z.D.D.m.c.x.s.s.s.s.s.y.y.u.9.9.-.-.=.*.@.@.@.@.@.O.O.O.O.O.@.*.@.*.*.;.;.w.9.;.O.X.[ ] ] ` ) ) ) ) / / / / / / ~ ~ ~ ~ ~ ~ / ` [ o.O.;.-.+.o.[ ` / ~ ~ ~ P P P P P F F F F L L F F F F F F L P ~ ~ / ` X.O.*.*.+.[ ` / ~ ~ ~ ~ ~ ~ ~ ~ ~ ~ ~ ^ / / / / ` ] ] ] [ [ X.o.O.@.*.=.9.0.t.t.t.t.t.t.t.u.t.t.s.s.s.s.s.x.c.N.A.C.Z.F.R.W.~.[.oXXX#X*X1X5X7X0XaXgXxXxXlXvXbXbXBXBXVXZXZXZXDXDXFXFXFXFXGXGXLXLXLXLXLXLXLXLXJXJXJXJXJXJXJXJXJXJXJXJXJXJXJXJXJXJXLXLXLXLXLXLXGXGXGXGXFXFXFXFXFXFXFXFXDXZXZXBXBXbXbXvXvXvXkXhXhXdXdXaXrX0X7X4X5X3X2X*X-X%X#XXXoXoX}.[.^.^.~.~.W.W.R.R.R.Z.Z.Z.Z.Z.C.A.A.A.m.m.m.m.m.m.m.m.c.c.c.m.m.m.c.c.x.x.c.c.m.c.m.m.m.m.A.A.A.A.A.A.Z.Z./.R././.R.T.T.W.~.!.^.^.!. X XXX#X$X1X1X6X6X4X8X9X9XiXdXdXhXhXlXkXkXvXvXnXnXbXbXBXBXBXBXCXCXBXBXBXVXZXZXZXZXZXZXZXZXZXZXVXVXBXBXbXbXbXbXvXvXvXkXhXhXhXhXhXxXdXdXgXrX0X7X7X7X5X3X3X-X=X-X&X%XXX.X.X{.[.]._.W.E.F.G.H.B.V.n.j.d.d.d.d.a.i.i.i.i.i.i.f.d.d.d.d.d.d.p.0.=.@.@.O.O.X.[ [ { [ [ [ [ [ [ ] ] ] ] ] ] ] ] ] ` ` [ O.9.6.6.=.*.o.{ ] / / / ( ( ( ^ ~ ^ ~ ~ ~ ~ ~ ~ ~ ~ P ~ ~ I I ^ ^ ) ] [ o.&.&.o.[ ` ~ ~ ~ ~ ~ ~ ~ ~ ~ ~ ~ ^ ~ ^ ^ ^ ^ ^ ( / / / ` ] { o.o.o.o.+.o.+.o.[ [ [ [ [ [ [ X.X.o.o.o.o.+.+.+.O.O.O.O.O.@.@.@.#.=.9.9.9.9.y.y.y.i.s.s.x.x.c.m.A.Z.Y.R.Y.T.!.^.^.oX#X#X#X$X1X6XqXqX0XrXaXaXgXhXhXhXlXlXnXnXvXbXbXbXbXbXbXbXbXbXbXbXBXBXBXBXbXbXBXBXBXBXBXbXbXbXbXbXbXbXvXvXkXjXjXdXfXfXdXsXtXyX7X4X4X4X4XfXfX0XfXmXmXkX",
"-.u.u.t.t.s.s.d.x.x.m.C.Z.Y.Y.T.~.^.^.oX XXX#X#X%X#X=X5XsXjXvXbXBXBXBXBXbXlXlXCXZXDXFXGXLXLXLXLXLXLXJXJXJXJXJXJXJXJXJXJXJXKXKXKXJXJXJXKXKXKXKXJXJXJXJXLXJXLXLXLXLXLXFXFXFXFXFXDXDXZXVXBXbXbXvXvXkXlXhXxXaXiX8X7X4X6X1X$X#X#XXX X^.^.^.~.~.W.W.R.Y.Z.Z.S.D.m.c.x.c.x.x.s.s.t.u.u.9.9.-.-.=.*.@.@.@.@.@.O.O.O.O.O.@.*.@.@.*.;.;.w.;.*.O.X.[ [ ` ` / ) ) ) / / / / / / / / ~ ~ ~ ~ / ` [ X.O.-.;.O.o.[ ] / ~ ~ ~ P P P P P F F F F L L F F F F F F L P ~ ~ ~ ` [ O.*.-.%.o.[ / ~ ~ ~ ~ ~ ~ ~ ~ ~ ~ ~ ~ / / / / ] ] ] [ [ [ X.X.O.@.@.=.-.0.t.t.t.t.t.t.y.y.y.y.s.s.s.s.s.x.c.m.A.C.Z.F.R.W.~.^..XXX#X$X1X6X4X7XaXaXxXhXlXvXvXbXbXBXBXBXVXZXZXDXFXDXFXFXFXFXLXLXLXLXLXLXLXLXJXJXJXJXJXJXJXJXJXJXJXJXJXJXJXJXJXJXLXLXLXLXLXGXGXGXGXGXFXFXFXFXFXFXFXDXDXZXZXBXBXbXbXvXvXvXkXhXhXdXdXaXrX0X7X4X4X3X2X=X-X%X#XXXoXoXoX[.^.^.~.~.Q.W.W.R.R.Y.Y.Z.Z.Z.Z.A.D.A.A.A.A.A.m.m.m.m.m.m.m.m.m.m.c.c.c.c.m.m.m.c.m.m.m.m.A.A.A.A.C.C.Z.Z.Z./././.R.T.T.~.~.~.^.^.!. X XXX#X$X*X1X6X6X4X8X7X9XiXaXdXxXhXhXlXlXkXvXnXnXbXbXbXbXbXbXCXCXBXBXCXCXCXCXCXBXBXBXBXBXBXBXBXBXBXbXbXbXvXvXvXvXvXlXhXhXhXdXxXxXdXaXsXrX7X7X4X4X5X3X3X-X=X=X=X%XXX.X.X{.[.[.].W.E.F.J.H.B.N.n.n.n.d.d.d.a.i.f.i.i.i.i.d.d.d.j.d.d.f.t.9.=.@.@.O.o.X.X.X.{ { [ [ [ [ [ ] ] ] ] ] ] ] ] ] ] ` [ @.w.w.6.=.*.o.{ ] / / / / ( ( ^ ~ ^ ~ ^ ~ ~ ~ ~ ~ ~ ~ ~ I I I ^ ^ ) ` [ o.&.&.+.[ ` ~ ~ ~ ~ ~ ~ ~ ~ ~ ~ ~ ~ ~ ^ ^ ^ ( ( ( / / / ` ] [ o.o.o.o.o.o.o.o.o.X.[ [ [ [ X.X.o.o.o.o.o.+.+.O.O.O.O.O.@.@.@.@.#.=.9.9.9.9.y.y.y.i.s.s.x.x.x.m.A.A.Z.R.Y.T.~.!.^. XXX#X#X$X1X6XqXqXqX7XiXaXaXdXdXlXlXlXvXvXvXvXvXvXbXbXbXbXbXbXbXbXBXBXBXBXbXbXBXBXBXBXBXBXbXbXbXbXbXvXvXvXkXjXjXgXdXdXaXsXtX9X7X4X4X4X7XzXfX7XdXzXMXnX",
"-.u.u.u.t.s.f.s.d.x.m.S.D.Z.Y.Y.T.~.^.^.oXXX#X#X#XXX&X#X=X5XdXhXkXvXvXvXpXpXhXkXCXZXDXFXFXLXKXKXLXLXLXLXLXLXLXLXJXJXJXJXJXJXJXJXGXGXJXJXJXJXJXJXJXLXJXJXLXLXLXLXFXFXFXFXFXFXFXDXDXVXBXBXbXbXvXnXlXlXhXxXaXiX8X7X4X6X1X$X#X#XXX XoX^.^.~.~.W.W.R.R.Z.D.S.D.m.c.x.x.c.x.s.s.t.t.u.9.9.-.-.#.@.@.@.@.@.@.@.@.@.@.@.@.@.*.*.=.;.;.9.-.*.O.X.[ [ ] ` / / ) ) ] ] ) / ` ` / / / ~ / / / ] [ o.@.-.-.*.O.{ ] / ~ ~ ~ ~ P P P P P F F F L F P P F F F F F ~ ~ ~ ~ / ` o.*.;.*.O.{ ] / ~ ~ ^ ~ ~ ~ ~ ~ ~ ( ( / / / / ` ] ] [ [ [ [ X.O.O.@.*.=.9.y.t.t.t.t.t.i.i.s.s.s.s.c.c.c.c.m.m.C.C.Z.F.R.W.~.^..XXX#X#X=X6X4X7XrXaXgXhXhXlXvXvXbXbXBXBXBXVXZXDXFXFXFXFXFXFXFXFXLXLXGXGXGXLXLXLXLXLXLXLXLXLXLXLXLXLXLXLXLXLXLXLXLXLXLXLXGXGXFXFXFXFXFXFXFXFXFXFXDXDXDXZXZXBXbXbXbXvXvXvXkXhXhXdXdXaXtX0X7X7X4X4X2X=X=X%X#X#XXXoXoX[.^.^.~.~.Q.W.T.R.Y.R.R.Y.R.Z.Z.Z.D.Z.Z.A.A.A.m.m.m.m.m.m.m.m.m.m.m.m.m.m.m.m.m.A.m.A.D.D.A.A.Z.C.Z.Z.Z.Y.Y.Y.R.Q.T.T.W.^.~.[.'.~.[.oX XXX#X#X*X1X6X6X4X8X7X9XsXaXdXgXdXhXhXxXlXnXnXnXbXbXbXbXbXbXCXBXBXBXCXCXCXCXBXBXCXCXBXBXBXBXBXBXbXbXbXvXvXvXvXkXkXjXjXhXhXdXdXdXgXaXtXyX7XyX7X8X5X3X3X3X=X=X-X%XOXXX.X.X{.{.]._.E.R.J.H.B.B.N.n.n.x.d.d.d.d.d.d.f.f.d.d.n.V.n.j.d.f.t.9.#.@.@.O.o.X.o.o.{ { { [ [ [ [ [ [ ] ] ] ] ] ] ] ] ' X.@.w.8.6.=.*.o.{ [ ] / / / ( ( ( ~ ~ ~ ^ ^ ^ ^ ^ ^ ^ ~ ^ I I I ^ ^ ) ] [ o.&.&.+.{ ] / ~ ~ ~ ~ ~ ~ ^ ^ ~ ~ ^ ^ ^ ^ ( ^ ( ^ / / / ` ] [ X.o.O.+.O.+.o.o.o.o.X.X.X.X.X.X.o.o.o.o.o.+.O.O.O.O.O.O.@.@.@.@.#.=.9.0.0.0.t.9.u.i.s.s.x.x.x.c.A.A.Z.Y.Y.T.!.!.!.oXXX#X#X$X$X1XqXqXqX0X0XrXaXaXdXhXhXhXlXlXvXvXvXvXvXvXvXbXbXbXbXbXbXBXBXBXBXBXBXBXBXBXbXbXbXbXbXbXbXvXvXkXkXjXjXdXgXaXaXaX9X0X7X4X4X4XrXzXfX7X9XzXAXAX",
"-.u.u.u.t.i.s.f.d.x.m.A.Z.Z.Y.Y.T.~.^.^.oXoX#X#X#XXX}.T.~.oX-XeXdXiX9X0X8X9XtXsXjXkXvXbXVXDXFXGXFXFXFXHXFXFXHXFXFXGXGXGXLXLXLXLXGXGXJXJXJXJXJXJXJXLXLXLXLXLXLXLXFXFXFXFXFXDXDXDXZXVXBXBXbXbXnXnXlXhXhXxXaXiX8X7X4X6X1X$X#X#XXX XoX^.^.~.~.~.T.R.R.Z.Z.D.D.m.c.c.x.x.x.c.s.t.t.u.9.9.-.-.#.@.@.@.@.@.@.@.@.@.@.@.@.@.*.=.;.-.;.;.-.*.O.X.[ [ ] ` ` ] ] ] ] ] ] ] ] ] ] ` ` ` ` ` ] [ o.%.;.y.y.-.O.{ ] / ~ ~ ~ ~ P P P P P P F F P F P P F F P P P P ~ ~ ~ ~ ` o.*.*.*.O.o.[ / ~ ^ ^ ~ ~ ~ ~ ~ ~ ( ( / / / ` ` ] [ [ [ [ [ X.o.O.@.@.-.9.y.t.t.t.t.t.i.i.s.s.s.s.c.x.x.c.m.m.C.C.Z.J.R.W.~.^.oXoXXX#X*X6X6X7X0XaXaXdXhXlXkXvXbXbXbXBXBXVXZXVXDXDXFXFXFXFXFXFXFXFXGXGXGXGXLXLXLXLXLXLXLXLXLXLXLXLXLXLXLXLXLXLXLXLXLXGXGXGXFXFXFXFXFXFXFXFXFXFXDXDXZXZXVXBXbXbXvXvXvXvXkXhXhXdXdXaXtX0X7X7X4X4X2X1X=X*X#X#XXXoXoX[.^.~.~.~.~.W.T.R.Y.Y.R.Y.R.Z.Z.Z.Z.D.C.A.A.A.m.m.m.A.m.m.m.m.m.m.m.m.m.m.m.m.m.A.A.A.A.D.A.A.Z.Z.Z.Z.R.Y.Y./.R.R.T.~.^.^.~.!.[.'.[..X XXX#X#X$X*X1X1X6X4X8X0X9XaXgXaXdXdXdXhXkXkXvXvXbXbXbXbXbXbXMXCXbXbXCXCXCXCXBXBXBXBXbXbXbXBXbXbXbXbXvXvXvXvXkXkXxXhXhXdXdXxXdXaXaXrXtXrX7X7X5X5X5X3X3X3X=X=X-X&X%XXX.X.X{.{.[.].W.R.J.H.B.V.N.N.V.x.d.d.d.d.d.d.f.f.d.n.V.B.n.n.d.f.t.9.#.@.@.O.o.X.X.o.{ { { [ [ [ [ [ ] ] ] ] ] ] ] ] ' [ X.@.w.w.6.=.*.o.{ [ ] / / / ( ( ( ~ ~ ~ ^ ^ ^ ^ ^ ^ ^ ~ ^ I I I ^ ^ ) ] [ o.%.>.&.o.[ / ~ ~ ~ ~ ~ ~ ^ ^ ~ ~ ^ ^ ^ ^ ( ( ( / ^ / / ` ] [ [ o.O.%.O.O.O.o.o.o.o.X.X.X.X.X.o.o.o.o.o.o.O.O.O.O.O.@.@.*.=.#.#.=.9.0.0.0.t.t.t.i.s.s.x.x.c.c.A.A.Z.Z.Y.Y.T.!.!. XoXXX#X#X$X1X1XqX7X7X7X9XaXaXaXdXhXhXlXlXlXvXvXvXvXvXvXvXvXvXbXbXbXbXbXbXbXbXbXbXbXbXbXbXnXbXbXvXvXvXkXlXxXxXjXfXaXaXiXiX9X0X7X4X4X4XaXzXfX1XqXjXAXZX",
"-.u.u.y.i.s.s.f.d.x.m.m.A.Z.Z.Y.Y.~.~.^.[.oX#X#XXXoXZ.f.5.f.A.Y.oX$X=X-XoX$X&X&XwXuXuXsXjXmXNXNXMXmXMXMXbXBXCXCXCXCXZXHXGXLXLXGXGXHXLXJXJXJXJXJXLXLXLXLXLXGXGXGXFXFXFXFXFXDXDXZXVXBXBXBXbXvXnXlXlXhXhXgXsX9X8X7XqX6X1X$X#X#XXX XoX[.^.~.~.~.W.T.R.Z.Z.D.D.A.m.c.c.c.c.x.s.s.y.y.u.9.9.-.=.=.@.@.@.@.@.@.@.@.@.@.@.=.=.=.-.-.w.;.-.*.O.X.[ [ ] ] ] [ [ [ { { { { [ [ [ [ [ [ X.X.o.O.*.;.w.h.h.-.+.X.] / ^ ~ ~ ~ ~ ~ ~ ~ P P P P P ~ P P P P P P ~ ~ ~ ~ ~ ~ ` o.%.*.*.*.o.{ ] / ~ ~ ~ ~ ~ ^ ^ ( ( ( / / / ` ] [ [ [ [ [ X.o.o.O.O.@.=.9.y.y.y.i.t.i.s.s.s.s.s.s.c.x.c.x.m.m.A.C.Z.J.R.W.~.~.oXoXXX#X=X6X6X4X7XrXaXdXhXlXkXvXvXbXbXBXBXBXVXZXDXDXFXFXFXFXFXFXFXFXGXGXGXGXLXGXGXGXGXGXGXLXLXLXLXLXLXLXLXLXLXGXGXGXGXFXFXFXFXFXFXFXFXDXDXDXFXDXDXDXZXZXBXBXbXbXvXvXvXvXkXhXhXdXdXaXtX9X7X7X4X4X2X1X=X*X%X#XXXoXoXoX[.^.^.~.~.Q.Q.E.T.T.R.R.R.Y.Z.Z.Z.Z.Z.Z.S.C.A.A.A.A.A.A.m.A.A.A.A.A.A.A.m.m.A.A.A.A.S.C.Z.Z.D.Z.Z.Z./.Y.R.R.T.T.T.~.^.~.[.[.[.[.[..XXXXX#X#X$X*X1X1X2X5X8X0X9XaXsXgXdXdXdXxXjXkXkXvXvXvXbXbXbXbXMXMXbXbXMXMXMXMXbXbXbXbXbXbXbXbXbXbXbXvXvXvXvXkXkXkXjXhXhXdXdXgXdXaXaXrXtXrXeX7XwXwXwX3X3X3X=X=X=X=X%X+X.X.X{.}.}.].W.E.J.H.S.B.B.V.N.n.d.d.x.x.d.d.f.f.n.V.V.B.V.n.d.i.0.9.#.@.@.O.O.o.o.o.+.+.+.X.X.{ { [ [ [ [ [ [ [ [ [ [ X.O.-.y.q.6.=.*.o.{ } ] / / / / ( ( ^ ( / / / ( ( ( ( ( ^ ^ ^ ^ ^ ^ ) ) ] { o.;.;.>.+.[ ' / ~ ~ ~ ^ ^ ^ ^ ^ ^ ^ ^ ( ( ( ( ( / / / / ] ] [ [ o.O.%.%.%.O.%.O.O.o.o.o.X.o.o.o.o.o.o.O.O.O.O.O.O.@.@.*.=.=.=.#.=.9.9.0.0.y.t.y.i.s.s.x.x.x.m.m.A.C.Z.Y.Y.T.!.!.^. XXX#X#X#X$X1X6X4X4X7X7X9XsXaXdXdXhXhXhXlXlXlXlXvXvXvXnXvXvXbXbXbXbXbXbXbXbXbXbXbXbXnXnXnXnXvXvXvXlXlXlXxXxXxXgXiXiXiXiX9X9X8X4X4X4XxXzXsX@X@XaXCXDX",
"9.u.u.y.i.s.i.s.s.x.x.m.A.Z.Z.Y.Y.T.~.^.^.oXoX#XXX+Xc.5.5.0.i.f.c.P.P.z.P.P.A.Z.T.T.!.!. X@XqXqXqX0X0XiXiXpXhXhXhXkXvXvXCXCXCXZXAXZXGXJXLXLXLXLXJXLXLXGXGXGXGXFXFXFXFXFXFXDXDXZXVXBXBXbXbXvXvXlXlXhXxXgXsX9X7X7XqX6X1X$X#X#XXXoXoX[.^.~.~.~.W.T.R.Y.Z.D.D.A.m.c.x.x.x.x.s.s.t.y.u.9.9.-.=.=.@.@.@.@.@.@.@.@.@.@.@.=.=.=.-.-.w.;.;.*.O.X.[ [ ] ] [ { o.o.o.o.o.o.o.o.o.o.o.o.O.O.O.@.=.w.q.g.g.-.O.X.] / ^ ~ ~ ~ ~ ~ ~ ~ P P P P P ~ P P P P P P ~ ~ ~ ~ ~ / ` X.O.*.*.*.O.+.} / / ~ ~ ~ ~ ^ ^ / ( / / / / ` ] [ [ [ [ [ X.o.o.O.O.@.*.-.t.y.y.i.t.s.s.s.s.s.s.c.c.x.c.x.m.m.A.C.Z.J.R.W.~.~.oX XoX#X*X1X6X4X7XrXaXgXhXhXlXvXvXvXbXbXbXBXVXZXZXDXDXFXFXFXFXFXFXFXGXGXGXGXLXGXGXGXGXGXGXGXLXLXLXLXLXLXGXGXGXGXGXGXGXFXGXFXFXFXFXDXDXDXDXDXDXDXDXZXZXZXCXBXbXvXvXvXvXvXkXhXhXdXdXaXtX9X7X7X4X4X2X1X=X*X%X#XXXoXoXoX[.^.^.^.~.W.Q.W.T.T.R.Y.R.R.Z.Z.Z.Z.Z.Z.C.C.A.A.A.A.A.A.A.A.A.A.A.A.A.A.m.A.A.A.A.A.C.C.Z.Z.Z.Z.Z.Z.Y.Y.Y.Y.T.T.W.~.^.^.[.[.[.[.[..XXXXX#X#X*X*X1X1X2X5X8X7X0XtXsXsXgXdXgXxXhXlXkXkXvXvXvXvXvXvXMXbXbXbXbXbXbXbXbXbXbXbXbXbXbXbXbXbXvXvXvXvXkXkXkXkXjXjXhXdXdXgXgXaXaXrXtXyXeXwX4X4X3X3X3X=X=X=X-X&X%XXX.X.X{.{.[.].W.E.F.J.S.M.M.N.N.n.d.d.d.x.f.f.f.d.N.V.B.B.M.j.d.i.0.6.#.@.@.O.O.o.o.o.o.+.+.X.X.[ [ [ [ [ [ [ [ [ [ [ X.X.O.-.q.q.6.=.*.o.{ } ] / / / / / ( / / / / / ^ ^ ( ( ( ( ~ ^ ^ ^ ^ / ` ] [ O.*.*.;.&.+.[ ` ~ ^ ~ ~ ~ ~ ^ ^ ^ ^ ( ( ( ( ( ( / / / ) ] ] [ [ o.O.%.*.*.@.O.O.O.O.o.o.o.o.o.o.o.o.o.O.O.O.O.O.@.@.@.*.=.=.=.#.-.9.9.0.0.t.t.t.i.s.s.x.x.x.m.m.A.Z.Z.Y.Y./.!.!.!. XoXXX#X#X$X1X1X1X4X4X7XrXsXsXaXdXdXhXhXhXlXlXlXlXvXvXnXvXvXbXbXbXbXbXbXbXbXbXbXbXbXvXvXnXvXvXvXvXlXlXhXxXgXaXaX0X0XiXiX9X0X8X4X2X7XxXmXsX@X X4XmXAX",
"9.w.w.y.y.i.i.i.f.x.x.m.A.Z.Z.Y.Y.T.~.^.^.[.oXoXoXoXm.5.5.l.x.i.i.V.B.N.k.N.Z.Y.Z.P.P.P.!.!.!.!.(.(.qXqXqX0X0X0X0X0XiX0X@X@X@XqXcXCXFXJXLXLXGXGXGXGXGXGXGXFXFXFXFXFXFXFXDXZXZXVXBXBXbXbXvXvXkXlXhXhXxXaXsX9X7XqX6X6X1X$X#X#XXXoXoX[.[.~.~.~.W.T.R.Z.Z.D.A.m.m.c.c.c.c.x.c.s.t.y.u.9.9.-.=.=.=.@.@.@.@.@.*.*.@.@.@.=.=.=.=.=.w.;.;.@.O.X.[ ' ` ] [ o.%.%.%.%.%.%.%.%.%.%.*.*.*.*.*.=.6.w.g.V.v.9.O.X.] / / ^ ^ ~ ~ ~ ~ ~ ~ ~ ~ ~ ~ P P P P P P ~ ~ ~ ~ ~ ~ ~ ` [ o.%.*.*.%.+.} ] / ~ ~ ~ ^ / / / / / / / / ` [ [ [ [ [ [ X.o.o.O.O.O.*.-.9.i.i.y.s.s.s.s.c.c.c.c.x.x.x.c.m.m.C.C.Z.R.R.T.~.!.[..XoXXX#X*X1X2X7X7XrXaXgXhXhXkXvXvXbXbXbXBXVXVXZXZXDXFXDXDXFXFXFXFXGXGXGXGXGXGXGXGXGXGXGXLXLXGXGXGXGXGXGXGXGXGXGXFXFXFXFXFXFXFXDXDXDXDXDXDXDXDXDXZXZXVXCXCXbXvXvXvXvXvXkXhXhXdXdXsXsX9X9X7X4X4X2X1X=X*X%X#XXXoXoXoX[.[.^.~.~.~.W.W.T.T.R.Y.R.Y.Y.Z.Z.Z.Z.Z.Z.C.A.A.A.A.A.A.A.A.A.A.A.A.A.A.A.A.A.C.A.C.C.C.Z.Z.Z.Z.R.Y.Y.Y.Y.T.~.~.~.~.^.^.^.[.[.[..X.XXXXX#X#X*X*X*X1X6X4X7X7X0XtXsXsXgXaXgXxXxXhXkXkXvXvXvXvXvXvXvXbXMXMXbXbXbXbXbXbXbXbXbXbXbXbXbXbXvXvXvXvXlXkXkXkXhXhXdXdXdXgXaXaXaXrXrX7X7X4X4X4X3X3X3X-X=X=X-X&XXXXX.X.X{.{.[.].W.E.J.J.H.M.B.B.N.n.n.n.n.x.f.j.n.n.M.B.B.B.N.d.d.i.0.9.#.@.@.@.O.O.O.o.o.o.o.X.X.X.[ [ [ [ [ [ [ [ [ [ +.+.@.9.y.q.w.=.*.&.o.{ [ ` ' ` / / / / / / / / / / / ( ( ( ( ~ ~ / / ' ' [ X.O.*.*.-.@.+.[ ] / ^ ~ ^ ~ ~ / ^ ^ / ( ( ( ( ( ( / / / ) ] ] [ [ o.O.%.*.@.@.@.O.@.+.o.O.o.o.o.X.O.O.O.O.O.O.O.O.@.@.@.*.=.=.#.#.#.9.0.0.9.t.t.t.s.s.s.x.x.x.m.m.A.C.Z.Y.Y.T.T.!.!.oXoXXX#X#X#X*X1X6X1X4X7X0X9XiXiXiXdXdXdXhXhXhXhXkXvXvXvXvXvXbXvXbXbXbXbXbXbXbXbXvXvXvXvXvXvXvXvXvXkXjXjXgXaXaXrX9X9X9X9X9X0XeX;X@XqXnXNXgX@XT.!.2XzX",
"9.w.w.y.y.i.i.i.f.d.x.m.A.A.Z.Y.Y.Y.~.~.^.^.[.oXoXoXQ.5.i.B.x.5.d.B.H.H.H.E.[.#XwXwXwXwX=X=X=X1X1XqXqXqXqX0X4XqXqXqXqX1XXX.X.X@XcXbXDXJXFXFXGXGXGXGXGXGXGXFXFXFXFXFXFXDXDXZXZXVXBXBXbXbXvXvXkXhXhXxXxXaXsX9X7X4X6X6X1X$X#X#XXXoXoX[.[.~.^.~.W.T.R.Y.Z.Z.A.m.m.c.c.c.c.x.c.s.t.y.w.9.9.-.=.=.=.@.@.@.@.@.*.*.@.@.@.=.=.=.=.=.w.-.;.@.O.X.[ ' ` ] [ o.%.;.;.;.;.;.;.;.;.;.;.;.;.;.;.w.q.g.V.H.D.u.@.X.] / / ^ ^ ~ ~ ~ ~ ~ ~ ~ ~ ~ ~ P P P P P ~ ~ ~ ~ ~ ~ E ~ / ` X.%.*.*.;.+.o.' / / ~ ~ ^ ^ / / / / / / ` ] [ [ [ [ [ X.X.o.o.o.O.O.@.-.9.u.i.y.s.s.s.s.c.c.c.c.x.x.c.c.m.m.C.Z.Z.R.R.T.~.!.^.oX XXX#X*X1X4X4X7XrXaXiXhXhXlXlXvXvXbXbXbXBXVXZXZXZXZXDXDXFXFXFXFXGXGXGXGXGXGXGXGXGXGXGXGXGXGXGXGXGXGXGXGXGXFXFXFXFXFXFXFXFXFXDXDXDXDXDXFXDXDXDXZXZXCXCXBXbXvXvXvXvXkXkXhXhXdXdXaXsX9X9X7X4X4X2X6X1X*X*X#XXXoXoXoX[.[.^.~.^.~.~.W.T.T.R.Y.R.Y.Y.Z.Z.Z.Z.Z.Z.C.A.A.A.A.A.A.A.A.A.A.D.D.D.A.A.A.C.C.C.C.S.D.Z.Z.Z.Z.Y.Y.Y.Y.T.T.~.~.~.~.~.^.[.[.[..X.X XXX#X#X$X$X$X*X1X1X2X4X8X9X9XsXsXgXaXgXxXhXhXlXkXkXvXvXvXvXvXvXvXvXvXbXbXbXbXbXbXbXbXbXbXbXbXvXvXvXvXvXlXlXlXkXjXhXhXdXdXdXaXaXaXrXyXyX7X7X4X4X4X2X2X3X=X=X=X=X&XXX.X.X{.{.[.].].W.E.J.J.S.M.B.B.N.n.n.n.n.n.n.n.n.M.B.B.B.B.N.d.f.i.9.6.#.@.@.@.O.O.O.O.+.o.o.o.o.X.X.[ [ [ [ [ [ [ [ X.o.O.-.9.h.e.w.=.;.+.+.o.o.[ [ [ ] ] ] / / / / / / / ~ ~ ( ( ( / ` ` ' ' ' [ X.O.*.=.=.@.+.[ ] / / ^ ^ / / / ) ) / ( ( ( ` / / / / / / ` ] { { o.O.@.*.#.@.@.@.+.O.O.O.O.O.O.X.O.O.O.O.O.O.O.O.@.@.@.#.=.=.=.#.-.9.0.9.t.t.t.t.s.s.s.x.x.x.m.m.A.C.Z.Z.Y.T.!.!.^.oXoXoXXX#X#X$X*X6X6X2X4X7X9X9XiXiXiXdXdXdXhXhXhXlXlXvXvXvXvXvXvXbXbXvXvXvXvXvXvXvXvXvXvXvXvXvXkXkXkXlXxXgXaXrXrX9X0X9X9X9X0XeX*X;XqXNXAXxX@XT.T. XuX",
"9.w.w.t.t.i.i.i.f.d.x.m.A.A.Z.Y.Y./.T.~.^.^.^.oX}.oX+X5.n.K.c.5.S.Q.}.W.}.+X=X8XzXmXmXvXvXvXkXkXjXjXjXdXaXsXtX9X0X7X7XqX%XOXXX$XcXvXDXLXFXFXFXFXFXFXFXFXFXFXFXFXFXFXFXDXZXZXZXBXBXBXbXbXvXvXkXhXhXxXgXaXrX9X7X4X4X6X1X$X#X#XXX XoX^.^.~.~.~.W.T.R./.Z.D.C.m.m.c.c.c.x.x.x.s.i.y.u.w.9.=.=.=.=.=.*.*.*.*.@.@.*.=.=.=.=.=.6.6.6.=.;.@.O.X.[ [ ] ] [ { &.;.:.;.>.;.:.;.;.;.;.;.;.;.;.w.q.g.V.D.D.u.@.o.[ ` / / / ~ ~ ~ ~ ~ ~ ~ ~ ~ ~ ~ ~ ~ ~ ~ ~ ~ ~ ~ ~ ~ E ~ ~ ' ' O.;.;.;.&.+.{ ' ~ ~ / / / / / / / / / ] ] [ [ [ [ X.X.o.o.o.o.O.O.@.#.-.9.y.t.i.s.s.s.c.c.c.c.c.x.c.c.m.m.C.Z.Z.R.R.T.~.!.^.oX XXX#X*X*X1X4X7XrXaXaXdXhXlXlXlXvXvXbXbXBXBXZXZXZXZXZXDXDXFXFXFXGXFXFXFXFXFXFXGXGXGXGXGXGXGXGXGXGXFXFXFXFXFXFXFXFXFXFXFXDXDXDXDXDXDXDXDXDXZXZXZXVXBXCXbXbXvXvXkXkXkXkXhXhXdXdXaXsX9X9X0X5X4X4X6X1X*X*X#XXXXXoXoX[.[.^.^.^.~.~.W.W.T.T.T.R.R.R.Y.Y.Y.Z.Z.Z.Z.Z.C.C.C.C.A.C.C.C.C.S.C.S.C.Z.Z.Z.Z.C.D.Z.Z.Z.Z.R.R.R.Y.T.T.T.T.~.~.~.~.^.[.[.[.oXoX.XXXXX#X#X$X*X*X*X*X1X2X4X8X9X9XtXsXgXgXgXxXhXhXlXlXkXvXvXvXvXvXvXvXvXbXvXbXbXbXbXbXbXbXbXbXvXvXvXvXvXvXvXkXlXlXkXjXhXhXdXdXdXaXaXrXrXyXyX7X7X4X4X4X2X2X3X=X=X*X=X&XOX.X.X{.{.[.].].W.T.E.J.H.C.B.B.M.n.n.n.n.N.N.M.M.B.B.B.B.B.n.f.i.t.5.6.#.@.@.@.@.O.O.+.+.O.O.o.o.o.o.X.X.X.X.X.X.X.X.o.@.@.:.y.s.h.w.6.*.O.+.o.o.{ { { [ [ ] ] ` / / / / / ' / / / ) ) } } } { { { X.O.@.#.#.@.O.X.` / / / _ ) } ] ' ' } ] ] ] ] ] ) ] ` ' ' ' ] { { o.O.%.*.=.*.*.@.@.O.O.O.O.O.O.O.O.O.O.O.O.@.@.@.@.@.@.#.#.=.=.-.9.9.0.t.t.t.i.s.s.s.s.x.x.x.m.m.A.C.Z.F.Y.T.!.!.^.oXoXoXoXXX#X$X*X1X6X4X4X8X0X9X9XiXiXiXdXdXdXhXlXlXlXlXvXvXvXvXnXvXvXvXvXvXvXvXvXvXvXkXkXlXlXlXlXlXlXlXhXgXaXyXeX0X9X0X9X0X8X4X*X-XtXAXAXzX4X X{.;X2X",
"9.w.w.y.t.y.y.i.f.s.x.c.A.A.A./.Y./.R.T.~.^.^.^.[.oX+Xz.A.Q.D.c.T.}.+X{..XOX5XiXAXHXHXHXDXDXZXZXCXbXvXlXhXxXdXdXgXaXaX9X*X%X-X1X<XvXHXLXFXFXFXFXFXFXFXFXFXFXFXFXFXFXDXDXZXVXBXBXBXbXbXvXvXkXkXjXhXgXaXaXrXrX7X4X2X6X1X$X#X#XXX X X^.^.~.~.~.W.T.R.Y.Z.Z.C.m.m.c.c.c.c.c.c.s.i.y.t.0.9.9.=.=.=.=.*.*.*.*.@.@.#.=.#.=.=.9.6.6.6.=.=.@.O.X.[ ' ] ] [ { o.%.%.%.%.%.%.%.%.%.*.%.%.%.*.*.-.y.s.V.v.u.#.X.[ ` / / / ~ ~ ~ ~ ~ ~ ~ ~ ~ ~ ~ ~ ~ ~ ~ ~ ~ ~ ~ ~ ~ E ~ ~ / ` o.*.;.;.;.+.o.[ ` ~ ~ / / / / / / / / ] ] [ [ [ [ [ X.o.o.o.o.O.O.@.*.#.9.9.t.y.s.s.s.c.c.c.c.c.c.c.c.m.m.C.Z.Z.R.Y.Y.T.!.~. X XXXXX%X*X1X4X7X0X9XiXgXdXhXlXlXvXnXvXbXbXbXBXBXCXZXZXZXDXDXFXFXFXHXHXHXFXFXFXFXGXGXGXGXFXFXFXFXFXFXFXFXFXFXFXFXHXHXDXDXDXDXDXDXDXDXDXDXZXZXZXZXBXBXBXbXvXvXvXkXkXkXlXhXhXdXdXaXsX9X9X0X5X4X4X6X1X*X*X#XXXXX.XoX[.[.^.^.^.~.~.W.~.T.T.T.T.Y.Y.Y.Y.Z.Z.Z.Z.Z.Z.C.A.C.C.C.C.C.C.C.C.C.C.C.Z.Z.Z.Z.Z.D.Z.Z.Z.Z.Y.R.Y.Y.T.T.T.T.~.~.~.~.[.[.[.oXoXoXXXoXXX#X#X$X*X*X*X*X=X6X5X8X0X9XtXsXgXgXgXxXhXhXhXkXkXkXkXkXkXkXvXvXvXvXvXvXvXvXvXvXvXvXvXvXvXvXvXvXkXkXkXlXlXlXhXhXhXgXdXaXaXaXrXrXrXrX7X7X4X4X4X2X2X2X=X*X*X%X&X#XXX.X.X{.[.[.].].W.T.E.J.G.M.M.B.M.n.n.n.N.n.M.M.H.H.H.B.B.M.n.f.i.0.5.6.#.@.@.@.@.@.O.O.O.O.O.o.o.o.o.X.X.X.X.X.X.X.X.o.@.#.:.y.g.e.7.6.#.O.O.O.o.o.o.o.[ [ [ ] ` ` ` / / / / / / / ) }  . . . . .o.o.O.@.#.#.@.O.X.` / / _ ) } } } | | [ [ { {  .} ] ] ' ' ' ' } { { &.O.@.-.-.*.@.@.@.@.O.O.O.O.O.O.O.O.O.O.O.@.@.@.@.@.@.#.#.=.#.9.9.0.0.t.t.t.i.s.s.s.s.x.x.x.m.m.m.C.Z.Z.Y.Y.T.!.^.^.oXoXoXXX#X#X$X*X1X6X6X5X8X8X0X0X9XiXiXiXaXdXhXhXhXlXlXlXlXlXlXlXvXlXvXkXkXkXkXkXkXlXlXlXlXlXlXlXlXlXhXaX9X7X7XiXiXiXiXiX9X7XqXwXfXAXHXmX9X%XOX2X2X",
"9.w.0.q.t.y.y.i.s.s.x.c.m.A.A.Z./.Y.R.R.W.Q.^.^.[.+X=X!.R.Q.Q.Y.oX.XXXOX X;XrXkXZXFXGXGXGXGXFXHXDXZXBXbXvXvXvXkXkXkXkXdX4X1X5X1XcXkXHXGXFXFXFXFXFXFXFXFXFXDXFXFXDXFXDXDXZXCXCXBXBXbXbXvXvXkXkXjXxXgXaXaXrXrX7X4X2X6X1X$X#X#XXX XoX[.^.^.~.~.Q.T.R.Y.R.Z.C.A.A.A.m.m.m.c.c.s.s.t.y.u.9.-.=.=.=.=.=.*.#.#.@.@.=.=.=.=.=.6.w.9.9.=.=.@.O.X.[ [ ] [ [ [ +.o.o.o.o.o.o.o.o.o.o.o.o.o.o.O.@.-.u.v.v.u.@.X.[ ` / / / / ^ ~ ~ ~ ~ ~ ~ ~ ~ ~ ~ ~ ~ ~ ~ ~ ~ ~ ~ ~ ~ ~ ~ / ] o.;.;.;.-.&.+.[ ` ` / / / / / / / / ` ] [ [ [ [ [ X.X.o.o.o.o.O.O.@.*.-.#.9.0.u.t.s.s.c.c.c.x.c.c.c.m.m.A.C.C.Z.Z.Y.Y.T.!.~. X XoXXX%X*X1X2X7XyXrXiXaXdXhXhXlXlXkXvXvXbXbXbXBXCXCXCXZXZXZXFXDXDXDXDXHXFXFXFXFXGXGXGXGXFXFXFXFXFXFXFXFXFXFXHXHXHXHXHXHXDXDXDXDXZXDXDXDXZXZXZXZXCXBXCXbXbXvXvXvXkXkXkXhXhXdXdXaXsX9X9X9X8X4X4X2X1X*X*X#XXXXXoX[.[.[.^.^.^.^.~.~.~.T.T.T.T.Y.Y.Y.Y.Y.Z.Z.Z.Z.Z.Z.A.A.A.A.C.C.C.Z.Z.Z.Z.C.Z.Z.Z.Z.D.Z.Z.Z.Z.Y.R.R.Y.Y.T.T.T.~.~.~.~.~.[.[.oX.XoXXXXXXX#X#X#X$X$X$X*X*X1X6X4X7X0X9XtXsXgXaXdXdXhXhXhXlXkXkXkXkXkXkXvXvXvXvXvXvXvXvXvXvXvXvXvXvXkXkXkXkXjXkXjXjXhXhXhXdXdXdXgXsXsXtXrXyXeXeXeX4X4X2X2X2X2X1X=X*X#X#X#XXXXX.X{.{.[.[.].'.W.T.E.J.G.C.B.B.M.M.M.M.M.M.M.C.J.K.H.S.M.n.d.f.i.0.9.6.#.@.@.*.@.@.@.O.O.O.O.O.O.O.o.X.o.o.X.X.X.X.X.O.@.-.u.y.g.e.q.5.9.#.O.X.:.;.;.-.*.&.o.[ ] ` / ) / / / / / / ) } | ..2...} &.%.%.*.=.=.*.O.X.[ ] ) ) ] } ..' ! ! $.:.:.+.} } } ] ` ' ' ' [ [ X.&.#.#.#.#.#.-.#.@.-.O.O.O.O.O.O.O.O.O.@.@.@.@.@.@.@.@.#.#.=.9.9.9.0.0.y.t.t.i.t.s.s.s.x.x.x.m.m.m.A.Z.Z.Y.Y.T.!.!.^.oXoXoXoXXX#X$X*X*X6X6X5X5X8X8X8X9X9X9XaXaXgXdXhXhXhXhXlXlXlXlXkXkXlXlXlXlXkXkXlXlXlXlXlXlXlXlXlXhXhXdXsX9X4X0XvXBXBXbXbXvXhXdXjXNXZXHXMXiX5X-XwXwX",
"9.0.0.q.q.y.y.y.s.s.c.c.c.A.A.A.Z.Y./.R.Q.W.Q.W.~.oX5X$XQ.c.Q.}.oX.XXXXX X*XtXvXZXGXGXGXLXLXGXFXDXZXZXZXCXCXCXCXCXCXBXvXaXyXtX1XqXkXHXGXFXFXFXFXFXFXFXDXDXDXDXDXFXDXDXZXVXBXBXBXBXbXbXvXkXlXlXhXxXaXaXrXrXrX7X4X2X6X1X$X#X#XXX XoX[.[.^.~.~.Q.T.R.Y.Z.Z.Z.A.A.m.c.c.m.x.c.s.s.t.y.u.0.-.=.=.=.=.=.=.=.=.*.*.=.=.#.=.9.w.w.w.9.=.=.@.O.X.[ [ ] [ [ [ [ [ [ [ [ [ [ ] [ ] ] [ [ [ [ X.+.@.*.u.u.-.@.X.[ ` / / / / ^ ~ ~ ~ ~ ~ ~ ~ ~ ~ ~ ~ ~ ~ ~ ~ ~ ~ ~ ~ ~ ~ ~ / ] +.&.;.;.;.;.+.X.' ` / / / / / / / ` ` ` [ [ [ [ [ X.X.o.o.o.o.o.O.*.*.-.-.#.9.0.u.i.s.c.c.c.c.c.c.m.m.A.A.C.C.Z.Z.Y.Y.T.!.!.!.oX XXX%X*X1X4X4X7X7X9XiXdXdXhXhXhXlXkXvXvXnXbXbXMXCXCXCXZXZXDXDXDXDXDXDXDXDXFXFXFXFXFXFXFXFXFXFXFXFXFXHXDXDXDXDXDXDXDXDXDXDXDXDXZXZXZXZXZXZXZXVXBXBXBXbXbXvXvXvXkXkXkXhXhXdXdXaXsX9X9X9X8X4X4X6X1X*X*X#XXXXXoX[.[.[.^.^.^.^.^.~.~.T.~.~.T.Y.Y.Y.R.Y.Z.Z.Z.Z.Z.Z.A.A.C.A.C.Z.Z.Z.Z.Z.C.C.Z.Z.Z.Z.Z.Z.Z.Z.R.Y.R.R.Y.Y.T.T.~.~.~.~.~.~.[.[..X.XXXoXXXXX#X#X$X$X$X$X*X*X1X6X4X7X0XyXtXsXgXaXdXdXhXhXhXhXkXkXkXkXkXkXvXvXvXvXvXvXvXvXvXvXvXvXkXkXkXjXkXjXjXjXjXjXhXhXdXdXdXgXsXtXtXrXyXyXeX7X7X4X2X2X2X2X1X=X*X%X#X#X#XXXXX.X.X{.[.[.[.~.W.T.R.J.F.C.S.B.B.M.M.M.M.M.C.H.J.K.H.H.M.n.f.f.i.0.9.6.#.#.@.*.@.@.@.O.O.O.O.O.O.O.o.o.o.o.o.o.X.X.X.+.@.-.9.y.g.p.r.5.5.5.0.u.c.z.z.$.u.*.&.o.] ] ` ] ] ] ) ] ] ' ' | ,.<.3.<.<.$.+.O.*.=.=.*.*.O.o.[ ] ] ' $.<.).6XiXqX(.<.$.' } } } ] ' ' ' [ [ X.$.$.<.z./././.b.#.-.#.O.O.O.O.O.O.O.O.@.@.@.@.@.@.@.#.#.#.#.#.9.9.0.0.t.t.t.i.s.s.s.s.x.x.x.N.m.m.C.Z.Z.Y.Y.Y.T.!.^.^.oXoXoXXX#X#X$X*X1X6X6X5X5X8X8X8X0X9X9X9XaXiXdXhXhXhXhXhXhXhXhXhXhXhXhXhXhXhXhXlXlXlXlXlXlXhXhXhXhXdXiX9X4X0XZXFXZXVXBXBXvXlXkXNXZXHXZXlX8X=X*X2X",
"9.0.0.0.q.y.y.y.s.s.c.c.c.A.A.A.Z./././.R.R.Q.T.T. XeXeX}.5.}.+X{..XXXXX.X-XtXkXZXJXJXJXJXJXGXHXZXAXAXCXZXZXZXDXDXDXDXCXzXsXfXqX0XmXHXFXFXFXFXHXFXFXFXHXDXDXDXDXDXDXDXZXZXBXBXBXBXbXbXvXkXlXlXjXgXaXaXrXrXrX7X4X2X6X1X$X#X#XXX X.X[.[.^.~.~.W.T.R.Y.Y.Z.Z.A.A.A.c.m.m.x.c.s.t.t.t.u.0.9.-.-.;.=.;.;.=.=.=.=.=.=.=.=.9.w.q.0.9.9.*.@.O.X.[ [ [ [ ] [ [ [ ] ] ] ] ] ] ] ] ] ] ] ] ] [ o.O.O.=.-.@.@.o.[ ` / / / / / ^ ^ ^ ~ ~ ~ ~ ~ ~ ~ ~ ~ ~ ~ ~ ~ ~ ~ ~ ~ / ~ / ` [ +.*.;.;.-.@.+.[ ' ` ` ` ` / ` ` ] ] ] [ [ [ [ [ X.o.o.o.o.o.O.O.*.*.-.-.#.#.u.u.i.s.c.c.c.x.c.m.m.m.A.A.C.Z.Z.Z.Z.Y.Y.!.!.^.oX XXX#X;X1X4X4X7X7X0XiXaXdXhXhXhXlXkXkXnXnXvXbXbXMXMXCXCXZXZXZXDXDXDXDXDXDXFXFXFXFXFXFXFXFXFXFXFXHXFXFXDXDXDXDXDXDXDXDXDXDXDXZXZXZXZXZXZXZXZXVXBXBXBXbXbXvXvXvXvXvXkXjXhXdXgXsXsX9X9X9X8X4X4X6X1X*X*X#XXXXX.XoX[.[.^.^.^.^.^.~.~.~.~.~.T.Y.Y.Y.R.R.Y.Z.Z.Z.Z.Z.Z.Z.Z.Z.Z.D.D.D.D.Z.Z.Z.Z.Z.Z.Z.Z.Z.R.R.R.R.R.R.R.R.T.W.~.~.~.~.].].[.[.oXoXXXXXXX#X#X#X$X$X$X$X*X*X=X6X5X8X0XyXtXsXaXaXdXdXhXhXhXhXkXkXkXkXkXkXkXkXkXkXvXvXkXkXkXkXkXkXkXkXkXjXjXjXjXjXjXhXxXdXdXdXgXsXtXrXrXrXrX7X7X7X7X4X2X2X2X2X1X=X*X%X#X#X#XXXXX.X.X{.[.[.[.~.W.T.R.K.F.S.S.S.B.M.B.B.B.S.C.J.K.K.K.S.M.n.f.i.i.0.9.9.#.=.*.*.*.*.@.@.@.O.O.O.O.O.O.O.O.O.o.o.O.X.O.O.@.-.u.s.g.a.e.5.5.5.5.z.$XzXzX8Xz.u.:.&.o.[ ] ] } ] ] [ $.<.z.,XkXBXBXCXiX).$.+.=.=.=.=.=.O.O.o.} ' $.$XjXAXZXHXAXCXvX(.$.+.[ { [ ' [ [ { { [ $.<.qXMXAXAXmX$X/.z.$.+.@.@.@.@.@.@.@.@.@.@.@.@.@.#.#.=.=.6.9.9.0.t.t.y.t.i.s.s.s.c.c.x.c.n.N.m.m.A.Z.Z.Z.Y.Y.T.!.^.^.^.oXoXoX#X#X#X*X*X1X2X2X4X4X7X8X7X0X0X9XrXiXaXdXdXdXhXhXhXhXhXhXhXhXhXhXhXhXhXhXhXhXhXhXhXhXlXhXhXdXiX4X1X9XZXFXVXVXCXCXnXlXkXNXZXZXHXMXtX3X*X2X",
"9.0.w.w.0.y.y.y.i.s.c.c.c.c.A.A.A.Z././.R.R.R.Q.Y. XeXtXoX5.}.}.{..X+XOXOX-XeXjXCXGXGXGXGXGXFXDXAXAXCXCXZXZXDXDXDXDXDXZXmXzXfXqX0XmXHXFXFXFXFXHXHXHXHXDXDXDXDXDXDXDXDXZXZXBXBXBXBXbXbXvXkXkXhXjXgXaXrXrXyX9X7X4X6X6X1X$X#X#XXX X.X[.[.^.~.~.W.T.R.Y.Y.Z.Z.A.A.A.m.c.m.x.x.s.s.t.t.9.0.9.-.-.;.=.;.;.=.=.=.=.=.=.=.9.w.q.q.w.6.=.*.@.O.X.[ [ [ [ ] ] ] ] ] ] ] ] ] ] ] ] ] ) ) ) ] ] { o.O.;.-.*.O.O.[ ` / / / / / ^ / ^ ~ ~ ~ ~ ~ ~ ~ ~ ~ ~ ~ ~ ~ ~ ~ ~ ~ / / / / ] o.%.;.-.-.-.O.X.' ` ` ` ] ` ` ` ] ] ] [ [ [ [ [ [ o.o.o.o.o.O.O.@.*.-.-.#.#.9.9.t.s.c.x.x.c.m.m.m.m.A.A.C.D.Z.Z.G.Y.Y.!.!.[.oXoXXX#X;X*X4X4X7X7X0XiXaXdXdXhXhXhXjXkXvXnXvXvXvXMXMXCXCXZXZXZXDXDXDXDXDXDXFXFXFXFXFXFXFXFXFXFXDXDXDXFXDXDXDXDXDXDXDXDXDXZXZXZXZXZXZXZXZXZXZXVXBXBXbXbXbXvXvXvXvXvXkXkXjXdXdXdXsX9X9X9X7X4X4X6X1X*X*X#XXX.X.XoX[.[.[.^.^.^.~.~.~.~.~.~.T.Y.Y.Y.R.R.Y.Z.Z.Z.Z.C.Z.Z.C.C.C.D.Z.Z.Z.Z.Z.Z.Z.Z.J.Z.Z.Z.J.J.R.R.R.Y.T.T.T.T.~.~.~.'.'.[.[.oXoXoXXXXXXX#X#X#X$X$X$X$X*X*X1X2X4X8X9XyXtXsXaXaXdXdXhXhXhXhXlXkXkXkXkXkXkXkXkXkXvXvXkXkXkXkXkXkXkXkXjXjXjXjXjXjXfXfXdXdXdXdXgXsXtXrXrXyXyX7X7X7X4X4X2X2X2X2X1X=X*X%X#X#X#XXXXX.X.X{.[.[.].~.W.T.R.R.J.G.H.S.S.B.B.B.S.S.G.J.K.K.J.S.M.n.f.i.i.0.9.9.=.=.*.*.*.*.@.@.@.O.O.O.O.O.O.O.O.O.o.o.O.O.O.O.#.-.u.s.s.i.i.f.^.wXuX8XmXHXHXNX5Xz.u.:.&.o.{ { { { [ +.<.z.hXAXGXFXGXGXZXkX).$.=.w.6.=.=.*.O.o.X.$.).zXAXGXFXJXJXGXDXbX).$.[ { [ [ [ { { { $.<.9XbXDXGXFXZXiXeX3Xz.+.@.@.@.@.@.@.@.@.@.@.@.@.@.#.=.#.=.9.9.9.9.0.t.t.t.i.s.s.s.c.c.x.c.m.N.m.m.A.Z.Z.Z.Y.Y./.!.^.^.^.^.oX XXX#X#X#X*X*X1X6X6X6X4X7X7X7X7X0X9X9XiXiXgXgXgXgXxXdXhXhXhXhXhXhXhXhXhXhXhXhXhXhXhXhXhXhXhXdX9X6X@X@XmXbXvXzXkXzXfXsXfXzXNXvXmXjX@X!.!.!.",
"9.9.9.w.0.y.y.y.y.s.c.c.c.c.A.A.A.Z.Z.R.R.R.R.R./.oX3X5XuX^.~.}.+XOXOX;X;X2XeXfXmXnXnXZXGXHXDXVXZXZXZXZXZXZXZXZXCXCXCXCXNXzXaX).xXmXDXFXFXFXDXDXDXDXDXDXDXDXPXZXZXZXZXVXCXBXBXBXbXbXbXvXkXlXhXxXgXaXrXtXyX8X5X6X6X6X6X$X#X#XXX X.X[.[.^.^.~.Q.T.R.Y.Z.Z.Z.C.m.m.A.m.c.c.c.c.s.i.y.t.0.9.-.-.-.-.=.=.=.=.=.=.=.=.=.9.w.w.q.w.6.=.@.O.O.X.X.[ [ [ [ ] ] ] ] ` ` ` ] ] ] ` ] / / / ) ] [ +.O.;.;.*.@.O.[ ` ` / / / / ^ ^ ^ ~ ~ ~ ~ ~ ~ ~ ~ ~ ~ ~ ~ ~ ~ ~ ~ / / / ~ / ` X.+.;.;.-.;.O.X.[ ` ` ` ] ] ] ` ] ] [ [ [ [ [ [ [ X.o.o.O.O.O.O.O.@.*.#.#.#.u.u.t.f.c.c.x.m.m.m.m.m.A.A.C.S.Z.Z.J.F.W.~._.].(.#XXXXX;X*XqX7X7X7X7X9XaXdXdXhXhXhXjXjXkXnXvXvXnXnXMXBXCXZXZXZXZXZXDXDXDXDXFXFXFXFXFXFXFXFXDXDXFXFXDXDXHXHXHXDXDXDXDXDXZXZXAXZXZXZXZXZXZXZXVXVXBXBXbXbXbXvXvXvXvXvXkXkXjXhXdXdXaXsX9X9X8X6XqX6X1X*X%X#XXX.X{.{.+X+XoXoXoX[.!.!.!.!.~.~.T.Y.Y.Y.R.R.J.R./.R.H.M.m.A.M.C.H.Z.Y./.Z.Z.Z.Z.Z.Z.F.F.F.G.G.C.P.Z.F.Z.!.!.T.W.^.^.].'.'.[.[.oXoXXXXXXX#X#X#X#X$X*X*X*X*X1X1X2X4X7X0X9XtXaXsXaXgXgXxXhXhXhXhXhXlXlXkXkXkXkXkXkXkXkXkXkXkXkXkXkXkXkXjXjXjXjXjXhXfXdXdXdXdXdXaXtXtXrXyXeX0X7X7X7X7X4X2X2X2X1X1X=X*X%X#X#X#XOXOX+X{.[.[.[.].~.W.T.W.E.F.G.G.H.S.C.C.H.H.J.G.J.J.K.H.S.M.n.f.i.i.0.9.9.=.=.*.*.*.@.@.@.@.@.O.O.O.O.O.O.O.O.O.O.O.O.O.@.#.9.i.f.x.s.i.P.fXCXHXGXJXJXJXHXMX).b.u.>.o.o.o.&.o.X.$.>XmXFXJXJXJXJXJXLXDXjXz.s.h.9.-.=.*.*.*.#.<.qXHXJXJXJXJXJXJXKXJXiX<.[ { [ [ } } } [ ' ).BXKXJXJXJXFXnXNXzX X$.X.@.@.@.@.@.@.@.@.@.@.@.=.=.=.#.=.9.9.9.9.t.t.t.t.s.s.s.c.x.x.x.x.c.n.m.m.A.C.Z.Z.Y.Y.Y.~.!.^.^.^.oX XoX X#X#X*X*X1X6X6X6XqX4X7X7X7X0X9X9XaXaXaXaXaXgXdXdXxXdXdXdXhXhXhXhXhXhXhXhXhXhXhXhXhXhXdXiX8X*X!.!. XwX&X&X&X&X!.Y.P.P.A.A.A.z.z.z.z.f.",
"9.9.9.9.9.0.y.y.y.s.c.c.c.c.m.m.A.A.D.D.D.Z.J.R.Y.oX3X3XoX^.^.oXOX-X-X-X2XwXuXsXzXvXvXCXCXZXBXVXZXZXZXZXVXVXZXCXMXMXCXCXMXmXzXcXhXmXZXDXFXFXDXDXDXDXDXDXDXDXPXZXZXZXZXZXVXBXBXBXbXbXbXvXkXlXxXxXgXaXrXtXtX8X8X4X6X6X1X$X#X#XXX X.X[.[.^.^.~.Q.T.R.Y.Z.Z.Z.A.A.m.m.m.c.c.c.c.s.t.t.t.0.9.-.-.-.-.=.=.=.=.=.;.=.=.=.9.w.q.h.w.6.=.@.@.O.X.X.[ [ [ [ ] ] ] ] ] ` ` ` ] ` ` ` ` ] / ) ] [ +.O.*.;.*.@.O.X.' ` ` / / / / ^ ^ ~ ~ ~ ~ ~ ~ ~ ~ ~ ~ ~ ~ ~ ~ ~ ~ / / / / / ` [ +.;.;.-.;.@.O.X.' ` ` ] ] ` ` ] ] [ [ [ [ [ [ X.X.X.o.o.O.O.O.O.@.@.#.#.#.9.u.t.f.c.c.c.m.m.A.A.A.A.A.C.C.Z.Z.G.F.}.^.T.!.^.#XXXXX#X*XqXqX7X7X0X9XaXaXgXxXhXhXjXhXkXkXvXvXnXbXMXBXCXCXZXZXZXZXZXDXDXDXFXFXFXFXFXFXFXFXFXDXFXFXDXDXHXHXDXDXDXDXDXDXZXZXAXAXZXZXZXZXZXZXZXBXBXBXbXbXbXvXvXvXvXvXvXkXlXhXhXdXdXaXaX9X9X4X6X6X1X*X%X#XXX.X.X{.[.[.^.^.^.^.oXoX^.!.!.~.T.T.Y.Y.R.Y.J.Y.R.~.J.f.T.Y.A.P.G.G././.Z.Z.Z.Z.J.F.F.F.F.G.G.F.!.!.!. X X!.~.~.^.^.[.].[.[.[.oX.XXXXXXX#X#X#X#X$X$X*X1X*X1X1X2X4X7X0X9XtXaXsXaXgXgXxXhXhXhXhXlXlXlXkXkXkXkXkXkXkXkXjXjXkXkXkXkXkXjXjXjXjXjXjXhXdXdXdXdXdXdXaXsXtXrXyXeX0X7X7X4X4X4X2X2X2X1X2X=X*X%X#X#X#XXX+X.X{.{.[.[.].~.W.W.W.E.J.F.F.G.G.C.C.H.J.J.J.J.J.K.J.S.M.n.f.i.i.0.9.9.9.=.=.*.=.@.@.@.@.@.O.O.O.O.O.O.O.O.O.O.O.O.O.@.#.5.f.c.x.c.f.!.AXKXKXKXKXKXKXJXGXcXU.u.-.O.o.o. .o.X.$.qXVXKXKXKXKXJXKXKXLXAX(.u.w.y.9.=.;.*.@.+.).vXKXJXJXKXKXKXKXKXJXvX).' { [ [ } } } X.5.@XFXKXKXJXKXJXGXHXNX0X$.@.@.@.@.@.@.@.@.@.@.@.@.*.=.=.#.-.9.9.9.0.t.t.t.t.s.s.s.c.x.x.x.x.c.n.m.m.A.C.Z.Z.Z.Y./.!.!.!.^.^.oXoXoX X@X#X*X*X*X1X1X1XqX7X7X7X7X7X0X9XaXaXaXaXaXaXaXgXgXdXdXdXhXhXhXhXhXhXhXhXhXhXdXdXdXdXdX9X5X X!.!.!.z.z.z.z.z.f.c.N.n.x.s.p.i.y.t.t.t.",
"9.9.9.9.9.9.9.y.i.s.c.c.c.c.c.m.A.A.D.D.D.D.D.J.F.{.3X-XF.K.S.}.3XwXwXwXwXwXwXuXsXmXmXvXnXnXbXBXBXBXBXBXVXZXZXZXCXCXZXZXZXvXmXfXhXmXZXDXFXFXDXDXDXDXDXDXDXDXDXDXZXZXZXZXZXBXBXBXbXbXbXvXkXlXxXxXgXgXaXaXaXiX0X0X0X0XqX1X$X#XXXoX.X[.[.^.^.~.W.T.Y.Y.Y.Z.Z.C.m.m.m.m.c.c.c.c.s.t.t.t.0.9.9.9.-.-.-.-.-.-.-.-.=.9.9.9.q.q.q.q.9.=.@.O.O.X.X.[ [ [ [ ] ] ] ] ] ] ] ] ] ] ` ` ` ` / ) ] [ +.O.*.;.*.@.O.X.' ` ` / / / / ~ ~ ~ ~ ~ ~ / / ~ ~ ~ ~ / / ~ ~ ~ ~ / / / / / ` [ o.*.-.-.9.=.O.X.' ` ] ] ] ] ] ] [ [ [ [ [ [ [ o.o.o.o.O.O.O.O.@.@.@.=.#.#.9.0.t.f.c.c.c.m.A.A.A.A.A.C.Z.Z.Z.Z.G.F.T.).!.!.oXoXoXXX#X$X6X4X4X4X0X9XaXaXgXxXxXhXxXhXlXkXnXnXnXnXMXMXBXCXCXZXZXAXZXZXDXDXFXFXFXFXFXFXFXGXFXFXFXFXFXDXHXHXDXDXDXDXDXDXHXHXDXDXHXHXHXDXZXZXZXBXBXBXbXbXbXvXvXvXvXvXvXvXbXbXvXnXlXxXgXiX0X7X5X6X=X*X%X%XXXXXXXXXXXoX!.!.!.!.(.(.^.!.!.~.T.T.R.R.E.K.F.F.G.F.T.).). X!.[.Y.Z.D.D.Z.F.J.J.F.J.F.J.J.F.Y.!. XqXfXsX5X#X!.!.^.^.'.'.'.[.oX.X.XXXXXXX#X#X#X$X$X$X1X1X1X1X1X2X4X7X7X9XtXaXsXaXaXgXxXhXhXhXhXhXhXhXkXkXkXkXkXkXjXjXjXjXkXkXkXkXjXjXjXjXjXjXjXhXhXdXdXdXdXdXaXsXrXrXeXyX7X7X7X4X4X4X4X4X2X1X-X=X*X%X#X#X#XXX+X.X{.{.[.[.].~.W.W.W.R.Y.F.F.F.G.G.G.J.J.J.F.J.E.K.J.C.M.n.f.i.5.5.9.9.9.=.=.;.;.*.*.*.*.@.@.@.@.@.O.O.O.O.O.O.O.O.@.#.9.f.c.c.d.c.Y.5XAXJXKXKXKXKXKXJXJXpXU.u.-.O.o.&.&.&.O.$.hXFXLXJXKXKXKXKXJXLXJXiX$.w.q.7.=.;.*.@.' 6XHXKXJXKXKXKXKXKXKXLXAX(.$.{ X.X.} }  .X.z.fXFXKXJXJXKXKXKXJXHXhXz.#.@.@.@.@.@.@.*.*.*.*.=.=.-.-.-.-.0.0.9.0.t.t.t.i.s.f.s.s.x.x.x.x.c.m.m.m.A.C.C.Z.Z.Y.Y.~.!.!.!.^.[..X X X X@X#X*X*X1X1X1XqX7X7X7X7X7X0X0XtXrXaXaXaXaXaXgXdXdXdXdXhXhXhXhXhXhXhXhXhXdXdXdXdXdXaX9X5XXX!.Y.^./.c.c.c.c.c.c.x.s.f.s.i.t.t.t.t.t.",
"=.=.9.9.9.9.0.y.y.s.c.c.c.c.c.c.A.A.D.D.D.D.D.G.G.|.-X-XQ.B.5.}.eXtXeXeXwXwXwXuXrXzXzXjXpXlXvXbXbXbXBXBXVXBXDXVXCXCXZXZXHXbXjXaXhXmXZXDXFXFXFXDXDXDXDXDXDXDXDXDXPXPXPXZXVXBXBXBXbXbXbXvXkXlXhXxXgXaXgXgXgXpXpXpXhXhXdXiXqX@X@XoX.X[.[.^.^.~.Q.T.Y.Y.F.Z.Z.C.A.m.m.m.c.c.c.c.s.t.t.t.9.9.9.9.-.-.-.-.-.-.9.9.9.9.9.9.q.q.q.q.9.=.@.O.O.o.X.[ [ [ [ ] ] ] ] ] ] ] ] ] ` ` ` ` ` / ) ] [ +.O.;.;.*.@.O.X.' ` ` ` / / / / ~ ~ ~ ~ ~ / / ~ ~ / / / / ~ ~ ~ ~ / / / / / ` [ o.&.-.-.9.=.@.X.[ ' ] ] ] ] ] ] [ [ [ [ [ [ [ o.o.o.o.O.O.O.O.@.@.@.@.#.#.#.0.u.t.c.c.c.m.A.A.A.A.C.C.Z.Z.Z.S.G.Y.).(.1X5X X#X#X$X$X1X1X6X1X4X7X7X0XaXgXgXxXxXxXlXvXnXbXnXbXbXCXCXBXBXCXCXCXCXZXZXDXDXFXFXLXLXLXLXLXGXGXFXFXFXFXFXHXDXDXDXDXDXDXDXFXGXGXGXGXGXGXHXDXZXCXBXBXBXbXbXbXvXvXvXvXvXbXCXZXZXDXZXnXlXxXaX0X0X4X2X=X%X%X%X XXXXX@X XcXqX9XiX9X0XqX(.!.^.~.T.T.Y.E.K.K.Y.Y.G.P.).qXzXzXfXyXoXR.D.D.Z.Z.J.J.R.J.J.J.D.R.!. XNXCXCXNXdXqXXX!.^.^.[.'.[.[.oXoXXXoXXXXX#X#X#X$X*X$X1X*X1X1X1X4X4X7X7X9XtXaXsXaXaXgXdXhXhXhXhXhXhXhXlXkXkXkXkXkXjXjXjXjXkXkXkXkXhXhXxXxXxXxXdXdXdXdXdXdXdXdXaXaXrXrXyX7X7X7X4X4X4X2X2X2X2X1X2X=X*X%X#X#XXXXX+X.X{.{.[.[.].~.W.T.T.R.E.Y.K.F.F.F.F.F.Y.Y.R.E.E.K.J.M.m.n.f.i.5.0.9.9.9.=.=.;.;.*.*.@.@.@.@.@.@.@.@.@.O.O.%.%.O.O.@.#.0.c.c.N.k.P.-XzXCXLXKXKXKXKXKXJXJXlXU.u.-.O.o.&.&.&.=.<.mXGXGXLXKXKXKXKXJXLXJXCXz.q.8.7.6.;.*.:.$.9XHXJXKXKXKXKXKXKXLXGXAX,X$.o.X.X.| }  .X.).NXHXJXJXJXKXKXKXKXJXNXz.9.=.@.@.@.@.@.*.*.*.*.=.=.=.-.-.9.9.9.0.0.t.t.t.s.s.f.s.s.x.x.x.x.c.m.m.m.A.A.C.Z.Z.Y././.!.!.~.^.[.oX X XXX#X@X*X*X1X1X1XqXqX4X7X7X7X7X7XrX9XrXrXrXrXaXaXgXgXgXgXdXdXdXdXdXdXdXdXdXdXaXaXgXdXaX9X3XXX!.!.^.A.c.c.c.c.c.c.s.s.s.i.i.t.t.0.0.0.",
"=.9.9.9.9.9.9.y.u.s.s.c.c.c.c.c.c.A.A.A.D.D.S.C.N.I.|.!.oXA.z.'.8XdXdX7X4XuXwXeXeXtXfXgXdXdXhXlXvXvXbXbXVXVXPXDXZXVXVXDXHXBXkXxXxXvXVXPXFXFXDXDXDXDXPXPXPXPXDXPXPXPXFXDXZXVXBXBXbXbXvXvXkXlXhXhXgXgXzXpXpXlXCXAXZXAXvXiX0X1X@XXX X[.[.^.^.~.Q.T.R.Y.Y.Z.Z.C.A.m.m.m.m.c.x.c.s.i.t.u.9.9.-.-.-.-.9.9.9.9.9.9.9.9.9.0.y.y.y.q.w.=.@.@.O.o.X.[ [ [ [ [ ] ] ] ] ] ] ] ] ` ` ` ` ] ] ] ] } o.&.-.;.-.@.O.X.[ ` ] ` / / / / / / / ~ ~ ~ ~ ~ ~ / / / / / / / / / / / / / ] [ X.@.*.-.-.-.*.O.X.' ' ] ] ` ` ' [ [ [ [ [ [ [ X.o.o.O.O.O.O.O.O.@.@.@.#.#.#.9.u.t.c.c.c.m.A.A.C.C.C.C.D.Z.D.Z.F.!.(.hXNXNX9X9X9X9XqX6X@X1X4X4X7X0X9XiXiXpXlXlXmXMXCXCXZXZXCXBXBXbXBXbXMXMXCXCXZXZXDXDXFXFXJXJXJXJXJXJXLXGXGXGXFXFXDXDXDXDXDXDXDXFXGXJXJXKXLXJXGXGXFXZXZXBXBXbXbXbXbXbXvXbXbXMXCXHXFXGXJXFXZXCXnXpX0X7X4X3X-X%X*X;X@X@X;XcXpXbXZXZXZXZXZXmX6XoX^.!.T.T.R.E.Y.T.T.!.'. XfXAXAXAXAXzX6X^.H.D.J.R.R.R.R.R.R.R./.^.@XmXHXGXLXFXbXiX*X'.[.[.[.[.[..XoXoXXXXXXXXX#X#X#X$X$X1X1X1X1X1X1X6XqX7X7X0X9X9XsXiXaXiXdXdXdXdXhXhXhXhXhXhXhXhXjXjXkXkXhXjXjXjXjXjXhXhXhXhXhXhXhXdXhXdXdXdXdXaXsXsXyXyXeX7X7X4X4X5X4X4X2X2X2X1X-X=X*X%X%X#XXXXX+X.X{.[.[.[.].~.W.T.T.T.T.R.R.E.E.Y.E.Y.R.R.E.E.E.J.J.M.M.n.d.i.i.0.9.9.9.=.-.=.;.=.*.*.@.@.@.@.@.@.@.@.*.*.*.*.*.@.@.#.u.s.c.N.k.G.6XmXHXLXKXKXKXKXKXJXJXCX/.u.O.O.o.o.&.&.;.<.mXJXGXLXKXKXKXKXJXJXKXHXz.#.0.7.8.;.*.:.$.dXHXJXKXKXKXKXKXJXLXFXHXjX<.+.+.+.$.X.o.+.6XNXZXGXJXKXKXKXKXKXKXvX^.6.O.@.*.*.#.#.@.@.=.#.=.#.-.-.-.9.0.9.0.t.t.t.t.s.s.s.f.s.x.x.x.x.c.m.m.m.m.A.C.C.Z.Y.Y./.!.!.~.~.^.[.oX XXXXX#X$X*X1X1X1XqXqX4X7X7X7X0X7X7X0XrXrXrXyXtXaXaXaXaXaXdXdXdXdXdXdXaXaXaXaXsXaXaXaXaXtX5XXX[.^.^.A.c.c.s.c.c.c.s.i.i.y.y.y.0.9.9.9.",
"=.=.9.9.9.0.u.y.u.i.s.c.c.c.c.c.c.m.A.A.A.D.D.M.k.G.`.T.-XU.z. XtXzXfXyXcXtXeXtX4XwXtXsXdXdXdXdXhXkXvXbXVXPXFXFXDXDXFXFXFXVXvXlXxXvXBXPXFXFXDXZXZXDXDXDXPXPXGXGXGXLXGXFXDXVXBXBXbXbXvXkXlXhXhXhXgXxXkXxXMXZXGXJXFXGXCXlXiXqX$X#X X.X[.^.^.~.Q.T.R.Y.Y.Z.Z.C.C.m.m.m.m.c.x.c.s.s.t.u.9.0.9.-.9.-.9.9.9.9.9.9.9.w.0.0.y.y.y.q.w.-.*.O.O.o.X.[ [ [ [ [ ] ] ] ] ] ] ] ] ` ` ` ` ] ` ] ] [ +.%.-.;.=.@.O.X.[ ' ] ` / / / / / / / ~ ~ ~ ~ ~ ~ / / / / / / / / / / / / / ` [ X.+.@.-.-.9.-.@.X.[ ' ' ] [ ] [ [ [ [ [ [ [ [ X.o.o.O.O.O.O.O.O.@.@.@.*.=.#.9.0.t.f.c.c.m.m.A.C.C.C.C.D.D.D.D.F.!.9XmXAXAXbXbXvXvXdXqX*X;X2X4X7X0X0XiXiXpXlXbXCXAXHXGXGXGXDXVXVXBXBXMXMXMXbXBXZXZXDXFXFXLXKXKXKXKXJXJXLXLXLXGXFXHXDXDXZXZXDXDXDXFXLXKXKXKXKXKXJXJXGXDXVXBXbXbXbXbXbXbXbXbXBXZXHXGXJXJXJXLXGXHXBXpXrX7X4X3X-X*X*X;X;X@X@X0XZXJXKXJXKXKXJXHX8XoX^.~.T.T.R.T.Y.T.!.!.@XzXAXHXGXGXHXNXsXXXR.C.J.R.R.R.R.R.Q.Q.Q.).iXHXGXKXKXLXZXjX2X.X{.[.[.{.[..XoX.XXXXXXXXX#X#X#X$X$X1X1X1X1X1X1X6X6X4X7X0X9X9XsXsXaXiXdXdXdXdXhXhXhXhXhXhXhXhXjXjXkXkXlXjXjXjXhXhXhXhXhXhXhXhXdXdXdXdXdXdXdXdXsX9XyX7XeX4X4X4X4X4X4X2X1X2X1X1X-X=X*X%X%X#XXXOX+X.X.X[.[.[.].~.W.T.T.T.T.R.T.R.R.R.T.T.T.T.T.E.E.J.J.M.n.n.d.i.i.0.9.9.9.6.-.=.-.=.=.*.*.*.@.@.@.@.@.@.*.*.*.*.*.@.#.9.i.s.n.N.N.Y.8XCXGXKXKXKXKXKXJXLXGXCXz.:.-.O.o.o.&.&.;.<.hXGXLXJXKXKXKXKXKXKXKXHX).$.5.6.8.w.*.:.$.6XZXKXKXKXKXKXKXJXGXHXHXNX<.+.+.+.$.$.X.$.6XAXHXHXJXKXKXKXKXJXGXhXQ.9.@.@.=.=.=.=.@.@.=.#.#.#.=.-.9.9.0.9.0.t.t.t.t.i.s.s.s.s.x.x.x.x.c.m.m.m.m.A.C.C.Z./.Y.Y.~.~.~.~.^.[.oX XoXXX#X#X*X*X1X1X6XqX4X4X4X7X7X7X7X7X7X0X0XrXtX9XsXaXaXaXsXaXgXgXgXgXaXaXaXsXsX9XaXsXsXtX5XXX[.[.oXA.c.c.s.c.c.s.s.s.i.i.y.t.9.9.9.9.",
"=.=.9.9.9.0.w.y.y.u.s.c.c.c.c.x.c.v.v.v.m.m.D.M.j.L.K.G.R.oXiXvX0XfXfX0XqXfXsXsX1X*X3XeXtXsXdXdXjXkXvXbXVXFXLXJXGXGXLXLXFXZXvXlXxXnXBXVXFXFXDXZXZXPXFXGXGXGXJXJXKXKXKXLXFXZXBXbXbXbXvXlXlXhXhXhXdXhXpXnXHXJXKXKXLXJXGXMXpX0X$X#XoX[.[.^.^.W.Q.T.R.Y.Z.Z.Z.C.C.A.A.m.c.c.x.c.s.s.t.t.t.9.9.9.-.9.9.9.9.9.9.9.0.0.0.0.t.t.t.0.9.-.*.O.O.o.X.[ [ [ [ [ [ [ [ [ [ [ ] ] ] ] ] ] ] ] ] ] { o.O.-.-.=.#.@.O.X.[ ] ] ` / / / / / / / / / / / / / / / / / / / / / / / / / ` ` [ X.@.-.-.9.-.*.O.X.[ ' ' ' [ [ [ [ [ [ [ X.X.X.X.o.O.O.O.O.%.O.@.@.@.*.=.#.9.u.u.s.s.c.c.m.m.C.C.C.C.Z.Z.D.J.F.!.jXZXFXJXJXJXJXFXNXqX;X-X2X2X4X7X7XiXpXxXnXZXHXGXJXJXKXKXJXFXVXVXBXMXmXmXMXBXZXZXDXFXLXJXKXKXKXKXKXKXJXLXJXGXFXHXHXDXZXZXZXDXDXFXJXKXKXKXKXKXKXKXJXDXZXBXbXbXbXvXvXbXbXBXDXFXJXJXJXJXJXJXJXGXAXlXaX0X8X3X-X*X*X*X6X@XqXzXJXKXKXKXKXKXKXHXsX^.!.!.~.W.T.W.T.!. X@XMXGXPXKXJXJXGXZXkX1XT.A.Y.R.R.R.R.R.R.T.^.).AXJXJXJXKXJXGXNXwXOX{.{.[.oX.XoX.X.XXXXXXXXX#X#X#X$X$X*X*X1X1X6X1X6X6XqX7X0XyXtXsXsXaXaXdXdXdXdXhXhXhXhXhXhXjXjXjXjXjXjXjXjXjXjXhXhXhXhXhXhXdXdXdXdXdXdXdXdXaXaXsXtXyX7XeX4X4X4X4X2X2X2X2X2X1X1X-X=X*X%X%X%XOXOX+X.X.X[.[.[.].~.W.W.W.W.W.W.W.W.W.W.W.W.W.W.W.W.E.R.J.M.n.n.d.i.i.0.0.0.9.9.9.9.6.=.=.=.=.=.=.@.*.*.@.*.*.*.*.;.*.*.-.t.s.d.N.L.G.!.7XAXJXKXKXKXKXKXJXLXGXCX<.-.-.O.o.&.&.o.@.5.iXHXKXKXKXJXJXKXKXKXKXAX$X<.5.9.w.w.;.u.:.(.ZXKXKXKXJXKXKXJXGXGXGXNX<.+.+.+.+.+.+.$.(.mXAXHXJXKXKXKXJXHXNX0XA.w.6.@.=.=.=.=.=.=.=.=.=.-.9.9.9.9.0.0.t.t.t.t.t.s.s.s.f.s.x.x.x.x.c.m.m.m.m.A.C.Z.Z.Y.Y./.T.~.~.~.^.[.oX X XXXXX#X%X*X1X1X6XqXqXqXqX4X7X7X0X7X0X0X9X9X9X9X9X9XtXtXtXsXsXsXsXsXsXsXsXtXtX9X9XsXtXtX5XXX^.[.oXY.c.c.s.s.f.f.s.s.i.t.t.0.9.9.9.9.",
"=.=.=.9.-.9.0.y.y.y.i.s.c.x.c.x.v.c.c.v.m.m.m.V.f.B.H.C.z.$XBXGX@XtXsXcXNXAXjXsX*X;X*X3XeXtXdXdXgXjXkXbXDXLXKXKXJXJXKXKXLXDXbXlXxXlXbXBXZXZXZXAXZXZXFXGXJXJXKXKXKXKXKXJXFXZXBXbXbXvXvXlXlXhXhXdXdXjXpXVXGXJXKXKXKXKXJXHXlX0XqX#XXXoX[.[.~.Q.Q.W.R.Y.Y.Z.Z.C.C.A.A.m.m.c.x.c.s.s.t.t.t.0.u.u.9.9.9.9.9.9.0.0.9.9.9.0.t.t.y.0.9.=.@.O.O.o.X.[ [ [ [ [ [ [ [ [ [ [ ] ] ] ] ] ] ] ] ] ] [ o.O.=.-.=.#.@.O.X.[ [ ] ` / / / / / / / / / / / / / / / / / / / / / / / / ` ` ` ' X.O.@.-.-.9.-.@.O.X.' ' [ [ [ [ [ [ [ [ X.X.X.X.X.O.O.O.O.O.O.O.@.@.*.=.#.9.0.u.t.f.x.c.m.N.m.C.C.Z.Z.Z.H.G.Y.$XbXFXKXKXKXKXJXGXHXjX@XwX2X2X4X7X7XrXaXpXbXDXLXKXKXKXKXKXKXJXDXZXBXbXmXmXMXCXBXVXDXFXLXKXKXKXKXKXKXKXJXJXJXGXFXDXDXZXZXZXZXDXDXFXJXKXKXKXKXKXKXKXKXFXZXBXbXbXbXbXbXbXBXVXFXLXJXKXJXJXKXJXJXJXHXnXgX0X8X5X2X*X*X*X2X@XiXHXKXKXKXKXKXKXKXHXdX#X^.!.~.W.T.T.T.!.!.@XGXPXKXLXKXJXJXFXvX8X'.P.Y.R.R.R.R.R.R.W.!.@XHXKXJXJXKXJXLXCXuX-X.X{.oXoXoXoX.X.XXXXXXXXXXX#X#X#X*X*X*X1X1X1X1X6X6XqX7X7XrXyXtXsXiXaXdXdXdXdXhXhXhXhXhXhXjXjXjXjXjXjXjXjXjXjXhXhXhXhXhXhXdXxXxXdXdXdXdXdXaXsXsXyX9X7X7X4X4X4X2X2X2X2X2X2X1X1X-X=X*X%X%X%X#XXX+X.X.X[.[.[.].~.W.W.W.W.W.W.W.W._._.].].].~.].W.Q.R.C.M.n.d.d.i.i.0.0.w.9.9.9.9.6.=.=.=.=.=.=.@.*.*.@.@.*.*.*.*.*.=.9.y.s.d.N.G.T.'.rXAXJXKXKXKXKXKXJXLXGXCXz.@.X.O.o.o.&.o.X.z.qXCXJXKXKXKXKXKXKXKXJXmX5X<.u.u.w.w.=.y.u.z.AXJXJXJXKXKXKXJXGXGXHXNX<.+.+.+.X.+.+.$.<.9XNXAXGXJXKXJXGXAXzX1Xc.q.q.#.=.=.=.=.=.=.=.=.=.-.9.9.9.9.9.0.t.t.t.t.t.s.s.s.f.c.x.x.x.x.c.m.m.m.m.A.C.A.Z./.Y./.T.T.Q.~.^.[.[..X XXXXXXX#X$X*X1X1X6XqXqXqXqX4X4X7X7X7X7X7X7X0X0X9X9X0X0X9X9XtXtXtXtXsXtXtXtXtX9X9X9XtX0X5XXX!.].+XY.c.s.s.f.s.s.f.s.t.t.t.9.9.5.9.9.",
"=.=.=.=.9.9.0.y.y.y.t.s.s.c.c.x.x.c.c.v.v.v.v.x.s.i.V.A.<.iXJXGX).6XtXcXAXAXpXgX@X X@X1X0XsXdXdXgXsXhXvXDXJXKXKXKXKXKXKXJXFXPXSXdXhXbXBXBXMXMXCXCXZXGXLXKXKXKXKXKXKXKXKXGXPXBXBXbXvXlXlXhXhXhXdXdXkXSXKXJXJXKXKXKXKXJXGXvXaXqX;XXX.X[.[.~.Q.Q.T.R./.Z.Z.Z.C.A.A.A.m.c.c.c.c.s.s.i.u.t.0.0.9.0.u.9.9.9.9.9.9.9.0.0.0.y.y.y.w.9.-.@.@.O.o.X.[ [ [ [ [ [ [ [ [ [ [ ] ] ] ] ] ] ] ] ] ] [ o.@.*.=.#.#.@.O.X.[ [ ] ` ] / / / / / / / / / / / / / / / / / / / / / / / ` ` ` ' X.O.@.-.-.9.-.*.O.X.[ [ [ [ [ [ [ [ [ X.X.X.X.X.o.O.O.O.O.O.%.*.@.@.*.*.=.9.0.u.t.i.s.x.n.N.m.C.Z.Z.Z.Z.`.Y.!.9XDXKXKXKXJXGXGXGXGXAXcX;X1X1X4X4X7X0XrXpXbXDXJXKXKXKXKXKXKXJXGXZXBXbXmXmXmXCXBXZXDXFXJXKXKXKXKXKXKXKXKXKXJXGXFXDXDXZXZXZXZXDXFXGXJXKXKXKXKXKXKXKXKXGXZXbXbXbXbXbXbXBXZXDXFXLXJXKXKXKXKXJXJXJXGXbXgX9X8X5X2X*X*X*X-XqXZXKXKXKXKXKXKXJXJXHXmX8XoX~.!.~.W.T.T.T.!.fXZXJXKXKXKXKXKXGXMXyX{.G.E.R.Y.Y.W.W.W.T.Y.tXAXJXGXGXJXKXLXCXgX-X+X{.oXoXoX X.X.XXXXXXXXX#X#X%X#X*X*X*X*X1X1X1X1X1X4X7X7XrXrX9XiXiXiXdXdXgXgXdXdXdXdXdXhXhXhXhXhXjXjXjXjXhXhXhXhXhXhXhXxXdXdXdXdXdXaXiXiXaXsXtX0X7X7X4X4X4X2X2X2X2X2X1X1X1X1X*X*X*X%X%X%X#XXX+X.X.X{.].].].].W.W.W.W.W.W.W.W._.'.'.[.[.[.].W.W.R.C.M.n.d.f.i.i.t.q.w.w.w.9.9.9.9.=.=.=.=.=.=.=.#.@.*.*.*.*.=.=.#.8.e.a.j.H.E..X*X0XMXKXKXKXKXKXKXKXGXKXNXz.O.O.O.O.O.O.O.#.z.(.vXHXKXKXKXKXKXKXKXGXmXoX5.u.0.0.0.0.0.5.<.qXVXDXFXKXKXKXKXJXHXNX(.$.+.+.o.X.o.+.$.<.).iXAXHXGXKXKXLXHXzX XZ.i.0.9.#.=.=.=.=.=.=.=.=.9.9.9.9.9.0.0.t.t.t.i.i.s.s.f.s.s.x.x.x.x.c.m.A.m.A.C.A.Z.Z.R.Y././.Q.Q.~.^.^.[. X X X X X#X#X$X$X1X6X6X6XqXqX4X4X7X7X8X8X7X7X7X7X0X0X0X0X9X9X9X9X9X9XtXtXtXtXtXtXsX9X9X8X5XXX~.~.+XY.c.s.s.f.f.s.s.i.t.t.0.5.9.5.9.5.",
"=.=.=.=.9.9.0.0.y.y.t.s.s.s.x.x.x.x.x.v.x.x.c.x.s.y.B.A.(.BXJXJX9X!.tXjXGXHXCXmX@X X@X1X0XaXpXdXaXaXhXnXGXKXKXKXKXKXKXKXJXLXLXVXdXdXvXbXvXmXMXMXCXZXGXKXKXKXKXJXKXKXKXKXJXFXBXbXvXvXlXlXhXhXxXdXdXhXVXKXJXJXKXKXKXKXKXJXCXxXqX;XXX.X.X[.].W.Q.T.R.R.Z.Z.C.C.C.A.A.m.c.c.c.c.s.s.i.u.t.0.0.0.0.0.9.9.9.9.9.9.0.0.0.0.y.y.y.0.-.*.@.O.O.o.X.X.[ [ [ [ [ [ [ [ [ [ ] ] ] ] ` ] ] ] ] ] [ o.@.*.=.#.#.@.O.X.[ [ ] ` ] / / / / / / / / / / / / / / / / / / / / / ` ` ` ` ' ' X.O.@.=.-.-.-.-.O.O.X.[ [ [ [ [ [ [ X.X.X.X.X.X.o.O.O.O.O.O.*.@.@.@.*.=.=.-.9.t.t.t.s.f.x.n.N.C.Z.Y.Y.F.W.T.!.0XFXKXKXKXGXGXGXGXJXHX0X1X1X1X4X4X7XrXrXpXbXDXJXKXKXKXKXKXKXKXJXDXBXbXvXmXmXBXCXZXDXFXJXKXKXKXKXKXKXKXKXKXJXGXFXDXZXZXZXZXZXZXFXGXJXKXKXKXKXKXKXKXKXJXZXbXnXbXbXbXbXBXBXZXFXFXLXKXKXKXKXKXJXJXGXbXdX9X8X6X2X1X*X*X%XqXFXKXKXKXJXJXJXJXJXGXMX9XXX~.~.~.T.T.T.!.!.jXDXJXKXKXKXKXKXJXCXrX{.F.R.W.W.W.W.W.W.T.P.uXAXJXJXGXJXJXGXCXgX2X&X.XoXoXoX X.X.XXXXXXXXX#X#X%X%X%X*X*X*X1X1X1X1X6X4X7X7XrXrX9X9XsXiXaXdXgXgXdXdXdXdXdXdXhXhXhXhXjXjXjXjXhXhXhXhXhXhXhXxXdXdXdXdXaXiXiXsXsXtXyX9X0X7X4X4X2X2X2X2X2X2X1X1X1X*X*X*X*X%X%X#X#XXX+X.X.X[.].].].]._.W.W.W.W.W.W.W._.'.'.[.[.[.].W.W.J.C.m.n.f.f.i.i.p.q.0.w.w.9.9.9.9.9.=.=.=.=.=.=.=.*.*.=.=.;.=.=.#.8.e.g.V.E.].OX4XdXnXVXKXKXKXJXJXGXHXHXjX<.O.@.#.O.O.O.+.5.z.(.hXHXKXKXKXKXKXKXGXkX$X$.#.0.0.0.0.0.7.6.$.).kXCXHXJXKXKXKXJXZXqXz.$.+.o.o.X.o.+.+.$.<.).9XzXNXAXZXZXNXfX.XC.i.0.9.#.=.=.=.=.=.=.=.=.9.9.9.6.9.0.0.t.t.t.i.i.s.s.f.s.s.x.x.x.x.x.m.m.m.A.C.A.Z.Z.R.Y.R.W.Q.Q.~.^.^.[.oX.X.X X X#X#X$X$X1X1X1X6X6XqXqXqX6X4X7X7X7X7X7X7X7X7X7X7X0X0X9X9X9X9X9XtXtXtXtXtXtX9X9X8X5XXX~.].+XY.c.f.s.f.s.s.i.t.t.0.0.5.5.9.9.9.",
"=.=.=.=.9.9.w.w.0.y.t.t.s.s.c.x.v.x.x.x.x.x.x.x.c.f.D.).iXFXKXGXsX).wXzXAXGXHXNX@X XXX1XyXaXgXgXaXaXpXlXGXKXKXKXKXKXKXKXKXKXLXVXiXdXvXbXvXmXMXMXCXZXGXKXKXKXKXJXKXKXKXKXJXFXVXbXvXlXlXlXhXhXxXdXdXpXZXKXJXJXKXKXKXKXKXJXZXvXrX1X;XXX.X[.[.~.Q.Q.R.R.Z.Z.C.C.A.m.A.m.m.c.x.c.s.s.i.i.t.t.0.0.0.0.9.9.9.9.9.0.t.t.0.t.y.y.y.u.-.*.@.@.O.o.o.o.o.X.X.X.[ [ [ [ [ [ [ [ [ [ [ ] ] ] ] [ [ +.@.*.=.#.#.@.O.X.[ [ ] ] ] ` ) / / / / / / / / / / / / / / / / / ` ` ` ` ` ` ' ` X.O.@.*.-.-.-.;.*.O.X.X.X.[ [ [ X.X.X.X.X.X.X.X.o.o.O.O.O.O.@.@.@.@.*.=.-.-.9.9.t.t.i.f.f.n.N.A.Z.Y.Y.Y.Y.W.'.1XFXKXKXKXLXLXJXKXKXJXjXqX1X-X2X4X7X7XrXpXbXDXJXKXKXKXKXKXKXKXJXDXBXbXvXmXmXCXCXZXFXLXJXKXKXKXKXKXKXKXKXKXJXGXFXDXZXZXZXZXZXZXFXGXJXKXKXKXKXKXKXKXKXJXHXCXbXvXvXbXbXbXBXZXDXFXGXJXJXKXKXKXKXKXGXbXdX9X8X6X2X1X*X*X&X1XZXKXKXJXKXJXJXJXJXGXMX9XXX~.~.~._.W.T.!. XkXFXKXKXKXKXKXKXJXCXiX XT.W.W.W.W.W.W.W.T.P.uXHXKXJXGXGXHXHXCXgX2X-XOXoXoXoXoXXXXXXXXXXXXX%X%X%X%X*X*X*X*X1X1X1X1X2X4X7X7XyXrXyX9XtXsXaXaXaXaXdXdXdXdXdXdXhXhXhXhXjXjXjXjXhXhXhXhXhXdXdXxXdXgXgXaXaXsXsXsXtXyXyXyX0X4X4X4X2X2X2X2X2X2X1X1X*X*X-X*X*X%X%X%X#XXX+X.X{.{.].].].].].]._._._._._._.].].].[.[.[.].W.E.J.C.m.n.d.f.f.i.i.p.q.q.w.0.w.w.9.9.6.6.6.=.=.=.=.=.=.=.=.;.=.=.6.r.a.n.J.]..X3X9XdXlXnXDXJXJXGXHXAXzXqX).$.O.@.-.O.O.O.+.5.A.$XiXHXKXKXKXKXFXZXjX(.$.#.8.0.0.0.t.0.0.6.#.z.!.zXAXGXJXKXJXHXNX!.$.$.+.O.O.X.X.X.+.$.$.<.).#XwXtXtXzXeX+XG.B.f.i.9.6.9.=.=.=.=.6.=.9.9.9.9.9.9.0.0.t.t.t.y.t.s.s.f.f.s.x.x.x.x.x.c.m.m.A.C.A.Z.Z.R.Y.R.W.W.Q.~.^.^.[.[..X.X.X XXX#X#X$X1X1X1X1X6X6X6X6X6X6X5X7X7X7X7X8X7X7X0X0X7X7X9X9X9X9X9XyXtXyX9X9XyX9X9X8X5X@X~.].+X!.c.f.f.i.i.i.i.t.t.0.9.9.9.9.9.9.",
"=.=.=.#.=.9.9.w.0.t.y.t.i.s.s.x.x.x.x.x.x.x.x.x.s.f.D.).vXKXKXZXeX>X XfXAXJXJXCXcX X@XqXaXpXpXpXpXpXpXIXJXKXKXKXKXKXKXKXKXKXLXZXiXdXvXbXvXmXmXbXMXAXGXKXKXKXKXJXJXKXKXKXKXGXZXBXnXvXlXhXhXhXdXgXfXpXDXJXJXJXKXKXKXKXKXKXDXbXdXqX;X@X X X[.~.W.T.R.R.Z.Z.C.C.C.m.A.m.m.c.x.c.s.s.i.i.t.t.0.0.0.0.9.9.9.9.0.0.t.t.t.t.y.y.y.0.-.*.@.@.O.o.o.X.o.X.X.X.X.[ [ [ [ [ [ [ [ [ ] ] ] ] ] [ [ O.@.=.=.#.#.@.O.X.[ [ ] ] ` ` ) / / / / / / / / / / / / / / / / / ` ` ` ` ` ` ' ` [ O.*.*.;.-.;.;.;.O.O.X.X.X.[ [ [ X.X.X.X.X.X.X.o.o.O.O.O.O.@.@.@.@.*.=.-.-.9.0.t.t.t.f.f.x.m.A.Z.Y.T.T.Y.'.'.@XZXJXJXJXKXKXKXKXKXKXkXtX1X*X1X4X7X7XrXpXbXZXLXKXKXKXKXKXKXKXJXDXBXbXvXvXmXMXCXZXDXFXLXKXKXKXKXKXKXKXKXKXJXGXFXDXZXZXAXZXZXZXDXGXJXKXKXKXKXKXKXKXKXJXHXCXvXvXvXvXvXbXCXCXZXHXGXJXJXKXKXKXKXJXFXbXdX0X5X6X2X1X*X*X&X1XCXLXJXJXJXJXJXJXJXGXMX0XXX~.~.~.W.W.!.!. XmXFXKXJXJXKXKXKXGXCXiX@X!.!.~.W.W.W.W.W.T.P.uXAXJXJXGXAXAXAXNXsX4X-X&X#XXXXXoX XXXXXXX#X#X%X%X%X%X*X*X*X*X1X1X1X1X2X4X4X7X7X7X9X9X9X9XsXaXaXaXdXdXdXdXdXdXdXdXhXhXhXhXhXhXhXhXhXhXdXdXdXdXdXgXaXaXsXsXsXsXtXyXyXeX8X4X4X5X2X2X2X2X2X2X1X1X*X*X-X*X*X%X%X%X#XXX+X.X{.{.].].].].].]._._._._._._.].].[.[.[.[.].W.E.J.C.m.n.d.f.f.i.i.p.q.q.w.0.w.w.9.6.6.6.6.=.=.=.=.=.=.=.=.=.=.=.6.e.f.A.T..X%X8XsXiXjXjXhXhXhXpXiX1X).z.$.#.@.O.X.O.O.O.O.i.R.6XpXFXKXKXKXBXvXdX(.z.#.#.6.0.0.0.0.0.0.5.5.f.!.2XgXAXGXJXLXAX0Xz.' O.O.o.O.+.X.X.X.X.$.$.$.$.z.z.P.Z.P.P.k.V.f.i.0.6.9.=.=.=.=.=.=.=.9.9.9.9.9.0.0.t.t.t.y.t.s.s.f.f.s.x.x.x.x.x.c.m.A.A.C.A.Z.Z././.R.W.W.~.~.^.^.'..X.X.X X XXX#X#X#X$X1X1X1X1X6X6X6X6X6XqX4X4X4X7X7X7X7X8X7X7X7X7X9X9X9X9X9X9X9X9X9X9X7X7X8X5X@X!.^.#X!.m.f.f.i.i.i.i.t.t.0.9.9.9.9.9.9.",
"*.*.*.=.=.=.9.9.w.q.y.y.t.s.s.s.s.s.s.s.d.d.d.x.t.f.D.).vXKXLXGXfX>Xz.8XAXJXFXDXjXqX0XpXvXZXHXDXZXCXZXHXJXKXKXKXKXKXKXKXKXKXKXDXiX0XlXCXmXmXmXnXMXAXGXJXKXKXKXKXJXKXKXKXKXLXDXBXnXvXlXhXhXdXdXgXfXcXFXLXJXJXKXKXKXKXKXKXFXZXlXrXqX1X@X X[.'.~.W.R.R.Z.Z.S.C.A.m.m.m.m.m.x.c.c.s.i.i.t.t.t.t.t.t.0.0.0.0.t.t.t.t.t.t.y.y.y.9.-.*.@.O.O.o.X.X.X.X.X.[ X.[ [ [ [ [ [ [ [ [ ' [ ] ] ] [ X.O.@.=.=.#.#.#.@.X.[ [ [ ] ] ) / / / / / / / / / / / / / / / / / ` ` ` ` ` ` ` ` ' ' o.O.-.;.;.;.-.;.@.O.X.X.X.[ [ X.X.X.X.X.X.X.X.o.O.O.O.O.O.@.@.@.@.#.=.-.-.9.0.0.t.t.s.f.x.m.A.Z.Y.T.~.T.'.'.@XvXGXJXJXKXKXKXKXKXJXNXqX1X*X1X1X7X0XrXpXvXZXLXKXKXKXKXKXKXKXJXDXBXbXvXvXmXbXMXCXZXFXLXJXKXKXKXKXKXKXKXKXLXGXFXDXZXZXZXZXZXDXDXGXJXKXKXKXKXKXKXKXKXLXDXBXvXvXvXvXvXnXnXbXZXHXGXJXJXKXKXKXKXJXDXbXdX0X5X3X3X=X*X*X-X1XhXZXGXJXJXJXJXJXJXGXNX0X#X.X^.~.~.~.!.!.(.iXHXJXGXJXKXKXJXHXAXgX$XXX!.~.~.W.W.W.W.~.T.@XAXAXbXvXxXaXmXkXsX1X1X-X=X=X#X#X#X#X#X#X#X#X#X#X#X*X*X*X*X*X1X6X6X6X2X4X4X7X7X7X9X9X9X9XiXiXiXiXaXaXdXdXdXdXdXdXdXdXhXhXhXhXhXhXhXhXdXdXdXdXdXgXaXaXsXsXsX9X9X9X0X8X4X5X5X2X2X2X2X2X1X1X*X1X*X*X*X*X%X%X%X%X#X#XXX.X.X{.].].].].].].]._._._.'.].].{.[.[.}.[.].W.E.J.C.M.m.f.d.f.f.i.p.y.q.q.0.0.w.w.6.6.6.6.6.=.=.=.=.=.=.=.;.=.=.7.i.A.T.XX*X4XsXdXhXdX9X6X!.Y.A.z.:.:.#.O.@.@.O.O.O.@.#.#.f.~.6XvXFXLXPXSXqX!.z.5.O.%.=.9.0.t.0.0.0.9.9.5.i.F. X7XlXCXPXBXpX(.z.#.O.O.O.O.O.+.O.O.o.o.+.+.$.5.5.5.A.A.M.L.V.f.i.0.6.9.=.=.=.=.9.9.9.9.w.w.9.9.0.0.t.t.t.y.t.i.s.f.f.s.x.x.x.x.x.c.m.m.A.C.A.A.Z.Z.Y./.Q.W.T.~.~.^.^.[.[..X.X.XXXXX#X#X$X$X*X1X1X1X6X6X6X6X6X6X6X5X5X4X8X8X8X8X8X8X8X8X8X8X8X8X8X9X9X9X7X7X7X8X4X@X^.^.*X XA.f.s.f.s.i.s.t.t.0.9.9.9.9.6.6.",
"*.*.*.*.=.=.6.9.w.q.y.y.y.t.y.s.s.f.s.s.s.s.s.s.t.f.D.z.iXJXJXHXfX>X! $XhXVXPXDXvXiXvXMXHXFXJXLXHXHXHXGXJXKXKXKXKXKXKXKXKXKXKXDXgX0XvXCXvXnXnXnXnXAXFXKXKXKXKXKXJXKXKXKXKXLXDXBXbXlXlXhXhXdXgXgXdXpXDXLXJXJXKXKXKXKXKXKXLXDXbXxX0X4X1X@X X'.~.W.R.R.Z.Z.S.C.A.m.m.m.m.c.x.c.c.s.i.i.t.t.t.t.t.t.9.0.0.0.t.t.t.t.t.t.y.y.u.-.=.*.@.O.O.o.X.X.X.X.X.[ X.[ [ [ [ [ [ [ [ [ [ ' ] ] ] [ X.O.@.=.=.#.#.#.@.X.[ [ [ ] ] / / / / / / / / / / / / / / / / / ` ` ` ` ` ` ` ` ` ` ' X.+.*.-.;.-.-.-.=.@.X.X.X.[ [ X.X.X.X.X.X.X.X.o.O.O.O.O.O.@.@.@.@.#.=.;.-.9.9.0.t.t.s.f.x.m.A.Z.Y.T.!.!.'.{.@XiXCXGXFXJXJXKXKXKXJXzXqX1X*X1X1X4X7XrXxXvXZXGXKXKXKXKXKXKXJXFXZXBXbXvXvXvXvXbXCXZXDXFXLXKXKXKXKXKXKXKXKXLXFXDXDXZXZXZXZXZXZXFXFXLXKXKXKXKXKXKXKXKXFXZXbXvXvXvXvXkXkXnXnXMXZXGXGXLXJXKXKXJXGXDXbXfX0X5X3X3X=X*X%X-X6XiXmXDXLXJXJXJXJXJXHXvX7X&X+X^.^.].~.!.^.!.1XmXHXGXGXJXGXHXAXjX7X*XXX~.!.~.W.W.W.~.~.~.!.cXjXfXdXtXrXfXsX7X1X6X1X=X=X=X*X$X#X#X#X#X#X$X$X$X$X*X*X*X*X1X6X6X6X6X4X4X4X7X7X0X9X9X9X9XiXiXiXaXaXaXaXdXdXdXdXxXxXdXdXdXdXhXhXhXhXdXdXdXdXdXgXaXaXsXsXiX9X9X9X0X8X5X4X5X2X2X2X2X2X1X1X*X1X*X*X*X*X%X%X%X%X#X#XXX.X.X{.{.].].].].].]._.].].].].[.{.{.[.}.[.].W.R.F.C.M.n.x.d.d.f.i.p.t.y.q.0.0.0.w.6.6.6.6.9.6.=.;.=.=.=.=.;.=.6.i.c.F.oX=XyXgXhXhXhX9X=XoXM.a.6.=.%.%.%.O.O.O.O.O.O.O.@.-.A.(.iXBXFXFXbXpX$XY.5.#.O.%.*.-.0.0.0.0.0.9.9.5.i.G. X4XjXCXVXBXiX(.f.#.O.O.O.O.O.O.O.O.O.o.o.+.@.#.6.5.c.m.M.B.M.d.i.0.6.9.9.=.#.=.9.9.9.9.w.w.9.w.0.0.t.t.t.y.t.i.s.f.f.s.x.x.x.x.x.c.m.m.A.C.A.A.Z.Z.Y.R.Q.W.T.T.^.~.^.[.[..X.X XXXXX#X#X#X$X$X$X*X*X1X1X1X1X6X6X6X6XqXqX4X4X5X5X4X4X8X8X8X8X8X8X8X9X8X8X7X7X7X7X4X1XXXoX6X XP.f.f.f.s.t.s.t.0.9.9.5.9.6.6.6.",
"@.@.@.@.*.=.=.9.w.w.y.y.y.y.t.i.s.s.t.t.y.y.i.y.t.t.x.z.).BXKXFXjX4.<.).iXpXGXZXkXaXNXAXHXFXGXLXFXFXGXLXJXKXKXKXKXKXKXKXKXKXKXHXdXqXvXbXnXnXnXnXnXVXFXKXKXKXKXJXKXKXKXKXKXLXDXVXbXnXlXlXdXgXaXaXdXpXZXJXJXJXKXKXKXKXKXKXLXFXBXlXgXrX4X;X X'.'.W.Y.F.Z.Z.S.C.A.A.m.m.c.c.x.c.c.s.s.i.t.t.t.t.t.t.9.9.0.0.t.t.t.t.t.t.y.y.y.9.-.*.@.O.O.o.o.o.o.X.o.X.X.[ [ [ [ [ [ [ [ [ [ [ [ [ ] [ X.O.@.=.=.#.=.=.@.O.X.[ [ ] ] ] ] ) / ] / / / / / / ) ) ` / ` ` ` ` ` ` ` ` ` ` ` ` ' [ o.O.-.;.-.-.-.;.@.O.O.X.X.[ [ X.X.X.X.X.X.X.o.O.O.O.O.O.O.@.@.@.=.=.-.-.9.9.0.t.t.s.f.x.m.A.Z.Y.W.~.'. XXX;XqXjXAXZXHXHXFXFXGXHXfX@X*X*X*X1X4X7XrXxXvXZXGXKXKXKXKXKXKXJXDXBXBXbXvXvXvXvXvXbXBXZXDXGXJXKXKXKXKXKXKXJXLXFXDXZXZXZXBXVXZXDXDXFXGXJXKXKXJXKXKXKXJXFXVXbXvXkXkXkXkXkXkXkXnXCXHXGXGXLXKXKXLXFXDXbXfX0X5X3X3X*X%X%X-X1XqXxXbXDXFXGXGXGXGXHXkX7X&X+X^.[.'.~.^.^.Q.~.6XzXCXZXZXCXmXzXrX4X*XXX!.!.~.W.W.W.~.~.~.T.!.%X-X3X3X5X8X8X4XqX6X6X6X1X1X=X=X*X#X*X#X#X$X$X$X$X*X*X*X*X1X6X6X6X6X6X4X4X4X7X7X7X0X0X9XiXiXiXiXaXaXaXdXdXdXdXxXxXdXdXdXdXdXdXdXdXdXdXdXaXaXaXaXaXiX9X9X9X0X7X0X7X5X4X4X2X2X1X-X-X1X1X*X*X*X*X*X*X%X%X%X%X#X#XXX.X.X{.{.].].].].].].].].].].[.{.{.}.{.[.[.].W.Y.G.C.M.m.x.d.d.f.i.p.t.y.y.q.0.q.0.0.6.w.w.6.6.6.6.;.;.=.=.=.=.w.d.Z.~.&XeXgXxXnXvXiX8XoXG.i.6.#.#.@.@.@.@.O.O.O.O.O.O.@.u./.1XkXDXFXZXlX7XoXZ.5.+.O.@.=.=.w.0.0.0.0.9.w.0.i.F. XqXhXbXVXbX9X^.c.#.O.O.O.O.o.o.o.+.O.o.o.o.@.#.6.7.x.c.A.S.B.d.i.t.6.9.=.=.#.=.9.9.9.9.9.9.9.9.0.0.t.t.t.t.t.i.i.f.f.s.x.x.x.c.c.c.m.m.A.C.Z.C.Z.Z.Y.R.T.W.T.T.~.~.^.[.[..X.X XXXXX#X#X#X$X$X$X*X*X*X1X1X1X6X6X6X6X6X6X6XqX4X4X4X4X5X5X5X4X7X7X0X7X7X7X7X7X4X4X4X1X$X(.sXqXP.x.f.f.i.t.t.t.0.9.9.9.9.6.6.6.",
"@.@.@.@.=.=.=.6.9.w.t.y.y.y.y.t.t.t.t.t.y.y.y.t.t.0.s.$.W 0XZXBXNX(.<.! 9XzXhXNX0XqXzXNXNXZXHXFXHXHXFXGXJXJXKXKXKXKXJXJXKXKXKXGXhXcXmXvXkXlXnXnXnXVXPXJXKXKXKXJXKXKXKXKXKXLXFXVXbXnXlXlXhXgXaXaXsXpXBXGXGXJXJXJXJXJXKXJXLXFXZXbXkXxXrX2X;X X'.W.R.F.G.Z.C.C.A.A.m.m.c.m.x.c.c.s.s.i.t.t.t.t.t.t.9.9.0.0.t.t.t.t.t.t.y.y.y.9.-.*.@.O.O.o.o.o.o.X.o.X.X.X.[ [ [ [ [ [ [ [ [ [ [ [ ] [ X.O.@.=.=.#.=.=.@.O.X.[ [ ] ] ] ) ) / / / / / / / / ) ) ` / ` ` ` ` ` ` ` ` ` ` ` ` ' ' X.O.@.-.-.-.-.-.-.@.O.O.X.X.X.X.X.X.X.X.X.X.o.O.O.O.O.O.O.@.@.@.=.=.-.-.9.9.0.t.t.s.f.c.m.A.Z.Y.W.^.[.XX%X1X1XrXkXMXCXCXCXCXCXNXsX@X*X*X*X1X4XrXrXxXbXZXFXJXKXKXKXJXJXFXZXBXbXbXvXkXvXvXvXbXBXVXDXFXJXKXKXKXKXKXJXLXFXDXDXZXZXZXBXVXVXZXZXDXGXLXJXJXJXKXKXKXLXDXBXbXvXkXkXkXkXkXkXlXkXnXCXZXDXGXJXJXGXFXZXvXfX0X5X3X3X-X%X%X=X*X1X0XhXnXCXZXZXZXDXCXhX0X-X&X[.[.'.~.^.^.Q.~.!.qXiXhXpXaXrXyXwX2X*X#X X~.~.W.W.W.~.~.R.~.Y.|.'.oXXX$X1X1X6X6X6X6X6X6X6X1X*X*X*X*X$X$X$X$X$X$X*X*X*X*X1X6X6X2X6X6X4X4X4X4X7X7X0X0X9X9XiXiXsXsXaXaXdXdXdXdXdXxXdXdXdXdXdXdXdXdXdXdXdXaXaXaXaX9X9X9X9X9X0X7X0X7X5X4X4X2X2X1X-X-X-X1X*X=X*X*X*X*X%X%X%X%X#X#XOX.X.X{.{.{.].].].].].].].].[.[.{.{.}.}.[.]._.W.Y.F.C.C.n.x.d.d.d.i.p.p.y.y.q.q.q.0.0.0.w.w.w.6.6.6.6.6.w.=.=.6.i.B.W..X5XsXjXlXvXkXiX6XT.n.w.;.#.@.@.@.@.@.@.@.O.O.O.@.-.z.(.0XbXDXFXMXaX#XY.c.-.@.+.#.=.=.9.0.0.0.0.9.w.0.f.Z. X6XdXbXBXbX9X^.c.#.O.o.O.o.&.&.+.+.+.o.o.O.O.@.6.6.s.c.m.S.B.d.f.t.9.9.=.=.#.=.9.9.9.9.9.9.9.9.0.0.t.t.t.t.t.i.i.f.f.s.x.x.x.c.x.c.m.m.A.C.Z.C.Z.Z.Y.R.T.W.T.T.~.~.^.[.[.[..X XXXXX#X#X#X#X$X$X$X*X*X*X1X1X6X6X6X6X6X6X6X6X4X4X4X4X5X5X5X5X4X7X7X0X0X7X7X7XqX4X4X1X(.(.kX9XP.x.x.f.i.t.t.t.9.5.9.9.6.#.#.#.",
"@.@.@.@.#.=.-.9.9.0.0.y.y.y.y.t.u.u.t.t.i.i.y.i.t.0.9.#.$.! (.6X6X6X$.<.$./.z.oX/.^.6XfXmXNXHXGXHXHXHXHXHXFXGXGXLXLXGXFXFXLXJXGXmXqX,XkXkXnXkXnXnXMXAXVXGXGXJXJXKXKXKXKXKXLXFXDXBXbXnXlXhXgXiXiXiXiXpXlXAXHXJXGXHXZXZXZXZXCXCXbXvXkXdX9X6X@X X'.W.E.F.Z.Z.Z.A.A.m.m.m.c.c.c.c.s.s.i.y.u.t.t.t.t.t.0.0.0.t.t.t.t.i.p.t.y.y.9.-.*.@.O.O.o.X.X.o.X.o.X.o.X.X.[ [ [ [ [ [ [ [ [ [ [ [ [ X.O.@.#.#.=.=.-.@.O.X.[ [ ] ] ] ] ] / / ` / / / / / / / / / ` ` ` ` ` ` ] ] ` ` ' ` ' [ X.X.O.;.-.-.:.:.-.@.O.O.O.X.X.X.X.X.X.X.O.O.O.O.O.O.O.@.@.@.@.@.=.-.-.-.9.9.0.t.t.f.f.x.m.A.Z.Y.~.^.oX#X=X2X*X4XaXjXvXkXhXdXiXqX@X@X*X1X*X*X2X7XrXxXbXZXFXGXJXLXFXFXZXBXBXBXnXvXvXkXkXkXvXnXbXBXDXFXLXJXKXKXKXJXFXDXDXZXZXZXZXZXCXBXVXZXZXDXFXGXLXJXKXKXKXKXFXPXBXvXvXkXkXkXkXkXkXkXlXlXnXBXZXDXGXGXFXDXZXnXdXyX5X3X3X-X*X%X*X=X*X1X0XiXxXlXnXnXbXnXxXrX5X-X%X{.|.'.~.^.~.~.'. X!. X@X@X;X;X2X3X3X=XXX.X].].W.W.~.~.T.~.~.~.~.~.'..X#X$X1X1X1X1X6X6X6X6X1X1X1X1X*X*X$X$X*X*X*X*X*X1X1X6X6X6X6X2X4X4X7X4X8X7X0X0X9X9XiXiXsXsXiXiXaXgXdXdXgXdXdXdXdXdXdXdXdXdXdXdXdXaXaXaXsXsX9X9X0X0X9X0X7X7X5X4X5X2X1X1X=X=X=X=X*X*X*X*X*X%X%X%X#X#X#X#XXXXX.X{.{.[.].].].].].].].].].[.{.{.{.}.].].].W.Y.G.C.C.m.x.d.d.d.i.a.i.y.y.t.q.q.0.0.w.0.0.9.6.6.6.6.6.6.9.w.t.c.Q.}.%XrXjXmXvXhXdX6X^.A.5.-.;.*.@.O.O.O.O.@.@.+.O.O.#.t.Z.1XhXBXDXZXvX4X!.A.u.@.X.+.@.*.=.-.9.0.0.t.0.0.0.f.Z.oX1XdXvXBXbX9X^.c.#.O.o.o.o.&.&.+.X.X.X.o.o.O.*.=.9.t.x.n.B.V.x.d.i.0.9.-.=.=.=.=.=.9.9.9.9.9.9.9.0.0.t.t.t.i.i.s.f.s.s.d.x.x.c.x.c.m.m.A.A.Z.A.Z.Z.Z./.R.T.W.T.~.^.^.^.[.[. XoXoXXXXX#X#X#X$X$X$X$X*X*X1X1X6X6X6X6X6X6X6X6X6X6X6XqX6X6X6X6XqX4X4X4X4X4X7X7X7X7X4X1X(.(.mXhXP.c.x.f.t.t.t.u.0.9.9.9.#.#.#.#.",
"@.@.@.@.#.=.-.-.9.9.0.t.t.t.t.t.9.9.u.u.t.t.i.p.p.0.9.#.$.$.$.E E E $.$.$.#.X.#.#.5.z.z.).).(.<X<XcXcXcXcXcXcXpXpXhXvXvXvXnXlXiX0X).>X0XhXlXlXkXnXnXMXMXHXHXFXGXLXJXKXJXLXLXFXFXDXBXbXlXhXdXaXiX0XiXiXpXlXnXCXAXbXnXnXkXvXvXvXbXbXvXjXdX9X6X$X X'.W.Y.Y.Z.Z.A.A.A.m.m.c.c.x.s.s.s.i.y.u.t.t.t.t.0.0.0.0.t.t.t.t.i.p.t.y.y.9.-.*.@.O.O.O.X.X.o.X.o.X.o.X.X.[ [ [ [ [ [ [ [ [ [ [ [ [ X.O.@.@.#.=.-.-.@.O.X.[ [ ] ] ] ] ] / / ` / / / / / / / / / ` ` ` ` ` ` ] ] ` ` ' ' ' [ X.X.O.*.-.-.u.:.:.-.@.O.+.X.X.X.X.X.X.X.O.O.O.O.O.O.O.@.@.@.@.@.=.-.-.-.9.9.0.t.t.f.f.c.m.A.Z.Y.~.^.oX#X=X2X-X2X4XsX0XqXqXqX@X$X@X*X1X1X*X*X2XeXrXxXbXZXDXFXHXHXZXZXBXnXnXbXnXvXvXkXkXkXkXnXnXBXZXFXGXJXKXJXJXLXFXZXVXVXZXZXZXZXCXBXBXVXVXZXDXFXGXJXJXKXKXJXFXVXBXvXvXkXkXkXkXkXkXkXlXkXnXnXCXZXHXFXFXDXZXvXdXyX5X3X3X-X*X%X*X*X*X;X1XqX0XaXxXlXlXlXxXsXeX2X%X.X{.'.!.!.!.'.'.'.~.!.'.'. X@X*X3X5X3X=XXX[.'.]._.~.~.~.~.~.~.~.~.].[. X#X#X$X1X1X6X6X6X6X6X6X6X1X1X*X*X*X*X*X*X*X*X1X1X6X6X6X6X6X4X4X7X4X8X8X0X0X9X9X9XiXsXsXiXiXaXaXdXdXgXdXdXdXdXdXdXdXdXdXdXdXdXaXaXaXsX9XyX9X7X7X0X0X7X7X5X4X5X2X1X1X=X=X=X*X*X*X*X*X*X%X%X#X#X#X#X#XXXXX.X{.{.{.].].[.].].].].[.{.{.{.{.{.}.].].W.W.Y.G.C.C.m.x.x.d.d.f.i.p.y.y.t.t.q.q.q.0.0.0.9.6.6.6.6.6.6.9.p.M.^.oX^.$XsXjXkXkXfX0XoXY.z.5.#.*.O.O.O.O.O.O.@.@.O.O.@.6.s.T.5XkXZXFXBXhX#XT.c.-.O.O.O.O.*.=.-.9.0.0.t.0.0.0.s.D.[.1XdXvXBXbX9X(.c.#.O.O.o.o.&.o.o.o.X.O.o.o.O.*.-.-.t.s.x.V.V.x.d.i.y.9.-.-.=.=.=.=.9.9.9.9.9.9.0.0.0.t.t.t.i.i.s.s.s.s.d.d.x.x.x.c.m.m.A.A.Z.Z.Z.Z.Z./.R.T.T.~.~.~.^.[.[.[. XoXoXoXXXXX#X#X@X$X*X$X$X*X1X1X1X1X6X6X6X6X6X6X6X6X6X6X6X6X6X6XqXqXqXqX4X4X4X4X4X4X4X1X^.(.CXiXP.c.x.i.t.t.t.u.0.9.9.9.#.#.#.#.",
"@.@.@.@.@.=.=.-.9.9.0.w.0.t.t.t.y.t.y.9.0.y.s.d.i.0.5.#.+.$.} 2.$.$.` ` [ o.>.;.+.#.5.z.z.z.P.P./././.!.!.!.!.(.(.(.(.).).).(.(.!.!.P.!.gXlXlXlXlXnXNXMXCXAXDXDXFXFXFXLXLXLXFXFXFXDXBXvXhXdXaX9X0X0X0XrXaXpXpXhXpXpXpXlXhXlXlXlXvXvXvXhXdXiX0X*X X'.W.Y.Y.Z.C.C.A.m.m.c.x.x.s.s.s.i.y.t.t.0.0.0.0.0.0.0.t.t.i.i.i.i.t.y.y.9.=.*.@.O.O.O.o.O.o.o.o.o.o.o.o.X.[ [ X.X.[ [ [ [ [ [ [ [ X.O.@.*.#.=.-.-.@.+.X.[ [ ] ] ] ] ] ] ] ) ) / / / ` ` ` ` ` ] ] ` ` ] ] ] ] ' ' [ [ ' [ X.X.O.@.;.-.u.:.:.-.@.O.O.O.X.X.X.X.X.X.O.O.O.O.O.O.@.@.@.@.@.=.=.-.9.9.9.9.0.t.t.s.x.m.m.A.Z.Y.~.[.XX#X=X2X1X2X4X7XqXqX@X@X@X*X*X*X1X1X*X-X4X7XiXlXCXDXHXHXZXZXBXbXnXnXnXnXvXlXkXjXkXkXkXvXnXBXZXDXGXLXLXLXLXFXDXZXCXCXCXCXCXCXCXBXBXBXBXVXVXPXFXGXJXKXKXJXFXVXbXvXkXlXlXxXkXjXjXjXkXlXnXnXbXCXZXHXDXDXCXvXdXyX5X3X3X-X*X*X*X*X;X;X;X1X4XrXgXxXlXxXxXgXeX2X*X X{.'.~.!.~.~.].~.~.!.'.'. X X%X-X5X5X3X=XXX.X[.].~.!.~.~.~.~.~.~.~.'.[. XXX#X$X1X6X6X6X6X5X6X6X6X6X1X*X*X*X*X*X*X1X1X1X1X1X6X6X6X4X4X4X4X7X7X7X7X0X9X9X9X9XiXiXiXaXaXaXaXdXdXdXdXdXdXdXdXdXdXdXaXaXaXaXiX9X9X9X7X7X7X7X7X7X4X4X4X2X2X1X1X=X=X=X*X*X*X*X*X*X%X%X%X#X#X#X#XXXXX.X{.{.{.{.[.{.[.].].{.{.{..X{.{.{.}.].].W.E.Y.G.C.C.m.x.x.d.d.f.a.p.i.p.p.t.t.0.0.0.w.w.7.6.7.7.5.5.9.9.t.Q.3X(.$.W A ! iXjXdX1X(.P.z.$.#.O.O.O.O.O.O.O.@.@.+.O.O.5.c.$X9XmXHXZXbXiXXXA.u.@.X.O.O.O.@.=.=.9.0.u.y.u.q.0.s.C.[.*XaXvXCXbX9X(.c.#.O.o.o.o.o.o.o.o.O.O.o.o.O.@.*.#.9.t.d.n.V.n.d.d.i.0.9.9.=.=.9.=.9.9.9.9.9.9.5.9.5.0.t.t.t.i.s.s.s.s.d.d.x.x.x.c.m.m.A.A.A.A.Z.Z.Z./.R.T.T.~.~.~.[.[.[.[. X X XoXoXXX#X#X#X$X$X$X*X*X*X1X*X1X1X1X6X6X6X6X6X6X6X6X6X6X6X6XqX6XqXqX6XqX6X6X6X6X6X=X!.!.AXMX!.c.f.i.t.t.t.t.0.9.9.#.#.#.#.#.",
"@.@.@.@.*.=.=.=.-.9.9.0.0.0.0.0.9.9.9.9.0.t.i.s.i.t.5.#.$.[ } ..} } } ] ] &.&.%.O.#.-.5.5.5.z.c.m.A.A.A.A.A.A.A.Z././././././.Y.}.T.P.XXsXlXlXlXxXlXmXmXnXBXCXZXVXDXFXFXFXFXLXFXFXDXZXbXkXhXdXiX0X7X7X0XqXqXqX0X0X0XiXdXgXgXdXhXhXkXvXvXhXhXiX0X#X X'.!.Y.Y.Z.C.A.m.m.c.x.x.s.s.s.i.y.t.t.0.0.0.0.0.0.0.t.t.i.i.i.i.t.y.9.-.=.@.@.O.O.O.O.O.o.o.o.o.o.o.o.X.[ [ X.X.[ [ [ [ [ [ [ [ X.O.@.*.#.#.-.-.@.O.X.[ [ ] ] ] ] ] ] ] ] ) ` / / / ] ` ` ` ] ] ` ` ` ` ] ] ] ' [ [ [ [ X.X.O.O.;.-.u.:.-.-.@.O.O.X.X.X.X.X.X.X.O.O.O.O.O.O.@.@.@.@.@.=.=.-.9.9.9.0.0.t.t.f.x.n.m.C.Z.Y.~.[.XX$X=X1X1X1X1X2X2X1X*X@X*X$X$X*X*X*X*X*X4X9XhXnXZXDXHXZXCXMXnXlXlXkXlXlXlXhXhXjXjXjXkXnXnXBXZXDXGXLXLXLXFXDXZXCXCXCXCXCXCXCXBXBXBXBXBXVXVXZXPXGXJXJXKXJXFXZXbXvXkXlXxXhXjXjXjXjXhXhXlXlXnXMXZXZXDXZXBXvXdXyX5X3X3X-X*X*X*X%X*X;X;X;X1X7XaXgXxXxXxXdXtX4X*XXX{.'.!.~.~.~.~.~.~.~.~.!.[..XXX%X3X3XwX3X=XXX.X[.~.!.!.~.~.~.!.~.'.!.'.[. XXX#X$X*X1X1X6X6X5X6X6X3X6X1X1X1X*X*X1X1X1X1X1X1X6X6X1X4X4X4X4X7X7X7X7X0X0X0X9X9X9XiXiXaXaXaXaXdXdXdXdXdXdXdXdXdXdXaXaXaXaXaXiX9X9X9X7X7X7X7X7X7X4X4X4X4X2X1X1X=X=X=X*X*X*X*X*X*X%X%X%X#X#X#X#XXXXX.X{.{.{.{.[.{.[.[.[.{.{..X.X.X{.{.[.].W.W.R.F.G.C.C.m.x.x.d.d.d.f.i.p.p.p.t.t.q.q.q.q.w.8.7.7.7.5.5.5.5.5.Q.eX(.' E ~ | qXdX9X(./.z.5.#.@.O.O.O.O.O.O.O.@.@.O.+.@.5.Y.5XsXmXAXBXvX0X^.z.-.O.O.@.O.O.@.=.-.-.0.u.y.q.q.0.s.C.[.*XsXvXBXvX9X(.c.#.O.o.o.o.o.o.o.o.O.o.o.o.O.O.@.#.9.5.i.d.n.n.d.d.s.y.0.9.=.=.9.9.9.9.9.9.9.9.5.5.5.0.t.t.t.i.s.s.s.s.d.d.x.x.x.c.m.m.A.C.A.A.Z.Z.Z.R.R.T.T.T.~.~.[.[.[.[. X.X XoXoXoXXX#X#X#X#X#X$X$X*X*X*X*X*X*X1X1X1X1X1X1X1X6X6X6X6X6X6X6X6X6X6X6X6X6X6X6X1X=X[.P.0XjXT.c.i.i.t.u.u.t.9.9.9.#.#.#.#.#.",
"@.@.@.*.@.*.;.-.=.-.9.9.0.0.0.0.0.0.0.0.0.0.y.y.i.0.9.#.+.} ....} } } { { {  .{ o.+.#.:.-.u.u.f.f.f.c.c.c.c.A.A.A.A.A.A.A.A.c./.+XT.Y.&XgXlXlXxXxXxXlXlXnXnXnXbXBXVXZXFXFXLXLXLXFXFXDXCXbXlXhXaX9X7X7X7XqXqXqXqXqXqXqX0X0X0X9XiXiXhXjXkXvXvXvXhX4X#XXX[.~.Y.Z.Z.M.N.m.m.x.c.s.s.s.s.t.t.t.t.t.t.0.0.0.0.t.t.t.i.i.p.t.y.0.-.=.@.@.O.O.O.O.O.O.X.o.o.o.o.o.X.X.[ X.X.[ [ [ [ [ [ [ [ o.O.@.@.#.=.-.-.@.O.o.{ { [ ] ] ] ] ] ] / / ` ` ` ` ` ` ] ` ] ] ] ] ] ] ] ] ] ] [ [ [ [ [ X.o.O.-.-.u.u.-.-.#.@.O.O.X.X.O.O.O.O.O.O.O.O.@.@.@.@.@.@.@.#.=.9.u.u.u.9.t.t.i.s.x.m.m.C.Y.T.~.oXXX*X*X1X1X1X*X*X;X@X@X#X$X$X$X$X*X*X*X1X7XiXnXnXDXDXHXCXMXmXlXxXlXhXhXhXhXhXhXhXjXjXkXvXvXBXZXDXFXGXLXFXFXZXZXCXbXbXBXBXCXBXBXbXbXbXBXBXVXZXPXGXJXJXJXJXFXZXbXvXlXjXlXhXjXhXhXhXhXhXlXlXlXnXCXAXZXZXbXlXdXtX8X5X3X-X-X*X*X%X*X;X;X;X;X4X7XaXgXxXhXdXaXtX5X-X&X+X'.'.'.~.~.!.~.~.~.~.~.[..XXX&X3X3XwX3X=X#X X[.~.!.[.~.~.!.!.'.'.!.'.'. X X#X*X*X1X6X6X6X6X6X3X3X6X6X6X6X1X1X1X1X1X1X6X6X6XqX4X4X4X4X8X8X7X7X7X7X9X9X9X9X9X9XsXiXiXiXaXaXaXdXdXdXgXgXdXdXaXaXaXiXsXiX9X0X0X7X7X7X5X5X4X6X4X6X6X6X1X*X=X*X*X*X*X*X%X%X%X%X%X%X%X%X#XXXOXXX.X.X{.{.{.{.{.{.{.{.}.oX.X.X.X.X{.[.].W.E.E.F.C.C.C.m.x.x.x.d.d.f.i.p.p.p.t.t.t.q.0.0.0.q.8.7.7.7.5.z.oX(.$Xb.$.~ I ~ E ,.Q Q $.$.$.$.#.O.%.O.O.O.O.O.@.@.@.+.@.5.c.^.6XhXmXZXbXiX$X/.5.O.O.O.O.O.O.@.=.-.-.w.u.y.q.0.0.s.A.~.*XsXkXCXvX9X(.c.#.O.O.o.o.o.o.o.O.O.o.o.o.O.O.@.@.#.5.t.d.x.n.x.d.s.p.0.9.9.9.9.9.9.9.9.9.9.9.5.5.5.0.t.t.t.t.i.s.f.f.s.d.x.x.x.m.m.m.A.A.A.C.D.D.Z.R.R.T.T.T.~.~.^.^.!.!.[.oXoX XoXoXXXXX#X#X#X#X#X#X*X*X*X*X*X*X=X1X1X1X*X1X=X1X1X6X6X1X6X6X6X6X6X6X6XqXqXqX1X=X.XZ.!.6X/.c.f.i.f.t.u.9.9.-.-.#.#.@.#.#.",
"@.@.@.*.@.*.=.;.;.-.9.9.9.9.9.9.0.0.0.0.0.0.t.t.t.9.#.@.+.} ..} } } } } { { { { X.O.@.-.-.:.u.u.u.t.i.f.c.c.c.c.c.c.c.c.c.c.c./.&XY.).=XdXlXlXhXxXxXxXxXkXvXvXnXnXbXCXZXFXFXLXLXLXFXFXZXbXvXhXpXiX0X0X7X6X1X1X1X6X1XqXqXqX4X4X4X8XtXdXjXkXvXbXvXsX2X#XXX[.W.Y.F.A.m.m.m.x.c.s.s.s.s.t.t.t.t.t.t.0.0.0.0.t.t.t.i.a.p.t.y.9.-.*.@.O.O.O.O.O.O.O.X.o.o.o.o.o.X.X.X.X.X.[ [ [ [ [ [ [ X.o.O.@.@.#.=.=.=.@.O.o.{ { [ ] ] ] ] ] ] / / ` ` ` ` ` ` ] ] ] ] ] ] ] ] ] ] ] ] [ [ [ [ [ [ o.O.*.-.9.9.-.-.#.@.O.O.X.X.O.O.O.O.O.O.O.O.@.@.@.@.@.@.@.#.=.9.u.9.9.9.t.t.i.s.x.m.m.Z.Y.W.^.oX#X*X*X*X*X*X*X;X;X;XXX#X#X$X$X$X*X*X*X1X9XhXnXVXFXDXZXCXmXjXxXfXxXhXxXhXhXhXfXhXjXjXkXkXvXCXZXDXHXFXFXFXFXZXBXBXbXbXbXbXbXbXbXbXbXbXbXbXVXVXDXGXGXJXJXLXFXVXbXvXkXjXkXhXhXhXxXxXxXxXxXlXlXnXMXCXZXZXbXlXdXtX8X5X1X-X-X*X%X%X%X;X;X;X;X1X4X7XaXgXhXhXdXsX5X3X&X+X'.'.'.!.!.T.T.W.W.W.~.~.[..X&X-X-X5X5X6X1X#X X[.~.'.~.~.!.!.[.'.'.'.'.'. XXX%X*X=X1X6X5X5X6X5X5X4X6X6X2X6X1X1X1X6X6X6X6XqXqX4X4X4X4X8X8X7X7X7X7X9X9X9X9X9X9XsXsXsXiXaXaXaXaXaXaXgXgXdXaXaXaXaXiXsX9X9X0X0X7X7X7X8X5X5X4X4X2X6X6X1X*X=X*X*X*X*X*X%X%X%X%X%X%X%X%X#XOXXXXX.X.X.X{.{.{.{.[..X.XoX.X.X.X.X.X{.[.].W.E.J.G.C.C.M.n.x.x.x.d.d.d.i.a.p.p.p.t.t.q.0.t.0.q.7.7.7.r.i.}.wX6XU.u.X.^ Y ^ ~ ( W W ( ` [ o.o.O.O.O.O.O.O.%.@.O.@.@.O.5.A.$XiXkXMXCXkX0X(.c.9.+.O.X.X.O.O.@.-.-.-.w.u.y.q.0.0.s.A.!.$X9XkXbXvX0X(.c.#.O.O.o.o.o.o.o.O.O.X.X.X.o.O.@.@.#.9.t.d.x.n.x.d.d.s.t.0.9.9.9.9.9.9.9.9.9.9.5.5.5.0.t.t.t.t.i.i.f.f.d.d.x.c.x.m.m.m.A.A.C.S.D.D.Z.R.R.T.T.T.~.~.^.^.!.!.[.oXoX.XoXoXXXXXXX#X#X#X#X#X%X%X%X*X*X*X*X*X*X*X*X*X*X*X1X1X1X1X1X1X1X1X1X1X6X1X1XqXqX*X.XT.Y.T.Z.c.c.i.f.t.u.9.9.-.-.#.#.@.#.#.",
"@.@.@.@.@.*.=.;.;.=.-.-.9.9.9.9.9.9.9.9.w.w.w.w.9.-.@.+.+.} } } } } } ] [ [ [ [ X.+.#.#.#.u.u.u.u.u.u.u.s.s.c.c.c.c.c.c.c.v.c./.6X).).8XhXlXhXhXgXdXfXjXjXkXvXkXlXnXbXCXDXFXFXLXLXFXFXDXCXbXkXhXpXiXiX0XqX6X6X6X1X1X1X1X1X1X1X1X3X5XeXdXjXkXbXvXfXtX3X#X.X'.T.F.Z.M.N.m.x.c.s.s.s.s.t.t.t.t.t.t.0.0.t.t.p.i.i.i.s.p.t.y.9.-.*.@.O.O.O.O.O.O.O.O.o.o.o.X.o.o.o.o.X.X.X.X.[ [ [ [ [ X.o.O.@.@.#.=.=.=.@.O.O.o.{ [ ] ] ] ] ] ] ` ` ` ] ] ] ] ] ` ` ` ` ] ] ] ] ] ] ] ] [ [ [ [ [ [ X.O.O.*.;.9.9.-.#.@.@.O.O.O.O.O.O.O.O.O.O.O.@.@.@.@.@.@.#.=.-.9.9.9.9.t.t.t.s.f.x.m.m.Z.R.~.[.XX%X*X*X*X*X*X;X;XOXOXOXOX#X$X$X$X*X*X*XqXaXlXVXDXFXDXZXMXkXxXgXgXgXgXgXgXdXdXdXdXfXjXkXkXvXCXZXDXHXFXFXFXDXZXCXMXbXbXbXbXbXbXbXbXbXbXbXbXBXCXZXGXGXJXJXLXFXVXbXvXjXjXjXjXhXdXdXdXdXgXgXxXhXkXbXCXCXCXbXkXdXsX0X5X1X=X*X*X%X%X%X%X%X%X;X;X1X4X7XaXhXhXfXdX0X3X&XXX'.'.'.~.T.T.W.W.W.W.~.~.[.oXXX&X-X3X8X8X5X1XXX X'.'.'.~.[.^.[.].'.'.'.'.[.XX#X#X=X1X6X6X6X6X5X5X5X5X5X4X4X4X6X6X4X4X4X4X6X6X4X4X4X5X7X7X7X7X7X7X0X0X9X9X9X9XsXsXsXsXsXsXaXaXdXaXaXaXaXaXaXaXaXrXtXrX9X7X7X7X7X4X5X5X4X4X4X2X6X1X1X*X*X*X*X*X%X*X*X%X%X%X%X%X%X%X#XXXXXXX.X.X{.{..X{.oXoXoX.X+X.X.X.X.X.X{.[.].W.E.J.G.C.A.M.n.x.x.x.d.d.d.f.i.i.a.p.p.p.t.t.q.q.7.7.7.7.r.N.}.!.z.! $.' ( _ _ ^ ( E E E ` ' +.+.O.O.O.O.@.@.@.@.O.O.@.O.f.Y.6XhXMXCXmXdX6X!.c.#.X.O.X.O.O.O.@.-.-.9.w.y.y.q.q.0.f.A.~.*XyXjXbXvX0X(.c.6.@.O.o.o.o.o.o.O.X.X.X.X.X.O.@.@.#.9.t.d.d.x.x.n.x.s.p.0.9.5.6.6.9.6.9.9.9.9.5.5.5.0.t.t.t.p.i.i.f.f.f.f.x.x.x.m.m.m.A.A.A.S.S.D.Z.Y.T.T.T.T.~.~.^.^.!.[.'.[..X.XoX XXXXXXXXXXX#X#X#X%X%X%X%X*X*X*X*X*X*X*X*X*X*X*X*X1X1X1X=X1X1X1X1X1X=X1X1X1X$X XT.~.Y.A.c.x.s.s.t.u.9.9.-.=.#.#.@.@.#.",
"@.@.@.@.@.@.*.*.=.=.;.-.-.-.9.9.9.9.9.9.9.w.w.w.;.*.O.o.[ [ ] | ] ] ] } [ [ [ [ X.+.#.#.#.#.u.u.u.u.u.u.u.u.s.s.s.s.c.c.c.v.c./.8X).).9XhXlXhXdXdXaXdXxXhXhXhXhXhXlXkXbXBXDXFXFXFXFXFXDXZXBXvXlXpXiXiX0X6X6X=X=X$X$X*X$X$X@X#X#X%X&X3XeXdXhXlXkXjXsXtX3X%X.X'.T.Y.Z.A.m.c.c.s.s.s.s.t.t.t.t.t.t.t.0.t.i.p.i.i.i.s.i.t.y.9.-.*.@.O.O.O.O.O.O.O.O.o.o.o.X.o.o.o.o.X.X.X.X.[ [ [ [ [ X.o.O.@.@.#.=.=.=.@.O.O.o.{ [ ] ] ] ] ] ] ` ` ` ] ] ] ] ` ` ` ` ` ] ] ] ] ] ] ] ] [ [ [ [ [ [ X.O.O.*.-.9.9.9.#.#.@.@.O.O.O.O.O.O.O.O.O.O.@.@.@.@.@.@.#.=.-.9.9.9.9.t.t.i.f.f.x.N.A.Z.W.[..X&X%X*X*X*X*X*X;X;XOX.XOXOX#X#X$X*X*X%X*XqXdXvXVXFXFXFXCXnXxXgXgXaXaXaXaXaXgXgXgXgXdXhXjXkXvXBXZXDXFXFXFXDXZXBXbXbXvXvXnXnXbXvXvXvXvXvXvXbXMXCXZXHXGXLXJXLXFXVXbXvXjXjXjXjXhXdXdXdXgXgXgXgXhXlXvXMXCXCXbXkXhXsX0X5X3X=X=X*X%X%X%X%X%X%X;X;X;X1X4X7XdXhXfXdX9X5X*XXX'.'.'.'.T.W.W.W.Q.Q.W.~.~.[..XXX%X1X5X9X8X6X=XXX[.'.'.[.^.^.^.[.'.'.'.'.[. XXX#X&X=X6X6X6X5X5X5X5X5X4X4X4X6X6X1X4X4X4X6X6X6X4X4X4X5X7X7X7X7X7X7X9X0X9X9X9X9XsXsXsXsXsXsXgXgXgXgXaXaXaXaXaXaXaXrXtXrX9X7X7X4X4X4X5X4X5X4X4X6X2X1X=X*X*X*X*X*X%X*X*X%X%X%X%X%X%X%XXXXXXXXX.X.X{.{..X{..X.X.X.X.X.XXXXX.X.X[.]._.W.E.F.G.Z.C.m.n.n.x.x.d.d.d.f.i.i.a.p.p.p.t.q.q.8.7.7.7.r.k.M.Z.oX&XuX$X/.| | _ _ _ ( / ~ { +.&.;.@.@.@.@.@.@.@.@.#.#.@.@.A.^.9XmXCXCXkX9X#X/.f.=.X.O.X.O.O.O.@.=.-.-.9.y.y.0.0.0.f.A.~.$X9XjXbXkX9X^.c.6.@.O.o.o.o.o.o.X.X.X.X.X.o.O.O.@.@.#.5.i.d.x.x.x.x.d.s.t.0.9.5.5.6.w.9.9.9.9.5.5.5.0.t.0.t.i.i.f.f.f.f.f.x.x.c.c.m.m.m.A.A.A.C.Z.Z.Y.R.T.T.T.~.!.!.~.~.~.'.[..X.X.X.X XXXXXXXXXXXXXXX#X%X#X%X%X%X%X%X%X%X*X*X*X*X*X*X*X*X*X*X*X*X=X=X=X*X=X*X1X$X X!.T.Z.A.c.x.s.s.t.t.0.-.-.=.#.@.@.@.@.",
"@.@.@.@.@.*.*.*.=.;.-.-.-.-.-.-.-.9.9.-.-.;.;.;.;.%.&.{ ] ] ` ] / ] ] ] ] [ [ [ o.O.O.O.@.-.:.:.:.:.u.u.u.y.y.i.u.s.s.s.c.v.s./.5X!.P.6XdXlXhXdXaXsXaXdXdXdXdXxXxXhXlXlXbXCXDXDXFXFXFXFXDXZXBXnXhXiX0X4X1X$X#X#X&X$X$X#X#XXXXX X{..XOX=X8X9XdXhXfXfXsXtX8X6X$XoX^.Y.Z.A.c.x.x.s.f.f.i.t.t.t.t.t.t.t.t.i.i.i.i.s.f.s.t.t.9.-.*.@.@.O.O.O.O.O.O.O.O.o.o.o.o.X.X.X.X.X.X.X.X.[ [ [ [ X.o.O.@.#.#.#.=.=.*.@.O.o.o.[ [ ] ] ] ] ` ` ` ` ` ` ` ] ] ] ] ` ` ` ` ] ] ] ] ] ] [ [ [ [ [ [ X.O.O.@.-.9.0.0.9.=.#.@.O.O.O.O.O.O.O.O.@.@.@.@.@.@.@.*.#.=.9.9.9.9.t.t.t.i.f.x.n.m.C.Y.~..XXX%X%X*X%X%X%X#X#XXXXX.XXXXXXX#X%X%X%X*X*X7XjXvXDXFXLXFXBXlXdXgXdXsXsXsXsXsXgXgXgXgXdXhXjXkXnXBXZXDXDXFXDXDXZXBXbXvXvXvXvXvXvXvXvXvXvXvXvXvXbXCXAXHXGXLXJXLXFXZXbXvXjXjXjXxXhXdXdXdXaXaXgXaXxXxXkXmXMXCXbXvXhXsX7X5X3X=X=X*X*X%X%X%X%X%X%X#X@X;X*X4XiXdXhXfXsX8X1X;XXX{.'.'._.W.W.W.Q.Q.~.~.~.^.[..XXX*X6X9X9X8X3X%X X[.'.^.^.^.^.[.[.[.[.[.[. X XoX#X$X=X3X6X4X5X5X5X4X4X4X4X4X4X4X4X4X4X4X4X4X4X4X4X4X4X7X7X7X7X7X7X0X9X9X9X9XtX9XtXtXrXrXsXsXsXsXaXaXaXaXrXrXrX9X9X0X0X7X7X4X4X4X4X4X4X2X6X6X1X=X=X*X*X*X*X%X%X%X%X%X%X%X%X%X%XXXXXXXXXXXXX.X.X.X.X.X.X.X.X+XXXXXXXXX.X.X[.]._.W.K.F.C.C.M.M.N.n.x.d.d.d.d.d.d.d.i.p.p.p.p.e.q.q.r.r.r.k.N.M.T.#XtXsXsX(.<.| } _ _ ) / / [ +.;.:.@.@.@.@.@.@.@.@.#.@.#.u./.$XhXbXBXCXjX8X^.A.i.#.X.X.X.O.O.O.O.@.-.-.9.9.t.0.0.0.i.A.~.#X9XjXvXkX9X^.c.6.@.O.o.o.o.o.o.o.X.X.+.+.O.O.O.O.#.#.0.i.d.d.n.V.n.d.d.i.t.0.5.5.9.9.9.9.5.5.7.7.5.5.0.t.t.i.i.f.s.s.d.s.f.x.x.c.c.m.m.A.A.C.C.Z.Z.Z.R.R.Y.T.T.T.~.!.!.!.'.[.[..X.X.X XXXXXXXXXXXXXXXXX#X#X#X%X#X%X%X%X%X#X#X$X$X*X$X=X*X*X*X*X*X*X*X*X*X*X=X=X$XXX'.T.F.M.c.f.f.s.t.9.9.=.=.=.=.@.@.@.@.",
"@.@.*.@.@.@.@.@.*.=.-.-.-.-.-.-.-.-.-.;.;.;.;.;.;.&.o.{ ] ] ] ] ) ` ] ] ] ] ] [ +.+.+.o.+.*.-.:.:.:.u.u.u.u.u.i.i.u.s.s.c.v.s.D.3X!.P.=XdXlXiXiXaXsXaXaXaXdXdXgXxXxXxXlXkXbXCXZXHXHXDXFXDXDXVXbXhXiX9X8X1X%XXXXXXXXXXXXXXXXXXX.X{.|.{. X*X6X0XiXsXfXfXfXdX9X8X6X$X^.T.Y.A.m.x.d.s.f.i.i.i.t.t.t.t.t.t.i.i.i.i.f.f.i.t.0.9.-.*.@.@.O.O.O.O.O.O.O.O.X.o.o.o.X.X.X.X.X.X.X.X.[ [ [ [ X.o.O.@.@.#.#.=.=.;.*.O.o.o.[ [ ] ] ] ] ` ` ` ` ` ` ` ] ] ] ] ` ` ` ` ] ] ] ] ] ] [ [ [ [ [ [ X.o.O.@.-.9.0.0.0.9.-.@.O.O.O.O.O.O.O.O.@.@.@.@.@.@.@.#.#.=.9.9.9.9.t.t.t.f.f.x.n.C.J.W.[..X%X%X%X%X%XOXXXXXXXXXXXXXXXXXXXXXOXOX*X;X1XrXkXMXZXFXFXDXbXkXdXsXsXiXsXtXsXsXsXsXgXgXdXdXhXkXnXBXZXDXDXFXDXDXBXbXvXvXnXnXnXvXvXvXvXvXvXvXvXvXvXbXAXHXGXLXJXLXFXZXbXkXjXjXjXxXjXdXdXsXaXaXgXaXgXxXkXmXMXbXbXvXhXaX9X5X6X=X=X*X*X*X%X%X%XXXXXXX@X%X*X2X9XiXhXhXdX9X4X*X;X.X{.'._.W.W.W.W.~.~.~.~.~.[.[.XX*X6X8X9X8X3X-X%X.X X!.^.^.^.[.[.[.[.'.[.[..XoXoX#X$X=X6X4X5X5X4X4X4X4X4X4X4X4X4X4X4X4X4X4X4X4X4X4X4X7X7X7X7X7X9X0X9X9X9X9X9X9XtXtXrXrXtXtXtXsXrXrXrXrXtXrXrX9X9X0X0X7X7X4X4X4X4X2X2X2X6X1X=X=X=X*X*X*X*X%X%X%X%X%X%X%X%X%X%XXXXXXXXXXXXXXX.X.X.X.X.X.X.XXXXX+XOX+X.X{.[.].W.E.J.G.C.C.M.M.n.n.f.f.d.d.d.d.d.d.i.i.p.p.i.e.e.r.r.p.d.k.N.G.[.3XaXxXfX(.<.| ) _ _ ) ) / [ +.*.-.@.@.@.@.@.@.@.@.#.O.#.c.^.6XkXBXBXbXsX=XY.c.5.#.X.X.O.O.X.O.O.@.=.-.9.9.t.t.0.5.f.A.~.$X9XjXvXjX8X^.c.6.@.O.o.o.o.o.o.o.X.+.+.+.+.O.O.O.@.#.5.t.f.d.n.V.n.d.d.i.i.t.0.5.5.9.7.7.5.5.7.7.0.0.0.t.t.i.i.f.s.s.s.s.f.f.x.x.c.m.m.m.A.A.C.C.Z.Z.R.R.T.T.T.T.~.~.~.~.!.[.[.[..X.X.X X.XXXXXXXXXXXXXXXXXXXXXXX#X#X#X#X#X#X#X#X$X$X$X$X$X$X*X*X*X*X*X*X=X=X=X$XXX~.T.F.M.n.x.d.s.t.9.9.=.=.=.#.@.@.@.@.",
"O.%.%.%.%.@.@.@.@.*.=.;.-.;.;.;.;.;.;.;.;.;.;.;.%.&.{ ] ] ] ] ] ) ] ` ] ] ] ] [ +.+.+.o.o.&.;.:.-.:.:.u.u.u.u.u.u.s.s.s.s.x.s.D.wX!.P.=XdXhXiXiXaXiXsXsXaXgXgXgXaXgXxXxXlXlXbXCXZXHXHXHXDXFXDXBXlXgXiX7X6X*X%XXXXXXXXXXXoXoX X.X{.|.[. X@X$XqXqXrXgXfXfXjXfXdXiX8X$X(.!.Z.A.n.d.f.f.f.i.i.i.i.i.t.t.i.i.i.f.f.f.f.i.t.0.9.-.*.@.@.O.O.O.O.O.O.O.o.X.X.X.X.X.X.X.X.X.X.X.X.X.[ [ [ X.o.O.@.#.#.=.#.=.;.*.O.o.o.[ [ [ [ ] [ ] ] ] ` ` ` ` [ [ [ [ ] ] ] ] ] ] ] ] [ [ [ [ [ [ [ [ X.X.O.@.#.-.0.t.t.0.-.#.@.@.@.@.@.@.@.@.@.@.@.@.#.#.#.=.=.9.0.0.9.t.u.t.i.f.f.n.M.G.E.].oX+XOXXXXXXX.X.XXX.XXXXXXXXXXXXXXXXXOX%X;X;X7XfXvXAXZXDXFXBXvXhXaXdXiXiXtXtXtXtXtXsXsXgXdXdXhXkXnXBXZXDXDXHXDXZXCXbXvXvXnXnXvXvXvXvXvXvXvXvXvXkXvXMXZXDXGXLXJXLXFXZXbXkXjXjXjXjXjXfXdXgXaXaXaXaXaXxXkXvXbXbXbXvXhXaX9X5X2X=X=X*X*X*X*X%X#X#XXXXXXX;X*X=X8XiXdXhXfXtX4X1X;XOX.X'.'._.W.W.W.~.~.~.!.~.~.[..X#X1X5X8XeX5X-X*X%XXX X^.^.^.^.[.[. X X[.[..X.X.XoX#X=X1X6X4X4X4X4X8X4X5X5X4X4X4X7X4X4X4X4X4X4X4X4X7X7X7X8X7X7X0X7X7X0X9X9XtXtXtXtXrXrXtXsXsXsXrXrXrXrXyXtXrX9X9X0X0X7X4X4X4X4X2X2X2X2X2X=X=X=X*X*X*X*X*X%X%X%X%X%X%X%X%X%X%XOXXX.X.X.XXX.XXXXXXXXXXXXXXXXXOXOXOX+X.X{.].].W.E.J.G.C.C.M.M.m.n.n.n.j.d.d.d.d.f.d.i.i.p.i.i.i.e.a.a.n.N.C.T.+X3XrXgXsX(.<.' | ) ) ) ) / [ +.&.-.@.@.@.@.@.@.@.@.#.#.u./.(.9XvXbXbXkX8X XP.5.#.O.X.X.O.O.X.O.O.@.=.-.9.9.t.t.t.5.f.A.~.$X0XjXvXjX8X^.m.9.@.O.o.o.o.o.o.o.O.+.+.+.+.O.O.O.+.#.9.0.i.d.V.V.V.n.d.d.i.i.0.0.5.7.7.7.5.5.7.7.7.7.0.t.t.p.i.f.f.f.d.d.f.f.x.x.c.m.N.m.m.A.C.C.Z.Z.R.R.T.T.T.T.~.~.~.~.!.[.[.[.[..X.X X X.X.XXXXXXXXXXXXXXXXXXX#X#X%X#X#X#X#X#X#X$X$X#X#X%X%X%X%X%X*X*X%X&X&X&X.X~.T.Y.C.n.x.d.f.t.9.-.=.=.=.#.@.@.@.@.",
"O.O.O.O.O.O.@.@.@.@.*.=.;.;.;.;.;.;.;.;.;.*.*.*.&.o.{ ] ] ] ) ) / / / ` ] ] ] ] +.+.+.o.o.+.*.-.-.-.:.:.9.u.u.u.u.i.s.s.s.c.s./.wX!.P.=XdXhXdXiXaXiXsXsXsXsXgXgXaXaXaXgXhXhXkXvXCXAXZXHXDXDXFXVXvXhXiX0XqX=X%X%XXXXXXXXXoX X X.X].].[.oXoX#X$X1X7XrXsXfXjXjXjXfXsX8X$X^.T.Z.C.N.d.f.s.i.i.i.i.i.t.t.i.i.i.f.f.f.f.i.t.0.9.-.*.@.@.O.O.O.O.O.O.O.o.X.X.X.X.X.X.X.X.X.o.o.X.X.[ [ [ X.O.O.@.#.#.=.#.=.=.*.%.o.o.[ [ [ [ [ ] ] ] ] ` ` ` ` [ [ [ [ ] ] ] ] ] ] ] ] [ [ [ [ [ [ [ [ [ X.O.O.@.-.9.0.y.0.9.#.@.@.@.@.@.@.@.@.@.@.@.@.#.#.#.=.=.9.9.0.t.t.t.t.i.f.x.m.Z.Y.W.}.oX.XXX.X.X.X.X[..X.X.X.X.X.XXXXXXXXXOX%X;X4XaXkXMXZXZXZXZXbXkXfXsXtXiXiX9XtXtXtXtXtXsXsXdXdXhXlXnXBXZXDXDXDXDXZXbXvXvXkXkXkXkXkXkXkXvXvXvXkXkXkXkXMXCXHXGXLXLXLXFXZXbXkXjXjXjXjXfXfXdXsXaXaXaXaXaXgXjXvXbXbXbXvXhXdX9X8X4X1X=X*X*X*X%X%X#X#XXXXXXXXX%X*X5X9XdXhXhXsXeX2X-X-XOX.X'.~.W.W.~.~.~.~.!.!.!.~.oXXX%X=X5XeX5X3X3X=X=X#X X^.^.^.[.[.[.[.[.[..X.X.X XXX#X*X1X6X4X5X7X8X4X5X5X4X4X4X4X4X4X4X4X4X4X4X4X7X7X8X8X7X7X7X7X7X7X9X9XyXyX9XtXtXrXrXrXrXrXrXrXrXtXtXyXrXrX9X0X7X7X4X4X4X4X2X2X2X2X2X=X=X=X*X*X*X*X*X%X%X%X%X%X%X#X%X%XOXOXXX.X.X.XXXXXXXXXXXXXXXXXXXXXOXOXOX+X.X{.]._.W.E.J.J.C.C.M.M.N.n.n.n.n.d.d.d.f.f.d.i.i.i.i.i.i.a.d.n.S.A.Y.}.&X@XyXuXuX(.<.' ] ) ) ) ) ` [ +.&.-.@.@.@.@.@.@.@.@.#.#.c./.6XdXvXbXvXfX1X!.P.5.#.@.X.X.O.O.X.O.O.@.=.-.9.0.t.t.t.5.f.A.~.#X8XfXkXhX8X^.m.7.@.O.o.o.o.o.o.o.O.+.+.+.+.+.O.O.+.#.9.0.p.g.V.V.V.n.d.d.a.i.i.0.7.7.7.7.5.7.7.7.7.7.0.0.t.p.i.s.f.f.d.d.x.x.x.x.c.m.N.N.m.A.C.C.Z.Z.R.R.T.T.T.T.T.~.~.~.!.'.'.[.[.[..X.X X.X.XXXXXXXXXXXXXXXXXXXXXXX#X#X#X#X#X#X#X#X#X#X#X#X#X#X#X#X%X%X%X%X&X&X.X[.T.Y.C.n.x.f.i.t.9.-.=.=.=.@.@.@.@.@.",
"O.O.O.O.O.O.O.O.*.@.*.*.*.*.*.*.;.;.;.*.*.%.%.&.o.o.{ ] ] / / / / / / / ] ] ] ] [ [ X.X.X.o.&.;.-.-.-.:.:.u.9.u.u.u.s.s.s.s.t.R.-X!.z.=XdXlXdXsXaXaXsXsXsXsXsXaXaXaXaXaXgXhXhXkXvXMXCXZXHXHXFXZXMXkXxXaX7X1X*X%XXXXXXXoXoXoX X!.'.!.~.!.!.!.(. X*X1XyXsXdXhXhXhXfXsX6X$XoXW.F.C.N.x.f.f.f.f.i.i.i.i.i.i.f.f.s.s.s.t.t.0.9.-.=.@.@.O.@.O.O.O.O.O.O.O.O.X.X.X.X.X.o.o.o.X.X.X.[ [ X.X.O.O.@.@.=.=.=.=.=.*.O.o.o.[ [ [ [ [ [ ' ` ' ` ` ` ` [ [ [ [ ] ] ] ] ] ] ] ] ] [ [ [ [ [ [ [ X.X.X.O.@.-.9.0.0.0.0.-.#.#.*.@.@.@.@.@.@.@.#.#.#.#.#.=.=.-.9.0.t.u.s.f.f.x.m.C.F.E.].}.{.oX.X[.[.[.[.[.[.[.[.[.[..X.XXXXXXXOX%X1X7XhXbXZXZXCXCXMXvXfXgXtX9X9XiX9XyXtXtXtXtXtXsXgXxXhXlXnXBXZXDXDXDXDXCXbXvXkXjXjXjXkXjXkXkXkXkXkXkXjXjXkXvXCXZXFXLXLXFXFXZXbXvXjXjXfXxXfXgXgXaXsXtXsXaXaXaXhXkXbXbXbXvXjXdXtX7X4X1X*X*X*X%X%X#XXXXXXXXXXXXXOX%X6X8XiXdXhXdXtX4X2X-X%XXX.X!.~.~.~.~.~.~.~.~.!.~.!. XXX%X-X3XwX5X5X5X6X=X#XoX^.[.[.[.[.[. X[.[.[..X.X.XXX#X*X1X2X4X4XwX5X8X4X4X4X7X4X4X4X4X4X7X7X4X7X7X7X8X0X0X7X0X0X0X0X9X9X9X9X9X9XyXtXtXrX0X0XyXyXyXyX9X9X9X0X0X7X7X7X5X4X4X4X2X2X2X2X=X=X=X*X%X%X%X%X%X%X%X#X%X%X%X%X%XXXXXXXXXXXXXXXXXXXXXXXXXXXXXXXXX&X%XOXOX+X.X[.]._.W.E.J.J.C.C.C.M.N.n.n.n.n.f.f.f.f.f.d.d.i.i.i.i.a.j.n.M.E.Z.!.=X-X X).!.wX$X<...) _ } ) ..1.b.:.*.;.@.@.@.@.@.@.@.@.#.5.A.(.0XiXvXbXjX8X XP.z.5.#.@.X.X.X.X.X.O.O.@.@.#.9.9.t.t.0.5.s.A.~.#X8XdXjXhX8X(.A.5.@.O.O.o.o.o.o.X.X.+.+.+.+.+.O.O.@.@.6.0.i.g.x.V.V.n.j.d.d.a.i.i.0.5.5.5.7.7.7.7.7.7.0.0.t.i.s.f.f.f.s.s.f.f.x.x.x.x.m.N.m.m.A.C.Z.Z.R.Y.Y.Y.T.T.T.~.~.~.!.'.[.[.[.[.[..X.XoX.X.X.XXXXXXXXXXXXXXXXXXXXXXX#X#X#X#X#X#X#X#X#X#X#X%X%X%X%X%X%X%X&X&XoX[.W.E.Z.n.f.f.i.t.9.=.=.=.=.@.@.@.@.@.",
"O.O.O.O.O.O.O.O.O.*.*.*.*.*.@.*.*.*.*.%.O.O.O.O.o.{ { ] / / / / / / / / / / ] ] [ [ [ X.X.o.+.*.-.-.-.-.:.u.u.u.u.u.u.u.u.u.5.R.-X!.z.=XdXhXdXdXaXaXsXsXsX9XtXyXrXrX9XiXiXiXgXdXhXvXmXCXZXHXFXDXCXmXkXxX7X4X1X;X#XXXoX XoX^.^.^.~.~.~.!.!.!.!.^. X@X@X1X9XsXhXjXfXdXtX5X&XoX~.R.C.m.x.f.f.f.i.i.i.i.i.i.f.f.s.s.i.t.t.0.9.-.=.@.@.O.@.O.O.O.O.O.O.O.O.X.X.X.X.X.o.o.o.X.X.X.[ [ X.X.O.O.@.*.=.=.=.=.=.*.O.o.o.[ [ [ [ [ [ [ ` ` ` ` ` ` [ [ ] [ ] ] ] ] ] ] ] ] [ [ [ [ [ [ [ [ [ X.X.O.@.-.9.0.0.0.0.9.=.#.#.@.@.@.@.@.@.@.#.#.#.=.#.#.#.9.9.0.t.t.s.s.c.c.A.G.Y.W.}.{.{.{.[.[.].].].].].[.[.[.[..X.XXXXX%X%X%X2XaXvXCXZXZXCXNXkXjXgXrXyX9XiXiX9X9XyXrXrXrXtXsXaXgXhXlXnXBXZXDXDXDXZXBXvXvXkXjXjXjXjXjXjXjXjXjXjXjXjXxXlXmXMXZXFXFXLXLXFXZXbXvXjXjXfXxXgXgXgXaXaXtXaXaXaXaXhXjXvXbXbXbXkXhXsX7X4X6X1X=X*X%X%X#XXXXXXXXXXXXXXX@X*X6X9XdXfXhXdX9X2X2X*X#XXX[.^.~.~.~.~.~.!.!.~.~.~.[.[..X%X-X3X5X0X0X5X6X$XXXoX[.[.[.[.[.[.[.[.[.[.[..X XXX#X*X1X1X4X4X5X8X8X8X8X7X7X8X4X7X4X7X4X4X7X7X7X0X0X0X0X0X0X0X0X9X9X9X9X9XyXyX0XrX0XrX0XrXrXyXyX9X9X9X0X9X7X7X7X8X4X4X2X2X2X2X1X=X=X=X=X%X%X%X%X%X%X%X#X%X%X%XXXXXXXXXXXXXXXXXXXXXXXXXXXXXXXXX%X%X&X%X%XOX.X.X[.]._.W.E.J.J.S.C.C.M.N.N.n.n.n.n.f.f.f.f.d.d.d.f.f.f.k.N.M.K.~.!. X6XwX-X!.! ! ! / ) _ ) _ ) } o.D.D.v.h.@.@.@.@.@.@.@.@.#.c./.6XdXkXMXmXdX1X!.P.5.#.@.O.X.X.O.O.X.O.O.@.*.#.9.9.t.t.0.i.f.C.~.#X8XdXhXhX4X(.A.5.@.O.O.o.o.o.o.X.X.+.+.+.+.+.O.O.@.@.#.9.q.s.g.V.V.n.n.j.d.d.f.i.i.r.7.5.7.0.7.7.0.0.0.0.t.i.s.f.f.f.s.s.f.f.x.x.x.x.m.N.m.m.A.C.Z.Z.R.Y.Y.Y.T.T.T.~.~.~.!.~.'.[.[.[.[.[..XoX.X.X.X.XXXXXXXXXXXXXXXXXXXXX#X#X#X#X#X#X#X#X#X#X#X#X#X#X%X%X%X%X&X&XoX[.W.Q.C.n.f.f.i.t.9.=.=.=.=.@.@.@.@.@.",
"o.o.o.o.o.O.O.O.O.O.@.*.*.@.@.@.*.*.*.%.O.O.+.o.o.{ { ] / / / / / / / / / / ] ] [ [ [ [ X.o.o.&.*.-.-.-.-.:.u.u.u.u.0.t.u.u.5.Z.3X!.P.3XdXhXiXiXiXaXiX9X9X9X9X0X0X0X9X9XiXiXiXiXdXjXkXmXCXHXFXDXAXMXmXjXaX7X1X;X#XXXoXoX^.^.^.!.~.~.~.T.Y.Y.Y.~.~.!.!. X1X4X9XdXfXfXsXeX5X$XoX~.R.S.m.x.f.f.f.i.i.i.i.f.f.s.d.s.i.i.t.0.9.-.=.@.@.@.@.O.O.O.O.O.O.O.O.O.o.X.X.X.o.o.o.o.+.+.+.o.X.o.O.O.@.*.=.=.=.=.=.*.*.O.o.X.[ [ [ [ [ [ [ [ [ [ [ [ [ [ [ [ [ [ [ [ [ [ [ [ ] ] [ [ [ [ [ [ [ X.X.O.@.-.9.w.0.0.y.0.-.#.@.@.@.@.@.@.@.#.#.#.#.#.#.=.#.9.0.0.t.y.s.x.x.m.S.R.W.].{.{.{.[.].].W.W.W.W.W.~.^.[.[..X.XXXXX%X%X*X7XfXbXZXDXZXCXNXxXgXrXyX7X8X9X9X9X7XyXyXyXyXtXrXaXgXhXlXbXCXZXDXHXZXCXbXvXkXkXjXjXjXjXjXjXjXjXjXjXjXfXfXjXkXMXZXFXFXLXLXFXZXbXvXhXhXxXgXgXgXaXaXrXrXaXaXaXaXdXhXvXbXbXbXvXhXsX0X4X6X1X*X*X*X%X#XXXXXXXXXXXXXXXXX@X*X4X9XdXhXfXsX7X4X6X=XXXoX^.^.~.~.~.~.~.~.^.~.~.!.'.[..X%X-X5X0X9X8X5X1X&XXXoX[.[.[.[.[.[.[.[.[.[..X.X XXX%X*X1X2X4X4X8X8X8X8X0X0X0X0X7X7X7X7X7X7X7X7X0X0X7X7X0X0X9X9X9X9X9X9XyXyXyXrXrXrX0X0X0X0XyXyX9X9X9X0X9X7X7X7X8X4X4X4X2X2X-X=X=X=X=X=X*X%X%X%X%X%X#X#X#XXXXXOXXXXXXXXXXXXXXXXXXXXXXXXX%X%X%X%X%X%X%X%XOX.X.X[.]._.W.E.J.J.S.C.C.C.M.M.n.n.N.n.n.n.n.n.j.j.k.k.f.j.N.M.K.`.W.oX6X8XwXwX.X!.Y.z.' ) ] } ....] ~ [ u.v.:.@.@.O.@.@.*.-.@.9.A.(.9XjXbXbXvXsX#X!.z.5.#.@.+.X.X.X.X.X.X.O.@.*.-.9.9.t.t.i.i.x.C.~.XX6XdXhXdX4X XA.0.@.O.O.O.o.o.o.X.X.X.+.+.+.+.O.O.O.@.#.6.9.i.g.x.V.V.n.n.j.d.d.a.i.i.0.7.5.0.0.0.0.0.0.0.t.i.s.f.f.f.s.s.f.f.x.x.x.x.n.N.m.A.A.C.Z.Z.Y.Y.Y.Y.T.T.T.T.~.~.!.[.[.[.[.[.[.[..XoX.X.X.X.X.X.XXXXXXXXXXXXXXXXXXXXXXX#X#X#X#X#X#X#X#X#X#X#X%X%X%X%X%XXXoX~.W.Q.J.n.f.f.i.t.9.=.#.=.=.@.@.@.@.@.",
"o.O.o.o.O.O.O.O.O.O.O.@.@.@.@.@.*.*.O.O.O.+.O.o.[ [ { ] / / / / / / / / / ] ] ] ] [ [ [ X.o.o.+.O.@.-.-.-.:.:.u.u.u.9.9.9.u.5.Z.3X!.P.3XdXhXiXiXiXiXsXiX9X9X9X0X0X0X0X0X0X0X0X0XiXdXjXvXMXZXHXHXAXCXMXvXhX0XqX1X@XXXoXoX^.!.~.~.~.Q.W.T.Y.Y.Y.Y.Y.Y.T.!. X$X1X8XsXsXsXtXtX5X*X X~.Y.C.N.n.f.f.f.i.i.f.f.s.s.d.s.i.y.t.0.9.-.=.@.@.@.@.O.O.O.O.O.O.O.O.O.O.X.X.X.o.o.o.o.+.+.+.o.X.o.O.O.@.*.=.=.=.=.=.*.*.O.o.X.[ [ [ [ [ [ [ [ [ [ [ [ [ [ [ [ [ [ [ [ [ [ [ [ ] [ [ [ [ [ [ [ [ X.X.O.@.=.9.9.w.0.q.0.9.=.=.@.@.@.@.@.#.#.#.#.#.#.=.=.#.9.9.t.t.i.s.x.c.A.Z.Q.].{.{.{.].].].W.W.W.W.W.W.W.~.].[.[..XXX#X%X*X1XrXjXCXDXDXZXMXmXgXrXyX7X7X8X9X9X9X7XyXyXyXyXtXtXaXgXhXlXbXCXZXDXHXZXCXnXvXkXjXjXjXfXjXjXjXjXjXjXhXjXfXfXjXkXMXZXDXFXLXLXFXZXbXvXhXhXxXgXgXaXaXgXrXrXaXrXrXaXdXhXvXvXbXbXvXhXsX0X4X6X1X=X*X%X%X#X#XXXXXXXXXXXXXXX X@XqX0XiXhXfXdX9X7X6X1X$XXXoX^.^.~.~.~.~.^.^.~.~.!.!.'. XOX*X2X7XrX0X5X3X=X$XoX X X[.[.[.[.[.[.[.[. X.X X XXX;X*X1X2X4X5X8X8X8X0X0X0X0X0X7X7X7X7X7X7X7X7X7X7X7X0X0X9X9X9X9X9X9XyXyXyXrXrXrX0X0X0XrXtXyX9X9X9X0X9X7X7X7X8X4X4X4X2X2X-X=X=X=X=X=X*X%X%X%X%X%X#X#XXXXXOXXXXXXXXXXXXXXXXXXXXXXXXXXX%X&X%X%X%X%X%X%XOX.X.X[.]._.W.E.J.J.H.C.S.C.M.M.M.M.N.N.n.n.n.j.k.k.k.k.k.N.M.G.~.oX!.$X6X6X*XOX+X}.+X^.:.&.} } >.>.o.~ E &.:.>.;.@.@.@.@.*.*.@.s.R.$XfXvXbXbXjX5XoXA.5.#.#.O.+.X.X.X.O.X.O.O.@.*.-.9.9.t.t.i.i.x.C.~.XX6XsXhXdX4X XA.t.@.O.O.O.o.o.o.X.X.X.+.+.+.+.O.O.O.@.#.#.9.t.s.x.n.V.V.n.n.j.d.d.a.i.i.0.0.0.0.0.0.0.0.t.t.i.i.f.f.f.d.s.f.f.x.x.x.x.n.N.m.A.A.C.Z.Z.Y.Y.Y.Y.T.T.T.T.~.~.~.[.[.[.[.[.[.[..XoXoX.X.X.X.X.XXXXXXXXXXXXXXXXXXXXXXXXXXXXXXXXX#X#X#XXXXX#X#X#X%X&XXXXXoX~.W.Q.H.n.f.f.i.t.9.=.#.=.=.@.@.@.@.@.",
"o.o.o.o.o.o.O.O.O.O.O.%.%.O.O.O.O.O.O.O.O.&.o.[ [ { } ] / / / / / / / / / / ] ] ] [ [ [ [ X.o.O.O.@.@.-.-.-.:.:.u.u.0.7.0.0.$.Q.-X!.).6XiXpXdXiXiXiXiX9X9X0X7X7X7X8X8X7X7X0X7X7X0XiXaXhXvXCXZXHXAXAXZXCXvXhX0XqX#XXX.X[.^.~.!.~.Q.W.T.R.R././.Z.Z.Y.Y.Y.!.!.oX=X8XtXsXsXsXsXtXwXXX|.F.G.L.N.n.d.s.s.f.f.s.s.s.s.s.s.t.0.9.-.=.*.@.@.@.O.O.O.O.O.O.O.O.O.X.o.o.o.X.X.o.o.o.o.X.X.X.o.O.O.@.*.=.=.=.=.=.*.@.O.o.X.[ [ [ [ [ [ [ [ [ [ [ [ [ [ [ [ [ [ [ [ [ [ [ [ [ [ [ [ [ [ [ [ [ X.o.O.@.#.9.w.w.0.q.0.0.-.=.@.#.#.#.#.#.#.#.#.#.=.=.=.9.9.0.t.t.s.x.x.m.D.R.^.].{.{.].~.W.W.W.W.R.R.R.W.W.~.^.[.[..XXX#X*X=X2XsXkXCXZXZXCXmXjXrXrXrXyX7X7X9X9X9X7X0XrXyXyXyXtXsXgXhXlXbXCXZXDXHXZXCXnXnXkXjXjXjXfXjXjXjXjXhXhXjXjXjXfXjXkXbXZXHXGXLXLXFXZXBXvXhXdXxXgXdXaXaXaXrXrXrXrXaXaXdXdXjXvXbXbXvXhXgXyX4X1X1X*X*X*X%X%XXXXXXXXXXXXXXX XXX@X1XqX9XdXjXfXdX9X8X6X=X#X X^.~.[.[.[.^.^.~.^.~.'.'.'.[.XX%X1X4X7XyX8X6X3X=X$XXX X X[.'.'.[.[.[..X X X X XXX@X;X*X*X2X4XeXeXeX0XeX9X9X7X7X7X7X7X7X7X7X7X7X9X0X0X0XyXyX9X9X9X9X9X9X9X9X7X7X7X0XrXrXrXrX7X7X7X0X7X7X7X7X8X5X4X2X2X2X-X=X=X=X=X*X*X*X%X%X%X#X#XXXXXXXOXXXXXXXXXXXXXXXXXXXOXOX%X%X%X%X%X%X%X%X%X%XOX.X.X[.]._.W.E.J.J.H.S.S.S.M.M.M.M.N.n.N.n.n.j.k.k.k.k.N.G.W.oX$X$X!.oX6X=XOX{.}.E.-XoXu.] { { :.-.X.E E E E E E ' [ +.o.*.;.y.c.T.1XjXlXnXlXgX-X^.m.t.=.*.+.+.O.O.O.O.X.X.O.@.*.-.9.0.t.t.i.i.x.C.~.XX6XsXhXdX4X(.A.u.@.O.O.o.o.o.o.o.X.X.+.+.+.+.X.O.O.@.#.#.9.0.f.d.x.V.B.N.n.n.d.d.d.i.p.i.0.0.0.0.0.0.t.t.i.i.f.f.f.f.d.d.d.d.f.f.x.x.m.N.m.m.C.C.Z.Z.Y.Y.Y.Y.T.T.T.T.~.~.!.~.].[.[.[.[.[.[.[..XoX.X.XXX.X.X.X.XXXXXXXXXXXXXXXXXXXXXXXXXXXXXXXXXXXXXXXXXXXXXXXXX+XoX~.W.Q.J.n.f.i.i.t.9.-.=.=.=.@.@.@.@.@.",
"o.o.o.o.o.o.O.O.O.O.O.O.O.O.O.O.O.O.O.O.o.o.o.[ ] { } ] / / / / / / / / / / ] ] ] [ [ [ [ X.o.O.O.O.@.@.#.-.:.:.:.9.9.6.q.u.' &X-Xz.P.=XsXdXgXaXiXiXiX9X9X0X7X7X8X8X8X7X7X7X7X7X4X7X0XiXhXnXCXAXAXAXZXZXBXvXpX7X*XXXXX.X[.~.Q.Q.W.R.R.Y./.Y.Y.Z.Z.Z.Z.Y.Y.T.!.!.@X6XtXtXsXsXsXsX4X-X{.`.K.M.N.m.x.x.x.f.s.s.s.s.s.s.t.t.9.-.=.*.@.@.O.O.O.O.O.O.O.O.O.O.o.o.o.o.X.X.o.o.o.o.X.X.X.o.O.O.@.*.=.=.#.=.=.*.@.O.o.X.[ [ [ [ [ [ [ [ [ [ [ [ [ [ [ [ [ [ [ [ [ [ [ [ [ [ [ [ [ [ [ [ [ X.o.O.@.#.=.9.w.w.0.0.0.9.=.#.#.#.=.#.#.#.#.#.#.=.=.9.9.9.0.t.i.s.x.m.C.Z.Q._.{.{.'.'.T.T.T.Y.R.Y.Y.Y.R.Q.W.^.[.[..XXX#X*X6X7XdXzXCXZXVXCXvXdX7X7X7X7X7X7X9X9X9X0X9X0XyXyXyXtXsXgXhXkXbXBXZXDXHXZXCXnXnXkXjXjXjXfXjXjXjXjXhXhXjXjXjXfXjXkXbXZXHXFXLXLXFXZXBXvXhXdXxXgXdXaXsXsXrXrXrXrXrXaXgXdXjXkXbXMXvXjXgXrX4X1X1X*X*X*X%X%XXXXXXXXXXXXXXX XXX@X*X6X7XiXfXhXfXdX9X4X1X$XXXoX'.'.[.[.^.^.~.^.~.!.'.'.[. X#X*X2X4XeXeX5X5X3X=X$XXX X[.'.'.{.{..X.X X X X XXX@X;X*X*X1X4X4XeXeX0X9XyX9X0X7X7X7X7X7X7X7X0X7X9X9X9X0XyX9X9X9X9X9X9X9X9X9X7X7X7X7XrXrXrXrX7X7X7X7X7X7X7X8X8X5X4X2X2X3X2X=X=X=X=X*X*X*X%X%X&X%XXXXXXXXXOXXXXXXXXXXXXXXXXXXXXXOX%X%X%X%X%X&X&X&X%X%XOX+X.X[.].W.Q.R.J.J.J.H.S.S.M.M.M.M.N.N.N.n.n.k.k.k.k.L.C.Y.}.&X=X$X!.oX=X#X.X].K.F.-XoXu.[ { { =.=.O.' / ~ ~ E E E E ' +.&.:.b.Q.#X9XlXnXnXxXtX+XJ.s.w.*.%.O.o.o.O.O.o.X.X.O.*.*.-.9.0.t.t.i.i.x.C.~.XX6XsXhXdX4X(.A.t.@.O.O.o.o.o.o.o.X.X.+.+.+.+.X.O.O.@.#.#.9.0.t.d.x.n.N.N.n.n.d.d.d.a.i.i.0.0.t.t.t.t.t.i.i.i.f.f.f.f.f.f.d.d.f.f.x.x.m.m.m.m.C.C.C.Z.R.Y.Y.Y.T.T.T.T.~.~.!.~.].[.[.[.[.[.[.[..XoX.X.X.X.X.X.X.X.XXXXXXXXXXXXXXXXXXXXXXXXXXXXXXXXXXXXXXXXXXXXXXX+X.X~.W.Q.J.n.f.i.i.t.9.-.=.=.=.@.@.@.@.@.",
"o.o.o.o.o.o.O.O.O.O.O.O.O.O.O.O.O.O.O.o.o.o.[ ` ] { } ] / / ^ ^ ^ ^ / ^ / / ` ` ` ] [ [ [ [ X.o.O.O.O.@.@.#.#.-.#.9.9.9.q.u.W 5X-Xz.z.&XsXhXgXsXiXiX9X9X0X8X8X8X4X7X8X7X7X7X4XqXqXqX0X0XiXlXkXmXMXCXZXZXBXbXhXaX1X*X#X X[.~.^.W.R.R.R.R.R.R.Y.Z.Z.Z.Z.Y.Y.Y.Y.T.!.XX3XeXtXsXdXdXsX0X3X&X}.R.Z.A.m.m.c.c.x.x.d.d.f.s.t.t.9.-.=.*.@.@.@.@.O.O.O.O.O.O.O.O.o.o.o.o.o.o.o.o.o.o.o.X.X.o.+.@.@.*.=.=.=.=.=.*.*.O.o.o.[ [ [ [ [ [ [ [ [ [ [ [ [ [ [ [ [ [ [ [ [ ' [ [ [ [ [ [ [ [ X.X.X.o.o.O.@.@.#.9.9.w.0.q.u.9.-.#.#.#.#.#.#.#.#.#.6.9.9.9.9.9.0.t.i.d.x.m.S.R.Q.].].].'.T.T.Y.Y.Y.Y.Y.Y.Y.R.W.W.~.~.[..XXX%X1XqX9XjXmXCXCXBXbXjXaX0X7X7X7X7X7X8X0X7X7X7X7X9X9XyXtXaXgXxXkXbXZXDXDXHXZXCXnXnXkXjXjXdXfXdXhXjXjXhXhXjXjXjXfXxXkXbXCXHXFXLXLXFXZXBXvXhXdXgXaXaXaXsXsXrXrXrXrXsXsXaXdXfXjXvXMXbXkXdXyX4X1X1X*X*X*X%X%XXXXXXXXXXXXXXXXXXXXX*X1XqX9XdXfXhXfXsX9X6X*X#X X[.[.[.[.^.^.^.^.[.!.'.'.[. X#X*X2X4XwXeXeX8X5X3X=X$XXX X[.{.{..X.X.XXXXX X XXX%X;X;X*X1X2X5XeXeXeX9X9XyX9X9XyXyX9X9X9X9X9X9X9X9XyXyXyXyX9X9X9X9X9X9X9X9X7X7X7X7XrXrXrXrX7X7X7X7X7X7X7X8X5X5X4X2X3X3X2X=X=X=X=X*X*X%X%X%X&X%XXXXXXXXXXXXXXXXXXXXXXXXXXXXXOXOX%X%X%X%X%X%X%X%X%X&XOX+X.X[.].W.Q.R.J.J.J.H.S.S.S.M.M.M.M.N.n.N.N.k.k.k.L.G.F.].+X&X3X1X'.OXXXoX[.W.C.C.=X$Xu.[ { { =.9.*.[ ` ` / ( F F F E F / 2.b.^.6XfXlXAXMXlX0X[.A.t.9.*.%.+.o.X.O.o.o.X.o.O.*.*.-.9.9.0.t.i.i.x.C.~.XX6XsXfXdX4X XZ.t.=.O.O.O.o.o.o.o.X.X.+.+.+.+.O.O.O.@.@.#.9.9.t.f.d.n.N.M.n.n.n.d.d.d.a.p.t.0.t.t.t.t.t.t.i.i.f.f.d.d.d.d.d.d.x.x.x.x.N.m.m.m.A.C.C.Z.Z.F.Y.Y.Y.T.T.T.T.T.~.~.~.[.[.[.[.[.[.[.[.oXoXoX.X.X.X.X.X.XXXXXXXXXXXXXXXXXoXXXoXXXXXXXXXXXXXXXXXXXXXXX.X.X}.W.W.Q.J.n.f.i.i.t.9.-.=.=.=.@.@.@.@.@.",
"o.o.o.o.o.o.o.o.o.O.O.O.O.O.O.O.O.O.O.o.X.X.[ ` ] { } ` ^ ~ ~ ^ ~ ~ ^ ^ ^ / / ` ` ] [ [ [ [ X.o.O.O.O.O.@.@.-.#.#.#.#.#.9.u.$.6X=XP.z.=XgXxXgXtX9X9X9X7X8X4X4X4X4X4XqXqXqXqX6X6X1X1XqXqX0XiXdXkXmXCXZXZXZXBXvXjX7X1X*X#X X!.W.W.Q.R.R.R.R././.Z.Z.Z.Z.A.Z.Z.Z.Y.Y.~.oX=X5X9XsXdXiXiX9X5X=XoXT.Y.Z.A.A.c.c.x.d.d.f.i.t.t.9.-.=.@.@.@.@.@.O.O.O.O.O.O.O.O.o.o.o.o.o.o.o.o.o.o.o.X.o.O.O.@.@.*.=.=.=.=.=.*.*.O.o.o.[ [ [ [ [ [ [ [ [ [ [ [ [ [ [ [ [ [ [ [ [ [ [ [ [ [ [ [ [ [ X.X.X.o.O.O.@.@.#.#.9.w.0.0.w.w.9.=.#.=.=.#.#.-.-.9.9.9.9.9.9.0.t.i.f.x.n.S.J.Q.Q._.]._.W.T.Y.Y.Y.Y.Y.Z.Z.Z.Y.R.Q.W.~.[..XXX*X1X7XaXkXNXCXCXbXvXhXiX7X7X7X7X7X8X8X8X7X7X7X7X7X7X9XrXaXgXjXvXbXZXDXDXHXZXCXnXnXkXjXjXdXfXdXhXjXjXhXhXjXjXjXfXxXkXbXCXHXHXGXLXFXZXBXvXhXdXgXaXaXaXsXsXrXrXrXrXsXsXsXgXdXjXvXMXMXvXdXtX4X2X1X=X*X*X%X#XXXXXXXXXXXXXXX.X XXX#X*X6X7XsXfXhXhXfXsX8X1X*XXX X'.[.[.~.^.^.'.!.!.[.'. X X X#X*X2X5XwXeXeX8X5X3X=X#XXX.X.X.X.XXXXXXXXXXXXX%X%X%X;X*X*X2X4X4X7X0X9X9X9XyX9XyXyX9X9XyX9X9X9X9X9XyXyXyXyX0X9X9X9X9X9X9XyX7X7X7X7X7X7X7X7X7X7X7X7X7X7X7X5X5X5X4X2X3X3X2X1X=X=X=X*X*X%X%X%X&X%XXXXXXXXXXXXXXXXXXXXXXXXXXXXXOXOX%X%X%X%X%X%X%X%X%X%XOX.X.X[.].W.Q.R.J.J.J.J.H.S.S.M.M.M.M.N.n.N.N.N.k.N.G.F.'..XOX-X5X3X{.+X.X.X~.E.N.N.&X$Xu.[ { { =.w.-.+.' ` ( | ( E E F F E E W U.6XjXjXAXmXhXqX!.P.5.#.*.O.o.X.X.X.X.o.X.o.O.*.*.*.-.9.0.t.i.i.n.C.~.XX6XsXdXdX4X XZ.t.-.O.O.o.o.o.o.o.X.+.+.+.+.+.O.O.O.@.@.#.9.9.t.i.d.x.N.N.M.n.n.d.d.d.a.p.t.0.t.t.i.t.i.i.i.i.f.f.d.d.d.d.d.d.x.x.x.c.N.N.m.m.A.C.C.Z.Z.Z.Y.Y.Y.T.T.T.T.T.~.~.~.].^.[.[.[.[.[.[..X.X.XoXoX.X.X.X.XXXXXXXXXXXXXXXXXoXoXoXXXXXXXXXXXXXXXXXXXXX.X.X.X[.W.W.E.H.n.f.i.t.t.9.-.=.=.=.@.@.@.@.@.",
"o.o.o.o.o.o.o.o.o.o.O.O.O.o.o.o.o.o.o.o.X.{ [ ] ] { } / ^ ~ ~ ~ ~ ~ ~ ~ ^ / / ] ` ` ] [ [ [ X.X.o.O.O.O.O.@.@.@.#.#.#.-.-.:.<.6XfX(.z.6XdXhXaXtX9X9X9X8X7X4X2X2X6X6X6X6X6X6X6X6X1X1X1X1XqX7X0XaXjXmXCXZXZXCXMXmXgXqXqX*X X'.'._.Q.R.R.R./.Z.Z.Z.A.A.A.A.A.A.A.A.A.Z.T.oX$X6X8X9XiXiX9X0X6X=XXX!.T.Y.Y.A.c.c.x.d.f.i.t.t.9.-.-.@.@.@.@.@.@.O.O.O.O.O.O.O.O.o.o.o.o.o.o.o.o.o.o.X.X.o.O.O.@.*.=.=.=.=.=.=.*.O.O.o.X.X.X.[ [ [ [ [ [ [ [ [ [ [ [ [ [ [ [ [ [ [ [ [ [ [ [ [ [ [ +.o.o.o.o.O.O.@.#.#.9.w.0.w.w.w.w.9.#.#.#.#.#.#.#.9.9.9.9.9.t.t.i.f.d.n.M.H.E.Q.W.`._.W.R.Y.Y.Z.Z.Z.Z.Z.Z.Z.Y.R.Q.W.].[..XXX*X6X0XfXmXMXCXCXMXvXdX0X7X7X7X7X7X7X7X7X8X7X7X7X7X7X0XrXaXgXhXvXbXZXDXDXDXZXCXbXlXlXhXhXdXdXdXdXhXhXhXhXjXjXfXxXxXlXnXCXDXFXFXLXFXDXBXvXhXdXgXaXaXaXaXrXrX9XtXyXtXtXtXtXdXjXvXMXMXvXjXsX7X4X2X*X=X*X&X#XXXXXXXXXXXXXXX.X.X X;X;X1X4X9XfXjXjXjXdX9X4X*X#X X[.'.[.^.^.[.[.!.[.[.[.oX X X X%X-X3XwXeXeXeX8X5X6X*X#XOXOXOXOXXXXX#X#X#X%X%X%X;X;X;X*X1X4X4X7X8X0X0X9X9XyXtXtXyXyXtX9X9X9XyXtX9XyXyXyX0X0X7X7XyXyXyXyX7X7X7X7X7X0X0X0X0X8X8X8X8X4X4X4X5X6X6X6X2X2X1X=X=X=X*X*X%X%X%X#X%XXXXXXXXXXXXXXXXXXXXXXXXXXXOXOXOXOX%X%X%X%X%X&X%X%X%X%XXX.X[.[.].W.Q.E.J.J.J.J.H.H.C.C.M.M.M.M.M.n.N.N.M.G.T._.'.%X3X3X3X!.'.{.^.!.Y.C.N.A.OX=Xb.{ { &.h.g.u.@.[ ` ( ( F F F F E E E E E ,.(.hXmXhXdX(.!.A.5.#.*.%.+.o.X.X.X.X.o.O.O.O.*.*.-.-.9.t.i.f.n.C.W.oX6XiXdXiX0X#XR.s.-.@.+.+.o.o.o.O.O.+.+.+.+.+.O.O.O.@.@.#.=.9.9.i.d.x.n.N.M.n.j.j.d.d.d.a.p.t.t.t.i.i.i.i.i.s.f.s.d.d.d.d.x.x.x.x.x.n.N.N.m.A.C.C.C.Z.Z.F.Y.Y.Y.T.T.T.T.T.T.~.~.^.^.^.[.[.[.[.[.[.oXoXoXoX.X.X.X.XXXXXXXXXXXXX.X.X.X.X.X.X X X.X.XXX.X.X.X.X.X.X[.}.W.E.E.H.n.f.i.t.t.9.-.=.=.=.*.@.@.@.@.",
"{ { { o.o.X.o.o.o.o.o.O.o.o.o.o.o.o.X.o.{ { [ [ [ { } / ~ ~ ~ ~ ~ ~ ~ ~ ~ / / / ` ] ] [ [ [ X.X.X.o.O.+.+.O.@.@.#.#.#.#.-.:.<.(.8X(.<.6XdXhXdXsX9X9X9X8X7X2X1X2X6X6X1X1X1X1X1X*X*X$X$X*X1X1X1X7XdXkXCXZXZXZXCXMXhXiX0X1XXX'.'._.Q.R.R.R.Z.Z.Z.A.A.A.A.A.A.A.A.A.A.A.Z.Q.^.oX$X6X8X9XiX9X9X8X1X#X X!.T.Y.A.c.x.d.i.i.t.0.9.-.-.*.@.@.@.@.@.O.O.O.O.O.O.O.O.o.o.o.o.o.X.o.o.o.o.X.X.o.O.O.@.*.=.=.=.=.-.=.*.O.O.o.X.X.X.[ [ [ [ [ [ [ [ [ [ [ [ [ [ [ [ [ [ [ [ [ [ [ [ [ [ [ +.o.o.o.O.O.O.@.@.=.9.9.0.w.0.0.0.9.9.9.#.#.#.9.9.9.9.9.9.9.t.i.f.d.n.M.H.J.E.W.W.W.W.R.F.F.G.Z.Z.Z.Z.Z.Z.Z.Y.Y.W.W.W.]..XXX*X7XaXkXmXCXCXCXMXkXgX7X7X4X7X7X8X8X7X7X8X8X7X7X7X7X7X7XrXgXhXvXBXZXDXDXDXZXCXvXkXlXhXhXdXdXdXdXhXhXhXhXjXjXfXfXxXlXbXCXZXDXFXLXFXDXBXvXhXdXgXaXaXaXrXrX9X9XtXyXtXtXyXtXdXjXvXMXCXmXkXdXyX4X2X1X*X=X&X#XXXXXXXXXXXXX.X.X.X.XXXOX=X4X9XdXhXkXjXhXsX7X6X*XXX.X[.[.^.[.[.[.[.[.[.[..X.X.X XXX*X2X5X8XyXtXtX0X5X6X*X%X%XOXOXXXXXXXXXXXXX%X%X%X;X;X*X1X4X4X4X4X8X7X0X9XtXtXtXtXtXtXtXtXyXyXyX9XyXyXyX0X0X0X0XyX9XyXyX7X7X7X7X7X7X7X7X8X8X8X8X5X4X4X4X5X4X6X6X2X2X=X=X=X=X*X*X%X%X%X#X%XXXXXXXXXXXXXXXXXXXXXXXXXXXOXOXOXOX%X%X%X%X%X%X%X%X%XOXXX.X[.[.].W.Q.E.J.J.J.J.H.H.H.C.M.M.M.M.M.M.M.C.F.Y._. X%X6XeXeX3XT.T.^.~.Y.Z.M.N.A.XX=Xb.{ } &.h.g.u.@.[ / ~ ( E E F F E E E G T H W Q (.0X0X6X!.P.5.#.*.%.+.o.O.X.X.X.O.O.O.O.O.@.=.-.9.t.i.f.n.Z.W.XX6X9XdXiX4X#X/.c.-.@.O.+.o.o.o.o.O.+.+.+.+.+.O.O.O.O.@.#.=.9.0.i.d.x.n.N.M.M.n.j.d.d.d.s.i.t.t.t.i.i.i.i.i.s.f.s.d.d.d.d.x.x.x.x.x.n.N.N.m.A.C.C.C.Z.Y.Y.Y.Y.Y.Y.T.T.T.T.T.~.~.^.~.~.[.[.[.[.[.[.oXoX.X.X.X.X.X.X.X.X.X.X.X.X.X.X.X.X.X.X X X X X.X.X.X X.X.X[.[.[.W.E.E.H.m.f.5.t.t.9.-.=.=.=.*.@.@.@.@.",
"{ { { { { { o.o.o.o.o.o.o.o.o.o.o.o.X.X.o.{ [ ] [ } } / ~ ~ ~ ~ ~ ~ ~ ~ ~ / / / ` ` ` ] [ [ X.X.o.o.o.O.+.+.O.@.@.@.#.#.:.:.:.A.^.z.).5XsXhXdXiXiXiX9X7X7X2X2X1X1X1X*X*X*X*X*X*X$X$X$X$X#X;X*X2X9XhXvXCXZXZXCXMXvXhX0XqX;X X'._.Q.Q.R.R.Z.Z.Z.A.A.A.A.A.A.A.A.m.c.m.A.Z./.T.^.oX%X3X8X9X9X9X8X6X$XXX^.~.R.D.x.d.f.i.t.t.9.-.;.*.*.*.@.@.@.@.O.O.O.O.O.O.O.O.O.O.O.O.O.o.o.o.o.X.X.O.O.@.@.=.=.=.=.-.-.#.-.O.O.O.X.X.X.X.X.X.[ [ [ [ [ [ [ [ [ [ [ [ [ [ [ [ [ [ [ [ [ X.X.+.o.o.o.O.O.O.O.@.@.=.9.9.w.q.y.t.t.0.9.9.6.9.9.9.9.9.9.9.5.5.t.s.x.N.B.H.J.K.E.W.W.W.E.F.F.F.Z.Z.D.Z.Z.Z.Z.Z.Y.Y.W.W._.'..XOX1X7XdXmXCXCXAXCXMXkXaX7X4X4X4X4X5X5X4X4X5X5X7X7X7X7X7X7XrXdXhXvXBXZXDXFXDXZXCXvXlXhXhXhXdXhXhXhXhXhXhXhXjXjXjXjXxXlXnXCXZXDXFXLXLXDXBXvXjXhXxXaXaXaXrXrXtXtXtXyXyXyXyXtXdXjXvXbXCXCXvXjXsX7X4X1X*X=X&X#XXXXXXXXXXX.X.X.X.X.X XXX%X2X7XsXhXkXkXhXdX9XqX*X#XXXoX[.[.[.[.[.[.[..X.X.X.X.X XXX%X-X2X4X9XtXtX9X7X5X1X*X%X%XOX%X%X%XXXXXXX%X%X%X;X%X*X*X6X4X4X4X8X7X0X9XtXtXsXtXtXsXtXtXtXtXtX9X9XyXyXyXeX0X0X0X0X9X9X7X7X7X7X7X7X7X7X8X8X8X5X5X5X4X4X5X4X6X6X2X2X=X=X=X=X*X*X%X%X%X#X%XXXXXXXXXXXXXXXXXXXXXXXXXXXOXOXOXOX%X%X%X%X&X%X%X%X%XOXXX.X[.].].W.Q.E.J.J.J.F.G.G.G.M.M.M.M.M.M.M.L.G.Y.'.{.OX3XtXfX9X(.b./.Q./.Z.M.N.N.A.XX=Xb.{ ] &.h.g.y.#.' ~ E ~ ~ ~ E E E G G T T U C M A W <.$X^.m.5.6.@.%.+.+.O.O.O.O.O.O.O.O.O.@.*.-.0.t.i.f.n.Z.W.XX6XtXdXaX4X#XR.x.9.@.O.O.o.o.o.o.X.X.+.+.+.O.O.O.O.O.@.#.=.9.0.y.d.x.n.N.n.M.n.n.n.d.d.f.i.t.t.t.i.i.i.i.i.s.f.f.d.d.d.d.x.d.x.x.x.n.N.m.C.C.C.C.D.Z.Y.Y.Y.Y.Y.T.T.T.W.T.T.~.~.^.~.~.].[.[.[.[.[.[.[.[.[.oXoXoXoX.X.X.X.X.X.X.X.X.X.X.X.X.X X X.X.X.X.X X.X[.[.[.].Q.E.K.H.m.f.i.t.t.9.9.=.=.=.*.@.@.@.*.",
"[ [ { { { { o.o.o.o.o.X.o.o.o.o.X.X.[ [ { [ [ ] [ } } / ~ ~ ~ ~ ~ ~ ~ ~ ~ ^ / / / / ` ] [ [ [ [ X.o.o.o.O.+.O.O.@.#.@.#.:.:.#.c.S.z.z.6XsXdXdXiXiXiX9X7X4X2X1X-X*X*X*X*X*X%X%X#X$X#X#XXXXXXXXX*X7XiXhXbXBXZXCXCXMXkXpX0X1XXX'.'.Q.Q.R.Y.Z.Z.Z.A.A.A.A.A.A.c.c.A.m.c.m.A.A.Z.R.T.'.OX3X8X9X9X9X8X6X1X#XoX~.Z.m.x.d.f.i.y.u.u.-.;.*.@.@.@.*.O.O.O.O.O.O.O.O.O.O.O.O.O.O.o.o.o.o.X.X.O.O.@.@.=.=.=.-.9.-.#.*.O.O.O.X.X.X.X.X.X.[ [ [ [ [ [ [ [ [ [ [ [ [ [ [ [ [ [ [ [ [ X.X.+.o.o.O.O.O.O.O.@.@.=.9.0.q.t.y.y.t.t.0.9.9.9.9.9.9.9.9.7.0.t.f.x.N.M.H.K.E.Q.E.E.T.E.Y.F.F.G.Z.Z.S.S.Z.Z.Z.Z.Y.Y.T.W._.'.{.OX2XyXjXmXCXAXAXCXvXjXaXrX7X4X4X4X5X8X4X4X8X5X7X7X7X7X7X7XtXdXhXvXBXZXDXHXHXZXMXvXlXhXhXdXhXhXhXhXhXhXhXhXjXjXjXxXxXlXbXCXZXDXFXFXFXDXBXvXjXhXxXaXaXrXrXrXtXtXyXyX9XyXeXyXdXjXvXbXCXCXvXjXdXyX4X6X=X*X&X#XXXXXXXXXXX.X.X.X{.{..X XXX*X4X0XdXjXjXhXhXaX7X1X%XXX+XoX[.oX[.[.[.[..X.XoXoX[.[..XXX*X1X4X7X0X9X9X9X8X4X2X*X%X%X%X%X%X#XXXXX%X%X%X%X%X;X*X1X2X4X4X4X7X7X7X0XyXtXtXtXsXtXsXtXtXtX9X9XyXyXeXeXeXeX7X7X0X0X7X7X7X7X7X7X7X7X8X8X5X5X4X4X4X4X4X6X6X6X1X1X=X=X=X=X*X*X%X%X%X%X%XXXXXXXXXXXXXXXXXXXXXXXXXXXOXOXOXOX%X%X%X%X&X%X%X%XOXXX.X.X[.].].`.W.E.J.F.J.G.G.G.C.C.M.M.L.M.C.G.F.E.~..X;X-XwXeX(.! W A $.s.D.D.m.f.N.A.&X=Xb.[ ] &.u.g.u.#.' E F E ~ ~ E ~ ~ U U U T U U L L F E E W ' -.-.O.&.&.+.@.&.&.@.O.O.O.O.O.O.*.-.0.t.i.f.n.Z.W.XX6XiXdXsX5XXXR.x.9.@.O.O.o.o.o.O.X.X.+.+.X.O.O.O.O.O.@.#.=.9.0.y.s.d.n.N.n.M.n.n.n.d.d.d.i.t.t.t.i.i.i.i.i.s.f.f.d.d.d.d.x.x.x.x.x.x.N.m.A.C.C.C.D.Z.J.Y.Y.Y.Y.Y.T.T.W.W.T.W.~.^.~.~.].[.[.[.[.[.[.[.[.[.[.[.[.[..X.X.X.X.X.X.X.X.X.X.X.X.X.X.X.X.X.X.X.X[.[.[.].].Q.R.K.J.N.f.f.5.t.5.6.9.9.=.=.@.@.@.@.",
"[ [ { { { { { { o.o.o.o.o.o.{ [ [ [ [ [ { [ ] ] [ } } / ~ ~ ~ ~ ~ ~ ~ ~ ~ ~ / / / ` ] ] ] [ [ [ [ o.o.o.O.O.O.O.@.@.@.#.-.-.#.v.x.c.z.=XtXdXdXdXiX9X9X8X4X6X=X=X*X*X*X%X%X%X#X#X#XXXXXXXXXXX.XXX1X8XiXhXvXMXCXCXMXvXlXiX0X1XXX[._.Q.W.Y.Z.Z.Z.Z.A.A.A.A.A.c.c.c.c.c.c.c.c.A.C.Z.Y.~.XX=X8X9X9X9X8X5X=X&XoXQ.J.M.n.f.f.y.y.u.-.;.-.*.@.*.*.%.%.O.O.O.O.O.O.O.O.O.O.O.O.O.O.O.O.O.O.O.O.@.*.;.=.=.=.9.#.#.*.@.O.O.o.o.o.X.X.X.[ [ [ [ [ [ [ [ [ [ X.X.X.X.[ [ X.X.X.X.X.o.o.o.o.+.O.O.O.O.O.@.@.=.9.w.y.y.y.y.y.t.t.0.0.9.9.9.9.7.0.0.i.i.f.n.B.S.J.E.Q.E.E.E.E.R.Y.F.G.Z.Z.Z.S.S.Z.Z.Z.Z.Y.Y.W.W.'.|.{.;X2XsXkXMXCXCXCXMXkXgX0X7X7X4X5X5X5X5X4X4X5X5X4X4X4X4X7X7X9XdXlXvXBXZXDXDXZXCXbXkXhXhXhXhXhXhXhXhXhXhXhXhXhXhXjXhXxXlXvXCXZXDXFXLXFXDXBXvXkXjXgXaXrXtXtXtXyXyXyXrX9X9X0XyXsXfXkXbXCXCXbXkXfXtX7X2X*X*X%X#X%X%XOXXX.X.X.X.X.X.X.X XXX%X-X4XsXhXhXkXhXdX9X6X*X%XXX.XoX[.[.[.[.[.[.[.[.[.[..X.XXXXX$X1XqX7X0X9X9X9X8X5X2X*X%X;XOX%X%X#XXXXXXX%X%X;X%X*X*X1X1X2X2X4X4X7X7X9X9XtXsXsXsXsXsXtXtXtXtXyXyX0X8X8X7X7X7X7X7X7X7X7X7X7X7X7X4X4X4X4X4X5X5X5X2X2X6X6X1X1X1X=X*X=X*X*X%X%X#X%X%XXXXXXXXXXXXXXXXXXXXXXXXXXXXX+X+XOXOX&X%X&X&X%X%X%X%XOX.X.X.X{.].]._.W.E.K.F.F.F.F.G.G.C.L.M.L.L.J.E.Q.]. X*XqX7X3X/.$.E E / X.+.D.D.M.M.R./.$X=Xb.$.' +.u.g.v.:.$.' E E F L P ~ P P I U I U P F P I I I E E / [ ` [ } +.1.:./.b.:.+.[ X.O.O.*.-.9.t.i.f.A.R.].#X6X9XsXtX5XXXR.c.0.@.O.O.o.o.o.X.X.X.O.O.X.O.O.X.O.O.@.@.=.9.0.t.i.d.x.n.n.M.V.n.n.j.d.d.i.i.i.i.i.i.i.i.i.f.f.d.d.d.x.x.x.x.x.n.n.m.m.A.A.C.C.C.D.Z.Z.F.F.Y.Y.Y.T.T.W.W.T.W.~.~.~.~.].].[.[.[.[.[.[.[.[.[.[.[.[.{.{.{.{..X.X.X.X{.[.[.[.oXoXoXoX.X.X[.[.[.'.].].].E.R.R.R.J.m.c.x.s.t.t.t.t.y.y.0.=.=.*.",
"[ [ [ [ [ [ { { o.o.o.X.o.[ [ [ [ [ [ [ [ [ ] ] } } } / ~ ~ ~ ~ ~ ~ ~ ~ ~ ~ ^ / / / ` ] ` ] [ [ [ X.X.o.O.O.O.O.O.@.@.*.-.-.@.v.v.c.P.=XtXdXdXdXiX9X9X8X6X6X=X=X*X*X%X%X#X#XXXXXXXXXXXXX.X.X.XXX#X1X7XsXhXvXbXMXmXmXvXhXiXqX$XoX].W.W.T.Y.Z.Z.Z.A.A.A.A.m.m.c.c.c.x.c.c.c.c.m.m.C.Y.~.oX=X5X9X9X9X8X5X=X#XoXW.Y.A.n.x.s.u.u.u.-.-.-.*.@.*.*.%.%.O.O.O.O.O.O.O.O.O.O.O.O.O.O.O.O.O.O.O.@.*.=.=.-.9.9.9.-.-.@.O.O.o.o.o.o.X.X.X.X.[ [ X.o.[ [ [ [ o.o.o.o.o.X.o.o.X.X.o.o.o.o.+.+.O.O.O.O.@.@.@.-.9.w.y.y.y.y.i.i.i.p.t.0.0.0.0.0.r.i.f.f.n.B.S.H.E.`.E.E.K.R.R.R.F.F.G.Z.Z.Z.Z.Z.Z.Z.Z.Z.Y.Y.W.~.].{..X;XwXfXvXCXCXCXMXvXxXaX0X7X4X4X5X5X5X5X4X4X5X5X7X7X4X4X7X7X9XdXlXvXBXZXDXDXZXCXvXjXhXdXdXdXdXhXhXhXhXhXhXhXhXhXjXxXxXlXvXBXZXDXFXLXFXFXCXbXkXjXgXaXrXtXtXyXyXyXyXrX9X0X7X9XsXfXkXbXBXBXbXvXhXsX7X6X*X*X%X%X%X%X%XXXXX.X.X.X.X.X X X X;X*X2X0XdXhXkXhXhXsX8X1X*X#XXXXXoX[.[.[.[.[.[.[.[.[.[..X XoX#X*X1X7X7X9X9X9X8X5X5X1X*X;X;X%X%X#XXXXXXX@X@X;X;X*X*X*X*X1X2X2X4X4X7X7X9XtXsXsXsXsXsXsXsXtXtXtXyX0X8XeX7X7X7X7X7X7X7X7X4X7X7X4X4X4X4X4X4X4X4X4X6X6X1X1X1X1X1X=X*X=X*X*X*X%X#X%X%XXXXXXXXXXXXXXXXXXXXXXXXXXX+X+X+X+XOX&X%X&X&X%X%X%XOXOX X X{.{.].]._.T.E.K.F.F.F.F.G.G.G.L.L.L.G.E.W.[.oX#X1XrXrX$X/.$.' ^ ) [ X.u.u.t.f.b.z.U.U.$.' ' ' X.+.:.:.:.$.$.[ ~ ~ P P P P L P P P F F P I I I L F E ~ ~ / ' } } ` $.' ' [ [ o.O.@.*.-.9.9.i.s.c.A./.$X6X9XsXyX5XXXR.x.5.@.@.O.o.o.o.X.X.X.O.O.O.O.O.X.O.O.@.@.=.#.9.0.t.f.d.n.n.n.V.V.n.j.d.d.d.i.i.i.i.i.i.i.i.f.f.d.d.d.x.x.x.x.x.n.n.m.m.A.A.C.C.C.D.Z.Z.F.F.F.Y.Y.R.T.W.W.T.W.~.~.~.~.].].].[.].[.'.'.[.[.[.[.[.[.{.{.{.{.{.{.{.{.[.[.[.[..X.X.X.X.X.X[.[.'.'.'.]._.R.Y.E.}.}.Q.J.Z.S.m.m.n.m.V.V.v.s.y.u.",
"[ [ [ [ { { { { { { { { { [ [ [ { [ [ [ [ [ ] ] } } } / ~ P P P ~ ~ ~ ~ ~ ~ ~ / ( / ` ` ` ] [ [ [ X.X.o.o.+.O.O.O.@.@.#.-.-.@.v.v.c.z.$X9XsXdXsX9X9X9X8X6X6X=X=X%X*X%X%X#XXXXXXXXXXXXX.XoX.X.XXX X@X1X7XaXhXvXmXmXmXmXvXhX9X6X#X.X[.~.T.T.F.Z.Z.A.A.A.A.m.m.m.c.c.c.c.c.c.c.c.c.m.Z.Y.^.XX=X5X8X8X0X5X5X=X%X.X!.Y.Z.m.x.s.u.u.u.-.-.-.*.*.*.%.%.@.@.@.@.@.@.O.O.O.O.O.O.O.O.O.O.O.O.@.@.=.-.9.9.0.9.9.9.-.*.@.O.O.O.o.o.X.X.o.o.o.o.o.o.o.o.o.o.o.o.o.o.o.o.o.o.o.o.o.+.+.+.O.O.O.O.O.O.@.@.*.-.-.w.y.p.s.p.s.i.i.p.i.p.t.t.p.p.p.i.f.f.N.B.H.K.E.E.E.E.E.J.K.K.J.F.Z.Z.Z.Z.Z.Z.Z.Z.Z.Z.Y.Y.W.~.].{..X*XyXjXmXCXCXCXmXlXgX0X0X7X4X5X5X5X5X5X4X4X5X5X4X4X7X7X7X9XsXdXlXbXCXZXDXDXZXbXkXhXdXdXdXdXdXdXhXdXdXhXhXhXhXhXfXxXhXlXvXMXZXDXFXLXFXFXBXbXkXjXgXaXrXtXyXyXeXeXyXrX9X0X7X9XsXfXjXvXBXBXbXvXhXaX7X4X=X*X%X%X%X%X%XXXXX.X.X.X.X.X X X X X;X*X5XiXhXhXhXhXdX9XqX1X*X#XXXoXoX[.[.[.[.[.[.[.[.[..X.XoXXX#X1X6X4X0X9X9X8X8X5X2X=X%X%X;X%X%X@X%X%X%X#X%X;X;X*X*X*X*X1X2X4X4X7X7X0XtXtXtXsXsXsXsXsXsXtXtXtXeXeXeXyX7X7X7X7X7X7X7X7X7X7X4X4X4X4X4X4X5X5X5X4X2X2X1X1X1X=X=X=X=X*X*X*X%X%X%X%X%XOXXXXXXXXXXXXXOXOXOXOXOXOXOXOXOXOX&X&X&X-X-X%X%XOXOX X.X.X{.|.]._.T.E.K.F.F.F.F.G.G.H.H.H.G.E._.[..X#X*X4XrXtX).oX$.X.` ` ] ' ' ' ' ' ' E / E ` ~ ` ' ' ' ' +.:.:.-.-.X.[ / ^ P F E F P P F F E F L L P F F F E ~ / ' | } ' ' ' X.o.o.X.X.X.X.X.#.9.v.v.b.1.U.(.8XsXsX5XXXT.c.5.#.O.O.O.o.X.X.X.X.O.O.O.O.O.O.O.O.@.@.=.#.9.9.0.i.f.d.n.n.V.V.n.n.n.d.d.i.i.i.i.i.i.i.i.f.d.d.x.x.x.x.x.x.n.n.m.m.m.C.C.C.C.C.Z.Z.F.F.F.F.F.Y.R.R.T.T.T.W.W.~.~.~.].].].].].[.[.[.[.[.[.[.[.[.{.{.{.{.{.{.{.{.[.[.[.[.[.[.[.[.oXoX[.[.'.'.'.].W.R.Y.W.}.oX[.^.Q.Q.R.Z.Z.G.E.R.D.m.c.c.",
"[ [ [ [ { { { [ [ [ [ [ [ [ [ [ [ [ ] ] [ [ ] ] } } } / ~ P P P P ~ ~ ~ ~ ~ ~ ^ / / / / ` ` ] [ [ [ X.o.o.o.O.O.O.O.@.@.@.-.@.g.v.c.z.$X8XsXsXtX9X8X8X8X6X6X1X=X*X%X%XXXXXXXXX X.XoXoXoX.X.XoX X.X X@X1X7XaXhXkXmXNXmXmXvXfX9X6X#X X'.!.T.Y.Z.Z.A.A.A.A.m.m.m.c.c.c.c.c.c.c.x.c.c.c.A.Y.^.oX=X3X5X8X8X8X4X6X*XXX[.T.F.A.c.c.u.u.9.9.-.-.*.*.*.*.@.@.@.@.@.@.O.O.O.O.O.O.O.O.O.O.O.O.@.@.=.-.9.9.9.t.t.0.-.@.@.O.O.O.o.o.o.o.o.o.o.o.o.o.o.o.o.o.o.o.o.o.o.o.o.o.o.o.o.+.+.+.O.O.O.O.@.O.@.@.*.-.-.w.y.p.s.s.s.i.i.i.p.p.p.p.p.p.p.i.f.d.M.H.K.E.E.E.E.E.E.J.K.J.F.Z.Z.Z.Z.Z.Z.Z.Z.Z.Z.Z.Y.Y.W.~.'.{.XX2XsXkXmXCXCXMXmXxXiX0X7X5X5X5X5X5X5X5X4X4X5X5X4X4X4X4X7XrXsXdXlXbXCXZXDXZXCXbXkXxXdXaXaXdXdXdXdXdXdXdXdXdXdXhXxXgXxXxXkXbXZXDXFXLXFXFXCXbXkXjXgXaXrXtXyXyXeXeXyXrX9X0X7X7XtXdXhXvXbXBXbXkXjXaX7X4X1X*X%X%X%X%X%XXXXX.XXX.X.X.X X X X XXX%X6X8XdXhXhXhXdXtX8X1X*X*X#XoXoX.X[.[.[.[.[.[.[.[.[..X XXX#X*X1X6X8X0X0X8X8X8X5X6X*X;X;X;X;X%X%X%X%X#X%X;X;X*X*X*X*X1X2X2X4X4X7X0XrXtXtXtXsXsXsXsXsXsXsXtX9XeXeXyX7X7X7X7X7X7X7X7X7X7X4X4X4X4X4X4X5X5X5X4X2X2X1X1X=X=X=X=X=X*X*X*X%X%X%X%X%XOXXXXXXXXXXXXXXXXX%XOXOXOX%XOX%X%X%X%X-X-X-X%X%XOXOX X.X.X{.{.]._._.E.E.G.F.G.G.G.F.K.K.K.E._.[..X#X*X6X7XsXtXz.' ' / ` ` ` ' ` ` ` ` ` E ` ` ] [ [ ~ ' ' ' X.#.#.#.-.u.:.+.[ E E E E F P F F F F F F F F F F S S F E ( | ' $.X.o.o.O.O.O.O.O.O.#.#.X.E A b A <.!.6X1X3X^.T.c.u.#.O.O.O.o.X.X.X.X.O.O.O.O.O.O.O.O.@.@.@.#.#.9.5.t.f.d.j.n.n.V.V.n.j.d.d.d.i.i.i.i.i.i.i.f.d.d.x.x.x.x.x.x.n.n.m.m.m.C.C.C.C.C.Z.Z.F.F.F.F.F.Y.R.R.T.T.T.W.W.~.~.~.].].].].].].[.[.[.[.[.[.[.[.[.{.[.[.[.[.[.[.[.[.[.[.[.[.[.[.oXoX[.[.[.'.'.].W.E.Y.W.}.+X[.[.^.^._.R.F.E.`.}.Q.R.A.A.",
"[ [ [ [ } { } { [ [ { { { ] [ ] [ ] ] ] [ [ ] ] [ } } / ~ F F F F F P ~ ~ ~ ~ ^ ( ( / / ` ` ] [ [ [ { o.o.o.O.O.O.O.*.@.*.*.@.s.s.c.P.oX8X9X9X9X8X8X8X5X6X1X*X*X%X%X%XXXXXoX XoXoX X.X.XoXoXoX[.[.[. X@X1X7XsXdXkXmXMXCXbXkXdXeX1X@X X[.!.T.Y.Z.Z.A.A.A.m.m.m.c.c.c.c.x.x.x.x.x.c.c.A.Z.Z.T.[.OX-X3X5X8X8X5X4X=XXX[.~.Y.A.c.c.t.t.0.9.-.-.*.*.@.@.@.@.@.@.O.O.O.O.O.O.O.O.O.O.O.O.O.@.@.=.-.9.0.0.y.y.9.-.@.@.O.O.O.O.o.X.X.X.o.o.o.o.o.o.o.o.o.o.o.o.o.o.o.o.o.o.o.+.+.+.O.O.O.O.O.O.O.@.@.*.-.-.9.y.i.s.f.s.s.i.a.p.p.i.i.p.p.i.a.d.n.M.H.K.E.Q.Q.Q.E.R.J.J.Z.C.C.C.C.C.Z.Z.S.Z.Z.Z.Z.Y.T.W.W.'..X*X8XfXvXbXBXMXvXhXiX0X7X8X4X5X6X4X4X2X4X4X4X4X4X4X4X4X4XeXyXsXdXlXbXVXZXZXZXBXvXjXxXgXsXsXsXaXaXaXaXdXdXdXdXxXgXgXaXgXhXkXbXCXZXFXGXFXFXZXbXkXjXxXaX9XyX9X9XeXeXyX7X7X7X7X7X9XsXhXvXbXbXmXkXhXaX7X2X1X=X*X%X%X%X%XXXXXXX X.X.X.X.X X.X X XXX*X5X9XdXhXhXfXdX0X4X1X*X#XXXXX X.X[.[.[.[.[.[.[.[.[..X.XXX%X*X1X2X5X8X9X8X0X8X4X1X*X*X%X%X%X%X%X;X;X*X;X*X*X*X*X*X1X6X2X4X4X7X7X0X9XtXtXsXsXaXaXaXdXaXsX9X9XyX0XrX0X0X0X7X7X7X7X7X7X7X7X5X5X5X5X4X4X4X2X2X2X2X2X2X2X-X=X=X*X*X*X%X%X%X%X%X%X%X%XOXOXOXOXXX%X%X%X%X%X%X%X%X%X*X-X=X=X-X-X%X%XOX.X.X.X{.{.]._._.`.E.G.G.G.G.G.K.K.E.T._.[.XX%X=X5X7XtXsX6X^.:.[ / ` ' ' X.[ O.-.+.:.u.:.X.[ ] ) ) ' ' #.u.9.9.9.9.-.u.u.b.u.$.E A E E ( E F F F F F F F F F F F F E E ( ' } [ +.X.o.O.@.@.#.#.#.#.' ' z.<.z.z.z.z.z./.Z.c.u.#.@.O.o.o.o.O.O.X.+.O.O.O.O.O.O.O.O.@.@.@.=.9.9.0.i.f.d.n.n.n.V.n.n.n.d.d.i.i.i.i.i.i.f.d.d.d.x.x.x.x.x.x.n.n.m.m.m.C.C.C.C.C.Z.Z.J.F.F.F.F.Y.Y.R.T.R.T.W.W.~.~.~.~.].~.].].].].'.[.[.[.[.[.[.[.[.[.[.[.[.[.[.[.[.[.[.[.[.[.[.[.[.[.[.[.'.]._.`.E.Y.Y.~.[.[.^.}.}._.Y.Z.Y.Q.`.}.R.C.c.",
"[ [ [ [ [ [ [ [ [ [ [ [ [ ] ] ] ] ] ] ] ] ] ] ] } } } / P F F F F F F F P ~ ~ ( ( ( / / ` ` ` ] [ [ [ o.o.o.o.O.+.O.O.%.*.*.@.y.s.x.P.oX6X8X8X0X8X8X9X8X6X1X=X*X%X%XXXXXXX XoX.X.XoXoX[.[.[.[.[.'.].'. X@X1X8XtXxXkXmXCXMXmXkXdXeX6X#X X[.~.T.Y.Z.C.A.A.m.m.m.c.m.x.c.c.x.x.s.s.c.x.x.m.m.F.R.].+X&X-X3XwX8X8X5X=XXX[.T.Y.A.c.f.t.t.0.9.-.-.*.@.@.@.@.@.@.O.O.O.O.O.O.O.O.O.O.O.O.O.@.@.#.=.9.9.9.0.u.9.-.@.@.O.O.O.O.o.X.X.X.o.o.o.o.o.o.o.o.o.o.o.o.o.o.o.o.o.o.o.+.+.+.O.O.O.O.O.O.O.@.@.@.*.;.9.0.y.s.f.f.f.i.i.a.p.i.p.t.p.p.a.d.N.M.K.E.E.Q.E.E.J.F.Z.C.A.C.A.A.A.C.C.C.C.Z.Z.Z.Z.Y.T.W.~.'.XX1X9XhXvXbXbXvXkXgX0X7X4X5X4X6X6X4X4X2X2X4X4X4X4X4X4X4X7X0XtXsXdXvXbXVXZXZXCXbXvXjXaXaXrXtXsXaXaXaXaXaXaXgXdXgXaXaXaXgXxXlXvXCXZXFXGXFXFXZXbXkXjXxXaX9XyX9X9XeX0XyX7X7X7X7X7X9XsXdXhXvXbXmXkXjXgXrX4X6X=X*X%X%X%X%X%XXXXXXXXX.X.X X X.X.X.XXX%X3X9XdXhXhXfXdXrX7X1X1X*X#XXX X.X.X.X.X[.[..X[.[.{..X.XXXXX%X*X1X5X8XeX9X9X8X8X6X2X-X%X*X*X*X*X*X*X*X*X*X*X*X*X*X*X6X6X4X4X7X7X7X0X9XtXsXsXsXaXdXdXaXaXsXtXtXyXtX9X9X0X0X7X0X7X7X7X7X7X8X5X5X5X4X4X4X2X2X2X2X2X2X2X-X*X=X*X*X*X%X%X%X%X%X%X%X%XOXOX%X%X%X%X%X%X*X*X-X-X%X*X-X=X=X=X=X-X%X%XOX.X.X.X{.{.].].]._.`.E.G.G.G.E.E._._.'.{.XX-X3X5X8X7XtXtX=Xz.' } ..' ' ' ' b.D.D.D.D.D.c.:.+.[ ` ` X.@.-.y.9.9.9.9.9.i.D.Q.}.oXb.W W E E E F F F F F F F F F F F F F F E E / ' } [ X.O.*.*.-.u.u.u.' z.^.oX&X&X=X$X(./.P.z.5.#.@.O.o.o.o.O.X.X.+.O.O.O.O.O.O.O.O.O.@.*.#.#.9.0.t.f.d.d.n.n.V.V.n.n.d.d.i.i.i.i.i.i.f.d.d.d.x.x.x.x.x.x.n.m.m.m.m.D.C.C.C.C.Z.Z.J.F.F.F.Y.Y.Y.R.T.R.T.W.W.W.~.~.~.].~.~.~.].].].].[.[.].[.[.[.[.[.[.[.[.[.[.[.[.[.[.[.[.[.[.[.[.[.[.'.~.]._.`.W.R.T.T.T.].Y.A.Z.A.c.P.P.N.A.c.c.c.c.",
"[ [ ] ] [ [ [ [ [ [ [ [ ] ] ] ] ] ] ] ] ] ] ] ] } } } ~ P P F F F F P P P ~ ~ ~ ~ / / / ` ` ` ] [ [ [ { o.o.o.+.+.+.O.%.*.-.@.y.s.x.c.oX3XqX7X8X8X8X9X8X6X1X1X*X%XXXXXXXoX X.XoXoXoX[.[.[.[.[.[.W.`.].'. X@X1X7XaXhXvXMXCXMXmXkXdX8X6X#X.X'.W.Y.Z.C.A.A.m.m.c.c.m.c.x.c.x.f.s.s.s.f.f.x.c.N.C.K._.}.+X&X3X6X8X8X5X*XXX[.~.Y.A.c.s.t.t.9.9.-.=.@.@.@.@.@.@.@.@.@.O.O.O.O.O.O.O.O.O.@.@.@.=.=.=.-.9.0.9.-.-.*.@.@.O.O.O.o.X.o.+.o.o.o.o.o.+.+.o.o.o.o.o.o.o.o.o.o.+.+.+.+.O.O.O.O.O.O.O.O.@.@.@.*.-.-.9.t.s.f.f.f.f.f.s.i.i.p.p.i.a.d.n.M.H.J.Q.K.J.J.J.C.C.A.A.m.A.A.A.A.A.C.C.C.C.S.Z.Z.Y.T.W.~.{.%X5XsXkXvXbXbXkXhXiX7X4X4X3X3X6X6X4X4X2X2X2X2X4X4X4X4X4X7X0XtXdXhXvXbXZXZXZXBXbXkXxXaXrXrXtXtXrXaXaXaXaXaXgXgXaXaXaXaXgXxXjXvXCXZXFXFXFXFXZXbXkXjXxXaXrXrX9X9X0X0X9X9X7X7X7X7X9XtXdXjXvXvXmXkXjXgXtX7X4X=X*X%X%X%X%X%XXXXXXXXX.X.XXXXXXX.X.X XXX*X8XsXfXhXhXfXgXrX4X1X*X*X X X X.X.X.X.X.X.X{.{.{..X.XXXXX%X%X=X6X5XeX9X9X9X9X8X5X3X-X-X*X*X*X*X*X*X*X*X*X*X*X*X1X2X2X4X2X4X7X7X7X0XtXsXsXsXaXdXdXdXdXaXsXsXrXaXrXrXtX9X9XrXrX0X0X0X0X8X8X5X5X5X5X5X5X5X2X2X2X2X2X2X1X=X=X=X=X*X*X*X*X%X%X%X%X%X%X%X%X%X%X%X*X*X*X-X-X-X-X2X2X=X=X=X-X%X%XOXOX.X.X{.{.|.|.|.|.`.`.`.T.E._.`._.'.{.XX%X3X5X9XsXaX0X8X(.u.] ^ ) / ' ' ' c.Z.K.Z.F.E.Z.c.5.5.5.#.#.=.=.=.9.9.9.9.5.x.D.Q.}.Q.A.A.z.! W E P U U P F F F F G F G F G F S F E ~ / ` [ o.*.-.:.u.s.5.$.c.!.#X5X0X9X8X6XoXY.m.t.#.@.O.o.o.o.O.X.X.+.X.O.O.O.O.O.O.O.O.@.@.#.#.9.5.0.i.d.d.n.n.V.n.n.n.d.d.i.i.i.i.i.i.f.d.d.d.x.x.x.x.x.x.n.m.m.m.A.D.S.C.C.C.Z.Z.J.F.F.F.Y.Y.Y.R.W.R.T.T.W.~.~.~.~.~.~.].].].].~.].].].].].].[.[.[.[.[.[.[.'.[.].].].'.[.[.[.[.[.[.'.'.~.W._.`._.W.Y.Y.Y.Z.A.P.P.f.i.5.5.5.5.5.5.0.9.",
"[ [ ] ] [ [ [ [ [ [ [ [ ] ] ] ] ] ] ] ] ] ] ] ] } } } ~ P P P F F F P P P ~ ~ ~ ~ / / / ` ` ` ` ] [ [ [ X.o.o.o.+.+.+.%.;.-.#.u.s.x.c.}.=X6X4X5X8X8X9X8X5X6X6X=X%XXXXXXX X.XoXoX[.[.[.[.[.^.^.~.W.W.W.'.[. X#X1X7XaXlXvXbXCXMXmXkXdX8X6XXX[.].E.J.S.A.A.m.m.x.x.x.x.x.x.f.s.s.s.f.s.f.f.f.f.n.M.K.Q.].oX#X=X6X5X5X2X%XXX[.W.Y.A.x.s.t.t.9.-.#.#.@.@.@.@.@.@.O.O.O.O.O.O.O.O.O.O.O.@.@.@.#.=.=.-.-.9.9.-.-.*.@.@.O.O.O.o.X.o.+.o.o.o.o.o.+.+.o.o.o.o.o.o.o.o.o.o.+.+.+.+.O.O.O.O.O.O.@.O.@.@.@.@.=.-.9.t.t.f.f.f.f.f.f.i.i.i.i.i.d.n.B.B.K.K.K.J.F.G.C.Z.A.A.m.m.A.A.A.A.A.A.A.C.C.C.Z.Z.Y.T.T.~..X=X9XfXvXvXvXkXjXaX0X4X6X6X6X6X3X6X6X4X2X2X2X4X4X4X4X4X4X7X0XtXdXhXvXbXZXZXVXBXvXlXxXaXrXrXtXtXrXrXaXaXaXaXgXgXaXaXaXaXaXgXjXvXbXZXFXFXFXFXZXbXkXjXxXaXaXrXyX9X0X0X9X9X7X7X7X7X9XtXdXhXvXvXvXkXjXgXsX7X4X1X=X%X%X%X%X%X#XXXXXXXXX.XXXXXXXXX X XXX*X6X9XdXhXjXjXgXaX7X4X1X*X#X X X.X X X X X.X.X{.{..X.XXXXXOX%X=X6X5X8X9X9X9X9X0X8X5X2X2X-X=X=X*X*X*X*X*X*X*X*X*X1X6X2X2X2X4X7X7X7XrXyXtXsXsXaXdXdXdXdXdXaXaXsXsXaXrXrXtX9XrXrX7X0X0X0X8X8X5X5X5X5X5X5X5X2X2X2X2X2X2X1X=X=X=X=X*X*X%X%X%X%X%X%X%X%X%X%X%X%X*X*X-X-X2X2X-X2X2X3X=X=X=X*X%X%XOXOX.X.X{.{.{.|.|.|.|.`._._.`._._.'.{.XX%X3X5X8XtXdXaX7X1X^.u.[ ] } ' ' ' ' c.G.K.G.P.F.E.F.G.Z.J.D.g.8.#.@.w.9.9.9.s.f.m.A.5.z.!.wXsX$Xz.| F L P L F F F F G G G F G F F F F F E ~ ` X.+.:.u.s.c.u.' A.~.3XqX0XpX0X6X#X~.C.s.#.@.O.o.o.o.o.X.X.X.X.O.O.O.O.O.O.O.O.@.@.#.#.6.5.5.i.i.d.d.n.n.n.n.n.d.d.f.i.i.i.i.i.f.d.d.d.x.x.x.x.x.x.n.n.m.m.A.C.C.C.C.C.Z.Z.J.F.F.F.F.Y.Y.R.W.R.T.T.W.W.W.~.~.~.~.].].~.~.~.].].].].].].[.[.[.[.[.[.[.'.[.].].].[.[.[.[.[.[.[.'.'.~.~._.W.].].T.+X-XZ.~.oXF.c.i.i.0.5.5.9.9.=.=.",
"] ] ] ] [ [ [ [ [ [ [ ] ] ] ] ] ] ] ] ] ] ] ] ] } } } / ~ P P P F F P P P ~ ~ ~ ~ ~ / / / ` ` ` ] [ [ [ { o.o.o.+.+.+.O.*.@.O.v.s.5.f.}.OX-X2X5X5X0X8X8X0X4X6X=X%XXXXXXXXX X.X[.[.^.[.[.^.~.!.~.W.W.W.~.~.[.oX#X1X9XdXkXbXbXCXCXbXkXiX8X*XXX[.W.R.Z.C.A.m.x.x.x.x.x.x.x.s.s.f.f.f.f.f.i.f.a.d.n.M.H.E.~..X#X*X6X1X1X*XOX.X].W.F.C.c.s.t.0.6.#.#.#.@.@.@.@.@.*.O.@.O.O.O.O.O.O.O.O.O.@.@.=.=.=.=.=.-.-.-.-.*.@.@.O.O.O.X.X.o.o.o.o.o.o.o.o.o.o.o.o.o.o.o.o.o.o.o.+.+.+.+.O.O.O.O.O.O.@.@.@.@.@.*.=.9.9.t.i.i.f.f.f.f.f.f.i.f.f.x.n.B.B.H.K.K.K.K.G.C.C.C.m.M.m.m.m.m.A.A.m.M.A.A.C.C.Z.Y.Y.T.~.oX#X3XsXjXvXmXvXjXaX9X4X6X6X6X6X6X1X6X6X6X2X2X2X2X4X4X4X4X4X7XyXtXgXjXvXBXVXVXCXBXvXlXdXaXaXrXrXrXrXrXrXrXaXaXgXgXaXaXaXaXgXgXjXkXMXZXFXFXFXFXZXbXkXjXxXaXrXtXyXyXyXyX9X9X9X0X0X0X7XyXaXjXkXvXvXmXkXjXdXyX4X2X=X*X%X%X%X%X%X#X#XXXXXXXXXXXXXXXXX XXX*X6X0XiXhXjXjXjXgXrX7X2X*X%XXX XXX.X.X.X.X.X.X.X.X.X.XXXOX%X%X*X1X4X8X9X9XiXtX9X0X5X5X5X2X-X-X*X*X*X*X1X1X1X1X1X1X2X2X2X4X4X4X7X7XrXrXtXsXaXdXdXdXdXdXfXdXdXgXaXaXrXrXtXtXtXyX0XeXeXeX0X8X8X8X8X8X5X4X5X5X4X2X2X2X1X1X=X=X-X=X*X*X*X*X%X%X*X%X%X%X%X%X%X%X*X=X-X2X2X2X2X2X3X3X2X2X=X*X%XOXOX+X+X.X{.{.{.|.|.|.|._._._._.].|..XXX%X=X5X8X9XsXaXgXtX5X$Xb.+.' ' ' ' ' ' c.J.K.G.F.F.F.G.J.J.D.D.d.0.#.=.@.@.@.@.O.#.5.z. X1XsXdXjXtX$Xz.:.+./ ~ P F F F D G F F F E ( F F F F F F E ' ' b.b.b.u.X.b.Q.^.8X0XiXiXqX#X^.A.s.#.@.O.o.o.o.o.X.O.X.X.O.O.O.O.O.O.O.O.@.@.@.#.#.5.5.0.i.d.d.n.n.n.n.j.d.d.d.f.f.f.f.f.f.d.d.d.x.x.n.n.n.n.n.n.m.N.m.C.C.C.C.C.Z.Z.Z.G.F.F.Y.Y.Y.R.W.W.W.W.W.W.W.W.W.~.~.~.~.].].].~.~.'.'.].].].].].].].].].].'.'.].].].].].[.[.[.[.[.'.'.'.'.].{..X!.=X:XY._.+XZ.m.d.i.t.9.9.9.=.=.*.",
"] ] ] ] ] ] ] ] [ [ [ ] ] ] ] ] ] ] ] ] ] ] ] ] } } } ^ ~ P F F P P P P P ~ ~ ~ ~ ~ ~ / / ` ` ` ` ] [ [ [ { +.o.o.+.+.+.@.+.O.v.s.5.f.}.+X%X2X5X8X8X8X9X0X0XqX1X*X#XXXXX.XoX.X[.^.^.[.^.~.~.~.~.~.~.W.W.T.~.~.oX#X6XiXhXvXbXBXCXBXbXhXiX6X#X.X'.W.R.Z.A.m.x.x.d.x.x.x.d.s.s.f.s.f.s.i.i.i.a.a.d.n.M.G.Y.~. XXX#X@X@X#XOX+X}.].E.F.C.c.s.t.0.5.6.#.#.#.@.@.@.@.O.@.O.O.O.O.O.O.O.@.@.@.@.@.=.=.=.-.#.-.-.-.*.@.@.O.O.O.X.o.o.o.o.o.o.o.o.o.o.o.o.o.o.o.O.O.O.O.O.O.O.O.O.O.O.O.O.O.O.@.@.@.@.@.*.=.9.0.t.i.i.f.f.f.f.f.f.f.f.x.n.B.B.H.K.J.K.K.J.G.C.C.A.M.M.m.m.m.m.A.A.m.A.C.Z.C.Z.Z.Y.T.~.^.XX=X8XdXkXvXvXjXdXyX4X6X6X1X1X1X6X1X6X6X6X2X2X2X2X4X4X4X4X4X7XyXrXdXhXvXBXVXZXCXBXvXhXdXdXaXrXrXrXrXrXrXaXaXaXgXgXaXaXaXgXgXgXjXkXMXZXFXFXFXFXZXbXvXjXxXaXrXtXtXyXyXyX9X9X9X0X0X0X7X9XaXfXkXvXvXvXkXjXgXtX7X4X1X*X*X%X%X%X%X#XXXXXXXXXXXXXXXXXXX XXX*X6X7XiXdXhXjXjXjXaXrX4X1X*X%XXXXXXX.XXXXXXXXX.X.XXXXXXXXX%X%X*X1X1XqX9XiXsXiX9XeX0X8X5X3X2X2X-X*X*X*X1X1X1X1X1X1X2X2X2X2X4X4X7X7XrXrXtXsXaXdXdXdXdXdXfXfXdXdXgXaXaXrXtXtXtXtX9X0XeXeX0X0X8X8X8X8X8X4X5X5X4X4X2X2X6X1X=X=X-X=X*X*X*X*X*X*X*X*X%X%X%X%X*X*X=X=X2X2X2X2X2X2X3X3X1X1X=X*X%XOXOX+X+X.X{.{.{.{.|.|.|.|.|.].].{..XOX&X=X5X8X9XtXiX9X0XqX=XoXc.+.' ' ' [ X.+.c.J.Q.E.F.F.F.J.J.D.D.D.n.5.#.=.X.X.' ' @.u./.oXwXtXfXhXjX9X#X^.D.u.O.] ~ ~ F F D D F F E ( ( E F F F G S S F E E :.b.b.o.b./.oX6X0XpXiXqX$X^.A.c.#.@.O.o.o.o.o.X.O.X.X.O.O.O.O.O.O.O.O.@.@.@.#.#.5.5.0.i.d.d.n.n.n.n.j.d.d.d.d.d.f.f.f.f.d.d.d.x.x.n.n.n.n.n.n.N.N.M.C.C.C.C.C.C.Z.Z.G.F.F.Y.Y.Y.R.W.W.W.W.W.W.W.W.~.~.~.~.~.].].].].].'.'.].].].].].].].].].].'.'.].].[.].].].[.[.[.].'.].].].].oXXX XuX-XT.+X+X~.J.B.d.p.9.9.=.=.*.*.",
"] ] ] ] ] ] ] ] ] ] ] ] ] ] ` ` ] ] ] ] / ] ] } } ..] ~ P F P P P P P P P P ~ ~ ~ ~ ~ / / / ` ` ` ] [ [ [ { o.o.o.+.+.+.+.O.@.D.s.5.f.}.+X*X2X2X5X8X0X9X0X0X5X6X*X#XXXXX.XoX[.[.^.^.~.~.~.!.~.~.~.~.~.~.W.T.~.^.oX$XqXiXhXvXbXBXBXbXkXdX8X*XXX X~.T.Y.A.m.x.x.d.d.x.s.s.s.s.f.f.f.f.i.i.i.i.f.f.j.N.M.Z.Y.!.!. X XXXXX.XoXoX}._.Q.J.A.n.f.i.t.0.6.#.#.#.@.@.@.@.@.O.O.O.O.O.O.@.@.@.@.@.@.=.=.=.=.#.=.-.=.*.@.@.O.@.O.X.o.o.o.o.o.o.o.o.o.o.o.o.o.o.O.O.O.O.O.O.O.O.O.O.O.O.O.O.O.O.@.@.@.@.@.*.=.9.0.t.i.i.f.f.f.f.f.f.f.n.m.M.B.K.K.K.K.J.K.H.C.C.C.M.M.N.N.M.A.A.A.A.A.A.C.C.Z.Z.Y.T.~.!..X&X6XtXjXzXmXkXjXsX8X5X6X6X1X1X1X1X6X6X6X6X4X4X4X4X5X5X4X4X7XrXrXaXfXjXvXBXVXVXBXbXvXhXdXaXaXrXrXrXrXrXaXaXaXaXgXgXgXgXaXgXgXxXjXkXMXZXFXFXFXFXZXbXvXkXxXaXaXtXtXyXyXyX9X9XeXyX0X0X9X9XaXdXjXvXvXvXmXkXfXdXyX5X6X1X=X*X%X%X%X%X%X#XXXXXXXXXXXXXXXXX%X@X*X4X9XaXhXjXkXjXfXrXeX2X=X%XXXXXXXXXXXXXXXXXXXXXXXXX%X%X%X%X*X1X1X1X7XtXsXsXtXtX9X9X8X5X4X2X2X-X-X-X1X1X1X1X1X1X2X4X2X2X4X4X7X7X7X0X0XsXsXdXdXdXdXfXfXfXdXgXgXgXsXsXsXsXrXtXtXtXyXyX9X9XeXeX8XeXeX5X5X5X5X4X5X5X2X2X2X=X=X-X*X*X*X*X%X%X*X*X*X*X*X*X-X-X3X3X3X3X3X3X3X3X3X3X2X3X=X*X%XOXOX+X+X.X{.{.{.{.{.|.{.{.{.{.{..XOX-X=X5X8XeXtXtXtX9X8X3X$X^.u.X.' ' [ X.+.$.u.S.Q.Q.G.G.J.J.J.D.D.D.n.i.#.#.6.6.6.6.v.D.oX=X9XsXsXsXtX1X XR.D.g.:.o.] / ~ ~ F F F E ( | | ~ E E F F D S S F S A E :.+.:.U.(.6X0XpXiXqX$X~.A.c.#.@.@.o.o.o.O.O.O.O.O.O.O.O.O.O.O.O.O.@.@.@.#.#.9.5.0.i.d.d.n.n.n.n.n.j.d.d.d.d.d.d.d.d.d.d.x.x.x.n.n.x.x.n.n.N.N.M.M.C.C.C.C.C.C.Z.G.F.F.Y.Y.Y.Y.W.W.W.W.W.W.~.~.~.~.~.~.~.~.~.~.~.].'.'.].].].].[.[.].].].'.'.'.'.'.~.].~.~.].].].].].].].].].[..X.X3XuX&X}.&X&XQ.D.x.t.9.#.=.*.*.;.",
"] ] ] ] ] ] ] ] ] ] ] ] ] ] ` / / / / / / / ] } } ..] ~ F F F F P P P P P P ~ P ~ ~ ~ ~ / / ` ` ` ` ] [ [ [ X.X.o.o.o.o.X.O.+.D.s.5.f.}..X%X-X2X4X5X9X9X9X9X5X6X*X#XXXXX.X[.[.^.~.!.~.!.!.~.~.~.~.~.T.T.T.T.T.~.^.XX$X4XaXkXnXMXBXbXvXhX9X1X$X X^.~.Y.Z.A.m.x.x.d.d.s.s.s.f.f.f.s.s.i.i.i.i.f.f.f.n.N.A.Z.Y.T.!.!.oX.X[.}.}.}.}._.E.F.C.N.n.f.i.5.5.5.#.#.@.@.@.@.@.O.O.O.O.@.@.@.@.@.@.@.@.#.#.#.#.=.=.=.=.@.@.@.@.O.O.o.o.o.o.o.o.o.o.o.o.o.O.O.O.O.O.O.O.O.O.O.O.O.O.O.O.O.O.O.O.@.@.@.@.*.=.=.9.w.0.i.i.f.f.f.f.f.x.n.n.M.S.H.K.K.K.J.K.J.C.C.C.C.M.M.M.N.m.A.A.A.A.A.A.Z.Z.Z.Y.T.~.!. XXX3X8XsXjXkXkXkXgX9X4X6X1X1X1X1X1X1X6X6X2X6X4X4X4X4X5X5X4X7X7XrXrXaXfXjXvXBXVXBXBXbXvXhXdXaXaXaXrXrXrXrXaXaXaXaXgXgXaXaXaXgXgXxXxXkXmXZXDXFXFXFXZXMXvXkXhXaXaXtXtXyXyXyX9X9XeX9X0X0X9X9XaXfXjXvXvXvXmXkXjXdXtX8X4X6X=X*X*X%X%X%X%X#X%XXXXXXXXXXXXXXX%X@X*X1X7XiXdXjXkXkXjXgXyX4X1X*X%XXXXXXXXXXXXXXXXXXXXXXX%X%X%X%X*X=X1X1XqX0XtXtXtXtX9X9X9X8X5X5X3X2X2X2X1X1X1X1X1X2X2X4X2X2X4X4X7X7X7X7XrXtXsXaXaXdXfXfXfXfXdXdXdXgXgXsXsXsXrXaXtXyXyXyX9X9XeXeXeXeX8X8X5X5X5X4X5X5X4X2X2X=X=X=X=X*X*X*X-X-X*X*X-X=X-X-X-X-X3X3X3X3X3X3X2X2X3X3X2X3X=X*X%XOXOX+X+X.X{.{.{.{.{.{.{.{.{..X.X#X&X1X5X5XeXtXtXtXtX8X=XoXU.<.:.X.X.X.X.+.+.#.$.c.D.D.D.D.D.D.D.S.S.S.f.i.6.#.t.t.i.i.D.Q.$X6XiXiX9X9X4X$X!.Z.f.y.-.+.{ [ ] / ~ ~ E ~ ( | | ~ E E F F F S F S ' E A E / ' <./.6X7XaXaXqX$X~.A.c.9.#.@.o.o.o.O.O.O.O.O.O.O.O.O.O.O.@.@.@.@.@.#.#.9.5.t.i.d.d.n.n.n.n.n.j.j.d.d.d.d.d.d.d.d.d.x.x.x.n.n.x.x.m.m.N.N.M.M.C.C.C.C.C.C.Z.G.F.F.Y.Y.Y.Y.W.W.W.W.W.W.~.~.~.~.~.~.~.~.~.~.~.~.].].].].].].].].].].].].].!.!.!.].].~.~.].].].].~.W.W.W.T.W.~.!.z.+X}.z.z./.c.v.x.t.9.-.*.*.*.*.",
"` ` ` ` ` ` ] ] ] ] ] ] ] ] / / / / / / / / ] [ } ..] ~ F F F F F F P P F P P P ~ ~ ~ / / / ` ` ] ] ] ] [ [ [ o.o.o.o.o.o.O.+.D.s.5.f.R..X%X-X2X2X5X9XiXiX9X8X6X*X#X#XXX X[.[.^.~.~.~.~.~.W.W.W.T.T.T.T.T.T.T.T.~.oXXX1X7XdXkXvXbXMXvXjXdX9XqX$XoX^.~.Y.Z.A.m.x.x.x.s.s.s.f.f.i.f.i.f.f.f.s.s.d.f.x.c.N.A.A.Z.Y.T.~.].[.}.}.oXoX}.].W.F.G.M.N.n.f.i.5.5.9.#.#.@.@.@.@.@.@.O.@.@.@.@.@.@.#.#.=.=.=.=.=.9.-.=.@.@.@.@.O.O.O.O.O.O.O.O.O.O.O.O.O.O.O.O.O.O.O.O.O.O.O.O.O.O.@.@.@.@.@.@.@.@.@.=.=.=.=.9.w.t.i.f.f.f.f.n.N.M.M.M.S.K.K.K.K.K.J.K.J.C.C.C.C.A.A.M.A.A.A.A.C.C.Z.C.C.Z.F.T.~.!.[.XX-X6XtXfXkXkXkXjXaX8X6X6X1X1X1X1X1X1X6X6X3X3X3X3X4X4X4X5X4X7X7XrXaXdXhXkXbXCXZXCXMXvXkXhXxXaXaXaXaXrXrXrXaXaXsXsXsXsXaXaXaXaXgXxXxXjXvXCXFXFXFXDXCXMXvXkXxXgXaXsXtXtX9XyX9X9XeXeXeX0X9X9XsXdXjXkXvXvXmXvXjXfXsX0X4X6X1X=X=X*X%X%X%X%X%X%X#X#X#X#XXXXX%X%X*X*XqX0XaXhXkXkXjXfXsX0X4X=X*X%XXXXXXXXX%X%X#X#X#X#X#X#X%X%X%X*X=X1X1X4XyXsXiXsXiXiX9X9X0X8X5X5X4X2X2X2X2X2X2X4X4X4X4X2X4X4X4X7X7X7X0X9XsXaXaXaXdXdXdXdXfXdXdXdXgXgXsXsXsXsXtXtXtXtXyX9XyXeXeXeXeXeXwX5X4X5X5X4X4X2X2X2X2X2X-X-X-X-X2X2X=X=X=X-X2X2X-X3X3X3X3X3X3X3X5X3X3X3X2X2X-X*X%X%XOXOX.X.X.X{.{.{.{.{.{.{..X.X%X%X=X6X5X8X0X9XtXeX8X3X&XA.$.' X.[ X.X.o.o.O.+.+.$.' ' 5.c.D.V.D.S.S.B.x.i.0.t.6.0.f.N.Q.^.=X5X9XiXiX9X6X XT.C.f.9.@.O.o.o.} } / / ~ ~ ~ ~ ~ F F F F E / ~ ' E ' | E n V S E z.6X9XfXiX9X6X^.Z.c.9.-.*.%.&.O.O.+.+.+.O.O.O.O.O.O.@.@.@.*.@.@.@.#.9.5.0.i.i.d.d.n.n.n.N.n.d.d.d.d.d.d.d.f.d.d.x.x.x.n.n.x.x.m.m.N.m.M.C.C.C.S.S.C.C.F.F.F.F.Y.Y.Y.Y.W.W.W.W.W.W.W.W.W.W.~.~.~.~.~.!.~.~.~.~.].].].].].].].].].].~.~.~.~.~.~.~.~.].].]._.W.W.W.W.W.R.Y.A.c.f.f.5.5.u.u.s.s.w.9.-.@.O.O.O.",
"` ` ` ` ` ` ` ` ] ] ] ] ] ] / / / / / / / / ] } ....] ~ F F F F F F P P F P P P ~ ~ ~ / / / ` ` ` ` ] ] [ [ [ [ X.o.o.o.o.+.X.Q.s.5.f.R.{.%X-X1X1XqX9XiXdXiX8X6X=X%X#XXX X[.^.~.~.~.~.~.~.W.T.T.T.T.T.T.Y.Y.Y.T.T.!.oX#XqX0XdXkXnXbXmXmXjXdX9XqX#XoX^.!.Y.Z.A.c.x.x.d.s.s.f.f.f.f.i.f.f.f.s.s.d.x.x.c.n.N.N.A.F.F.Y.Y.W.].}.}.oXoX{.].W.E.F.G.C.n.d.i.i.t.9.#.#.=.*.*.*.*.@.@.@.@.@.#.#.=.=.=.=.6.6.9.9.9.=.=.@.@.@.@.@.@.*.*.*.*.*.*.*.*.*.%.%.*.@.@.@.@.@.@.@.*.*.*.*.*.*.*.*.*.=.=.=.=.=.=.6.9.w.q.p.i.f.f.f.N.N.M.C.C.C.H.K.K.K.K.K.E.K.J.S.C.C.C.C.A.A.C.C.A.A.C.C.C.C.Z.Z.Y.T.!.[. X%X3X4XtXjXzXkXkXdX9X5X6X1X1X1X1X1X1X1X2X6X3X2X3X3X4X4X4X4X7X7XrXrXaXdXhXvXbXCXCXCXbXvXkXhXgXaXaXaXaXrXrXrXaXaXsXaXsXsXgXaXaXaXgXxXxXhXvXBXDXFXFXDXCXMXvXkXxXxXaXsXtXtX9X9X9X9XeXeXeXeX9XyXtXaXhXkXvXbXvXvXkXfXsXyX8X6X6X1X=X*X*X%X%X%X%X%X#X#X#X#X%X%XOX%X%X*X1X7XaXdXhXkXjXjXdXyX8X1X=X-X&X%XXXXX%X%X#X#X&X&X#X#X%X%X%X%X*X*X1X4X7XtXsXsXiXsXiX9X9X0X8X5X5X4X4X2X2X2X4X4X4X4X2X2X4X4X4X4X7X7X7X0XtXsXsXiXdXdXdXdXfXfXdXdXgXgXgXsXsXsXsXsXsXsX9X9X9XeXeXeXeXeXwX5X4X4X5X4X4X4X2X2X2X2X-X-X-X-X2X2X=X=X=X-X-X2X3X3X3X3X3X3X3X3X5X2X3X6X3X2X-X*X%X%XOX.X.X.X.X{.{.{.{..X.X.XXXOX&X=X6X6X8X8X8X0XeXeX5X=XQ.5.+.' { { o.X.o.X.+.+.+.+.' ' X.u.D.D.D.B.B.B.f.i.0.t.5.i.k.C.~.#X6X9XiXiXiX8X%X[.Y.N.i.5.#.O.+.o.{ } } ' ] ( ~ F S S S S S F ' U.z.W W ' ( S M M A A Q ).qX9XsX5XoXR.c.u.-.*.%.&.O.O.+.+.+.+.O.O.O.O.O.@.@.@.*.@.@.@.#.9.9.0.i.a.d.d.n.n.M.V.n.d.d.d.d.d.d.d.f.d.d.d.x.x.n.n.n.x.m.N.m.m.M.C.C.C.S.S.C.C.F.F.F.F.Y.Y.Y.Y.W.W.W.W.W.W.W.W.W.W.~.~.~.~.~.!.~.~.~.~.].].].].].].].].].].W.W.W.~.~.~.~.~.].]._.W.W.W.W.Q.Q.R.D.m.c.s.i.7.9.w.w.0.9.-.*.@.O.o.o.o.",
"` ` ` ` / / ` ` ) ] ] ] ] ] / / / / / / / / ] } ....] ~ F F F F F F P P P P P P ~ ~ ~ / / / ` ` ` ` ` ] [ [ [ [ [ X.o.o.o.+.$.Q.s.5.f.J.[.%X*X1X1X6X9XsXiXiX8X5X1X*X#XXXoX[.^.~.~.~.~.~.~.W.T.T.T.T.T.T.Y.Y.R.Y.Y.T.!. X$X1X0XxXvXnXmXmXzXkXfX9X1X#X X^.~.Y.Z.A.c.x.d.d.d.f.f.f.f.f.f.f.s.x.x.x.x.x.x.n.N.N.N.C.C.C.F.Y.E.].{.{..X.X{.'._.T.E.G.M.n.f.f.i.0.9.9.=.=.=.=.=.=.=.=.=.#.=.9.9.9.w.w.w.w.q.q.q.9.9.=.#.@.@.@.@.@.*.*.@.@.@.@.@.@.@.@.*.@.@.@.@.@.@.@.*.*.*.*.*.=.=.=.=.=.=.=.=.6.6.6.6.w.q.p.d.d.f.j.N.N.C.G.G.J.K.E.Q.Q.E.E.Q.K.J.S.C.S.S.C.C.C.C.C.C.C.C.C.H.G.F.Y.T.~.'. XXX3X2X7XsXjXkXkXjXaX8X6X6X=X=X=X=X1X1X1X2X2X3X3X3X3X4X4X4X7XyXyXrXrXdXhXkXvXBXZXZXCXbXkXjXxXgXaXaXaXaXrXrXrXaXaXaXaXsXaXgXgXaXaXgXgXxXhXlXbXZXFXFXFXZXCXvXvXjXhXaXsXtXtXtX9XyXyX9X9XeX0XyXyXtXaXhXkXmXmXbXvXkXjXdXsX0X5X4X3X=X=X-X*X*X*X%X%X%X%X%X%X%X%XOX%X%X*X2X7XsXgXhXkXkXjXdXsX0X4X2X-X-X%X%X%X%X&X&X&X&X&X#X#X&X&X%X%X*X*X*X1X4XyXsXsXdXdXsXsXtXtXeX0X8X4X5X4X2X2X4X4X4X4X4X4X4X4X4X4X7X7X7X7XtXtXsXsXaXdXdXdXfXgXdXdXdXdXgXgXgXgXgXgXaXsXtXtXyXyXeXeXeXeXeX8X4X4X5X5X4X4X2X2X2X2X2X-X-X-X-X2X2X2X2X2X3X3X3X3X5X5X5X5X5X3X5X3X3X3X3X2X-X%X%XOX+X+X.X.X{.{..X.X.X.X.XXX%X-X3X3X6X5X8X8X8X8X5X4X1X&Xc.#.[ {  . .o.o.o.O.+.+.O.X.X.X.' :.D.D.B.B.B.B.d.i.0.0.r.f.N.G.].$X0XiXhXiX9X5XXX'.G.c.i.5.#.O.+.o.{ [ } } } ' ` ~ E F S S S S ' U.wX=X^.W E D S M M m f A Q ).6X6XoXQ.c.t.-.*.%.%.+.+.+.+.O.O.O.O.O.O.*.*.*.@.@.@.@.#.#.9.9.0.i.s.d.d.n.n.V.V.n.n.n.n.d.d.d.d.f.f.f.d.x.x.n.n.n.n.n.m.m.m.M.C.C.C.S.S.C.C.G.G.F.F.Y.Y.Y.R.W.W.W.W.W.W.W.W.W.W.W.W.W.~.~.~.~.~.~.~.~.~.~.].].].~._.W.W.W.W.~.~.W.W.~.W._._.W.W.W.Q.Q.Q.Q.R.S.M.x.s.i.0.6.=.=.-.#.@.O.O.O.o.o.{ ",
"/ ` ` ` / / / / / / ] ] ] ] / / / / / / / / ] { &.>.] ~ F F F F F F L L L P P P ~ ~ ~ / / / ` ` ` ` ` ` ] [ [ [ [ [ { o.{ X.$./.c.5.s.J.}.XX%X*X=X2X9XsXiX9X8X5X6X=X%XXXoXoX[.~.W.W.T.W.T.T.T.T.Y.Y.Y.Y.Y.Y.Y.Y.Y.Y.T.!. X*X1X7XxXvXmXmXmXvXkXfX8X1X#XoX^.~.Y.Z.m.x.f.d.d.f.f.f.f.s.s.s.d.x.x.x.x.x.x.n.n.N.N.N.m.C.C.C.J.Q.].}.{.{.{.{.{.'.W.R.F.M.n.x.f.i.7.9.9.6.6.6.=.=.=.=.=.9.6.9.w.0.q.q.q.y.t.y.y.w.w.9.-.=.=.*.*.*.*.*.*.*.*.*.*.*.*.*.*.*.=.=.=.=.=.=.=.=.=.=.=.=.=.=.=.=.6.6.6.6.6.6.w.q.e.a.d.j.n.N.N.C.G.F.K.E.Q.Q.E.E.E.E.K.K.J.G.C.S.S.C.C.C.C.C.C.C.C.S.G.J.J.Y.T.!.[.XX*X3X4XtXfXjXkXxXdXtX8X6X1X=X*X*X=X=X=X=X2X2X3X3X3X5X4X4X4X7XyXrXrXaXgXhXkXvXBXZXZXCXvXkXjXxXgXaXaXaXaXrXrXrXaXaXaXgXsXsXgXgXaXaXgXxXxXxXlXbXZXFXFXFXZXCXbXvXlXhXdXaXtXtXtX9XyXyX9X9X0X0XyXyXrXaXdXkXvXMXmXvXkXjXdXsXyX8X5X3X1X=X=X*X*X*X%X%X%X%X%X%X%X%X%X%X%X*X1X4XyXgXdXhXjXjXfXdXyX8X5X3X2X*X%X%X%X%X&X&X&X#X#X#X&X&X%X%X%X*X*X1X2X7XtXsXsXsXiXsXsXtX9X0X8X4X5X4X4X2X4X4X4X4X4X4X4X4X4X4X4X7X7X7XyXtX9XiXsXaXgXdXdXdXdXdXdXdXdXdXgXaXdXdXdXaXsXtXtXyXeXeXeXeX8X8X4X4X5X5X4X4X2X2X2X2X2X-X-X-X2X2X2X2X2X2X3X3X3X3X5X5X5X5X5X5X5X3X3X3X3X-X-X%X%XOX+X+X.X.X{.{..X.X.XXXXX%X=X3X3X3X5X5X8X8X8X5X4X-X-XoXf.@.X.&. . .o.X.o.o.+.+.O.o.[ [ [ :.v.D.B.V.B.V.d.i.0.0.i.k.M.G.{.=X9XpXhXiX8X-X[.R.M.f.i.9.#.O.+.o.+.[ [ } [ [ ] ' ` / ~ F S S ' W z.$XsX(.,.D F P D M W v p b ! ).^.^.c.5.9.#.O.+.+.+.+.+.O.O.O.O.O.O.*.*.*.@.@.@.#.#.#.9.9.0.t.a.d.d.n.n.V.V.n.n.n.n.d.d.d.d.f.f.f.d.x.x.n.n.n.n.n.n.m.N.M.C.C.C.S.S.C.C.G.G.F.F.Y.Y.Y.R.W.W.W.W.W.W.W.W.W.W.W.W.W.W.~.~.~.~.W.W.W.W.~.~.~.~.W.W.W.W.W.T.W.W.W.W.W.W.W.W.W.W.Q.E.E.Q.Q.R.S.M.v.x.s.t.9.=.=.#.@.O.O.o.o.o.{ { ",
"/ / ` ` / / / / / ) ) ] ] ] / / / / / / / / ` { &.>.| F D D S S F D L L P P I ~ ~ ~ / / / / ` ` ` ` ` ] [ [ [ [ [ [ [ [ { [ $./.c.5.s.D.`.}.+XOX%X2X8XtX9X9X9X8X6X=X%XXXXXoX[.~.T.W.W.W.Y.Y.Y.Y.Y.Y.Y.Y.Y.Y.Y.Y.Y.Y.Y.T.[.XX%X2XaXhXvXvXvXvXvXkXdX9X6X$XoX^.~.Y.Z.m.n.x.f.f.d.f.f.f.x.x.x.x.x.x.x.x.n.n.n.x.n.x.n.n.N.M.C.J.Q._.].{.{.{..X{.[.].E.J.S.M.x.f.i.0.0.0.9.9.9.6.6.9.9.9.0.0.0.q.t.y.y.y.y.p.p.y.q.9.9.=.=.=.*.*.@.@.=.*.*.*.*.*.=.=.=.=.=.=.=.=.=.=.=.=.=.=.=.=.=.6.6.6.6.6.6.6.w.w.w.e.p.d.d.n.n.N.N.G.F.K.`.Q.`.Q.Q.Q.E.E.J.J.J.G.S.C.C.C.C.S.C.S.C.C.C.J.J.J.R.Y.~.!. XXX*X4XrXsXjXkXkXjXgX9X6X1X=X=X*X=X*X*X=X=X=X=X3X3X3X5X5X4X7X7XyXrXrXaXdXjXvXbXBXVXCXbXvXkXjXgXaXaXaXrXaXaXsXaXaXaXsXsXsXsXsXgXaXaXgXxXxXlXkXbXZXDXFXDXZXCXMXvXlXhXdXsXsXtXtXtXyXyX9X9XeXeXyXyXrXrXgXjXvXMXMXvXvXkXhXdXsX7X5X5X6X=X=X=X*X*X*X%X%X*X%X%X%X%X%X%X*X*X*X2X8XyXdXfXjXjXjXdXsX0X4X4X2X-X*X%X%X%X#X#X$X$X&X&X%X%X%X%X*X*X*X*X1X4XtXtXsXsXsXdXsXsX9X9X0X8X4X4X4X4X4X4X4X4X4X4X4X4X4X4X4X7X7X7X9XyX9X9XsXaXaXdXdXdXdXdXdXdXdXdXdXdXdXdXdXgXsXtXtXyXeXyXyX0X8X8X8X5X5X5X5X4X5X2X2X2X2X2X-X-X2X2X3X3X2X2X3X3X3X5XwXwXwXwX5X5X5X5X3X6X2X=X-X%X%XOX+X+X.X{..X.X.X.XXXXX%X*X3X3X3X5X5X5X6X5X5X5X2X*X&X^.5.s.u.X.&.&.X.X.&.&.o.O.+.o.{ { { >.v.D.V.V.V.V.d.e.q.r.d.N.H.W.+X3X7XrXsX9X6X&X~.J.x.s.5.#.#.O.O.o.o.X.[ [ [ [ [ ' [ ] ` ~ F S F E ' ,.,.W D D F E E U.,XiX(.W M M | /./.m.i.#.+.+.+.+.+.+.O.O.O.O.O.O.%.%.*.@.@.#.#.#.#.9.6.0.t.i.d.d.n.n.N.V.N.n.n.n.j.j.j.j.d.d.d.d.n.n.n.n.x.n.n.n.m.m.B.B.S.S.S.S.S.S.G.F.F.F.F.Y.Y.Y.W.W.W.T.W.W.T.T.T.T.W.W.W.W.W.W.T.W.W.W.W.W.W.W.W.W.W.W.W.T.T.W.W.T.W.W.W.W.W.W.Q.E.E.E.E.Q.E.R.Z.S.c.x.s.0.9.=.#.#.@.O.O.o.X.{ { { ",
"` ` ` / / / / / / / / ) ] ) / / / / / / / / ` [ &.>.| P D F F F F F L P P I ~ ^ ^ ^ / / ` ` ` ` ` ` ` ] [ [ [ [ [ ' ' ' [ ' W ^.s.5.i.D.Q._.}.oX%X*X3X8X8X9X9X8X6X*X%XXXXXoX[.~.W.W.W.T.Y.Y.Y.Y.Y.Y.Y.Y.Y.Y.Y./.Z.Y.Y.Y.!.'..X*X9XiXhXkXvXvXnXvXjXsX9X6X$XoX^.T.Y.Z.A.N.n.f.d.f.f.f.x.x.x.x.x.x.x.m.n.x.n.x.x.x.x.n.n.N.M.S.J.Q.W.].[.{..X.X[.[.W.Q.R.J.S.x.f.i.t.t.t.t.0.0.9.9.0.0.0.0.0.0.t.t.t.y.y.p.p.y.q.0.9.9.=.=.=.=.#.#.=.=.=.=.=.=.=.=.=.=.=.=.=.=.=.=.=.=.=.=.=.=.6.6.6.6.w.6.6.w.w.0.q.p.p.d.d.n.n.M.C.F.K.`.`.`.`.`.Q.Q.E.E.J.J.J.G.S.C.C.C.C.C.S.S.Z.S.J.J.K.R.R.T.~.[. XXX*X4XsXgXjXjXjXfXsX8X6X=X=X*X*X*X*X*X-X-X=X=X3X3X3X5X4X4X7XeXyXrXrXaXxXjXvXbXBXVXCXMXvXkXjXgXaXaXrXrXaXaXaXaXaXaXsXsXsXsXsXsXgXaXgXxXhXhXnXCXZXDXFXFXDXZXMXvXkXhXdXsXsXtX9XtXyXyX9X9XeXeXyXyXrXrXgXjXkXMXMXMXvXkXhXdXsX0X8X5X6X1X=X=X=X*X*X%X%X%X%X%X%X%X%X%X*X*X*X2X4XeXsXdXfXjXjXfXdXtX9X4X4X2X*X*X*X%X%X#X$X$X&X&X%X%X%X%X*X%X*X*X2X4XeX9X9XsXsXsXdXsX9X9X8X0X8X4X4X4X4X4X4X4X4X4X4X4X4X4X4X4X7X7XeX0X9X9XtXsXsXaXgXgXdXdXdXdXdXdXhXjXdXdXdXgXsXtXtXyXeXyX7X0X0X8X8X5X5X5X5X4X5X4X2X2X2X2X-X-X2X2X3X3X2X2X3X3X5X5XwXwXwXwX5X5X5X5X3X3X2X=X*X%X%XOX+X+X.X.X.X.X+XOX%X#X*X1X3X5X5X5X5X5X5X3X6X3X*X%X&XY.c.D.c.' { o.+.+.%.&.+.O.+.X.{  .{ &.v.D.m.V.V.n.g.e.r.i.x.B.J.^.&X3XeXrX9X8X=X$XQ.D.g.t.9.#.@.O.O.o.o.o.X.[ [ [ [ ' ' ] ] ] | ( E S S S V V V C V F ' z.6X9X8X1.U B n E $.c.D.c.$.$.+.' +.O.O.O.O.O.O.O.%.O.@.@.@.@.#.#.#.9.6.0.t.i.f.d.d.n.n.V.N.n.n.n.n.j.j.j.j.j.d.f.d.n.n.n.x.n.n.n.m.m.B.B.S.S.S.S.S.S.G.G.F.F.F.F.Y.Y.W.W.T.T.W.W.T.T.T.T.W.W.W.W.W.W.T.W.T.T.T.T.T.T.W.W.T.T.T.W.E.E.E.E.T.T.W.W.E.E.E.E.E.E.E.E.E.R.G.Z.m.x.i.t.6.=.6.=.*.@.O.o.{ [ [ [ ",
"/ / / / / / / / / / / / ) ) / / / / / / / / ` +.>.>.} I L P F ~ ~ ~ ~ I I ~ ^ / / / / ` ` ` ` ` ` ` ` [ [ [ X.X.+.+.X.X.' ' $.=Xu.#.0.m.R.W.].[. X@X=X3X5X8X8X8X6X1X*X#XXX.X[.~.W.W.W.Y.Y.Y.Y.Y.Y.Y.Y.Y.Z.Z.Z.Z.Z.Z.Y.Y.Y.T.'..X6X9XiXhXkXvXvXvXjXjXsX8X3X#XoX~.T.F.F.C.M.N.f.f.x.x.x.n.n.n.n.n.m.m.m.m.m.x.n.x.x.x.d.n.m.S.S.J.R.Q.W.].[.oXoX[.].~.Q.Q.J.B.n.f.f.f.f.s.t.y.y.0.0.0.0.0.0.0.t.t.i.y.p.p.y.y.y.0.w.9.9.9.=.=.=.#.#.=.=.=.=.=.=.=.=.=.=.=.=.=.=.=.=.=.=.=.9.6.6.6.9.w.w.0.w.0.0.0.t.i.i.d.j.n.n.M.F.E.`._._._.`.`.W.W.E.K.J.J.G.G.S.C.C.C.S.S.J.J.G.J.J.J.R.Q.Q.W.~..XXX#X1X7XsXfXjXjXfXdXyX4X1X=X=X*X*X*X*X*X*X*X-X=X3X3X3X5X4X4X7XyXyXrXaXaXxXjXvXbXBXZXCXbXvXjXjXaXaXaXrXtXaXaXrXaXaXaXsXsXtXtXsXsXgXaXgXxXhXxXvXCXDXDXFXFXDXZXCXvXkXhXdXsXsXsX9XtXyXyX9X9X9X9XeXyXyXrXgXjXkXMXMXMXvXvXjXdXaXtX8X5X5X1X1X=X=X*X*X*X*X*X%X%X%X%X*X*X*X*X*X1X4XeXtXsXsXfXjXfXfXdXtXrX4X2X2X*X*X*X%X%X%X%X%X%X%X%X%X%X*X*X*X*X-X3X5X8X8X9XsXsXsXsXtXyXtXeXeXeX4X4X4X4X4X4X4X4X4X4X4X4X4X4X4X7X0X0X9X9XtXtXtXsXgXgXgXdXgXdXdXdXdXdXdXdXdXdXdXsXtXyXyXyXeX0X8X0X8X8X5X5X5X5X5X5X3X3X2X2X2X2X3X3X3X3X3X3X3X3X5X5XwX5XwXwXwX5X5X3X3X3X2X=X*X%XOXOX+X+X+X+X+XOXOX%X%X*X*X6X5X5X5X5X5X5X3X3X=X&XXXXXoXz.A.}.Q.:.[ { +.:.+.+.+.+.O.X.{ { ] &.u.V.m.N.n.j.d.p.i.d.m.D.Q.}.=X5XyX7X7X6X$XoXR.V.s.0.9.-.@.O.O.+.o.o.o.X.X.[ [ ' [ [ [ [ ' | / E F S S S S M F | :.<.!.(.&X<.( D S S n E $.U.Q.z.$.$.O.O.O.O.O.O.@.#.@.@.@.@.@.@.#.#.#.6.w.0.q.0.p.d.d.j.n.N.V.n.n.n.n.n.n.j.n.n.f.f.f.n.n.n.n.n.n.n.n.n.B.B.B.B.S.S.S.S.G.G.F.F.F.F.Y.Y.E.E.E.E.W.W.W.W.W.W.W.W.W.W.W.W.W.W.T.T.T.T.W.W.W.W.W.E.E.E.E.E.E.W.T.T.W.W.E.E.Q.E.E.R.R.E.Q.R.J.Z.A.x.s.0.6.6.6.=.*.O.O.o.X.[ [ [ ",
"/ / / / / / / / / / / / ) ) / ^ ^ / / / / / ] o.>.>...~ F ~ ~ ^ / / ^ ~ ^ / / ] ] ` ] ] ] ] ` ` ' [ [ [ X.o.o.+.:.:.-.-.:.:.z.oX5.#.5.x.J.W.W.'.'. X%X=X5X5X8X5X6X1X*X#XXX.X[.~.W.W.W.Y.Y.Y.Y.Y.F.Z.Z.Z.Z.Z.Z.Z.Z.Z.Z.Z.Y.Y.T.'.$X6X8XsXjXkXvXvXkXjXfXtX5X=XXX[.].T.Y.F.G.M.N.n.x.n.n.n.n.m.m.m.m.m.m.m.m.x.n.x.x.x.d.d.x.m.M.S.J.K.Q.Q.].}.oX}.[.].W.Q.Q.J.B.n.x.x.x.x.s.s.i.y.y.0.0.0.0.0.t.t.i.i.p.p.p.y.y.0.0.w.9.9.9.9.=.=.=.=.=.=.=.=.=.=.=.=.=.=.=.=.6.6.6.6.9.9.9.9.w.w.w.w.0.0.0.w.q.q.p.a.d.d.n.M.M.C.K.`.|.}.|._._.`.W.E.E.K.J.F.G.G.G.C.C.C.S.S.J.J.G.J.J.R.R.E.Q.~.[.XXXX*X4X7XgXfXjXjXdXtX7X2X=X*X&X%X*X*X*X*X-X*X*X-X3X3X5X4X4X4X7XyX0XrXaXgXhXlXvXbXBXZXCXbXkXjXfXaXaXrXtXtXaXaXrXrXaXsXsXsXtXtXsXsXsXaXgXxXxXjXmXCXDXDXFXFXDXZXCXvXkXhXdXsXsXsX9XtXyXyX9X9X9X9XeXrXyXrXgXfXkXmXMXMXMXvXkXhXdXtXeX5X5X6X6X=X=X*X*X*X*X*X%X%X%X%X*X*X*X*X*X*X2X4XeXtXsXsXfXjXhXfXgXrXyX4X2X*X*X*X*X%X%X%X%X%X%X%X%X%X*X*X*X*X-X3X3X5X8X8X9XsXsXsXtXtXtXyXeXeX7XwX4X4X4X4X4X4X4X4X4X4X4X4X4X7X8X0X9X9XyXyXtXtXtXtXsXgXgXdXdXdXdXdXdXdXdXdXdXsXtXyXyXyXeXyXeXeX8X8X5X5X5X5X5X5X3X3X2X2X2X2X2X3X3X3X3X3X3X5X5X5X5X5XwXwXwX5X5X5X3X3X-X-X*X%XOXOXOX+X+XOXOXOX%X*X*X=X1X5X5X5X5X5X6X5X3X=X&X&X.XoXQ.:.$.A.b.$.` { $.:.+.+.+.+.X.X.{ { ) { u.v.m.N.n.j.d.a.f.M.C.R.}.oX3X8X7X7X7X1XXX^.D.m.s.9.#.#.@.O.O.O.o.o.o.X.X.[ [ ' [ [ [ [ ' ' } } ' ` E F S A M 2.^./.P.^.D.:.' F S A S S A E 1.(.^.z.$.#.+.O.O.O.@.@.+.#.O.@.@.@.#.#.#.6.w.w.q.0.p.a.d.n.n.n.V.n.n.n.n.n.n.j.n.n.f.f.f.n.n.n.n.n.n.n.n.n.M.B.B.B.S.S.S.S.G.G.J.F.J.F.Y.Y.E.E.E.E.W.W.W.W.W.W.W.W.W.W.W.W.W.W.T.T.T.W.W.W.W.W.E.E.R.R.E.E.E.E.E.E.E.E.E.E.Q.E.E.R.R.E.R.R.Z.Z.C.c.s.5.6.6.6.=.*.O.O.X.[ [ [ [ ",
"/ / / / / / / / / / / / ) / ( ^ ^ ^ ^ ^ / / ] o.>.>.>.~ | $.` } } ] ] ` ] [ { o.o.o.{ [ [ [ [ { [ o.o.o.O.+.#.:.u.u.s.i.v.D.^.}.x.5.5.f.Z.R.W.'.'. XOX*X6X6X6X6X6X1X*X%XXX.X[.~.T.W.R.Y.Y.F.Z.Z.Z.Z.Z.Z.Z.Z.Z.Z.D.D.Z.Z.Z.F.F.T.[.#X3X8XsXhXkXvXkXjXjXdXeX3X%XXX[.].W.R.F.C.M.N.m.N.N.N.m.m.m.m.m.m.m.m.m.m.x.x.x.d.d.d.d.x.V.m.S.Z.R.Q.W.].}.}.[.[.].W.Q.Q.J.M.N.N.m.x.x.x.s.s.p.y.0.0.0.p.i.p.p.p.p.p.p.t.y.q.w.0.w.w.6.6.9.9.6.6.6.6.6.6.6.6.6.6.6.6.6.6.9.9.9.9.9.w.w.w.w.q.q.q.q.q.q.q.e.p.p.d.d.n.n.M.C.F.E.`.}.}.}._.}.Q.E.E.K.F.F.F.F.G.G.G.Z.S.Z.Z.J.J.J.J.R.Y.R.W.W.].oXXX#X1X7X9XdXjXjXdXgXyX5X2X-X%X%X&X&X%X&X&X-X-X*X*X-X2X2X4X4X4X7X0XrXrXaXgXhXkXvXbXBXZXCXMXkXjXfXaXaXaXaXaXaXaXsXsXsXsXtXtXtXtXtXtXsXgXgXxXxXjXvXCXZXDXFXFXDXZXCXbXnXlXdXaXsXsX9XtXyXyXyXyXyXyXyXrXyXrXaXxXkXmXMXMXMXmXjXjXdXsXyX8X4X4X2X=X=X=X*X*X*X%X*X*X%X%X*X%X*X*X*X*X-X2XeXtXsXdXjXjXjXhXdXaXrX7X4X1X=X*X=X*X*X%X*X*X*X*X%X%X*X*X*X*X-X-X3X5X5X5X0X9XtXtXtXtXtXyXeXeXeX7X7X4X4X4X4X4X4X4X4X4X4X4X7X7X8X0X0X0XeX9X9XyXyXtXtXsXgXgXdXdXdXdXdXdXdXdXdXsXsXtXyXyXtXeXeX7X7X7X4X4X4X5X5X5X5X2X2X2X2X2X2X2X4X5X5X4X5X5X5X5X5X5X5X5X5X5X3X2X2X=X=X*X%X%XOXOXOX+X+XOXOX%X%X*X-X2X2X5X5X5X5X5X5X3X3X=X&X+XoX}.D.$.' [ ' ' ' ' c.Q.Q.D.u.+.o.X.[ ] ] [ #.c.n.n.n.n.j.f.x.A.Z.Q.}.&X6X8X0X7X7X*XoX~.S.x.s.0.-.=.O.O.o.O.O.o.X.X.X.[ [ [ [ [ [ ' ' [ X.$.$.$.' E E A V | U.=X$X/.$.E S E E E E ' E E A E U.6X$X).$.E +.&.&.O.O.O.%.%.*.=.#.#.#.9.9.q.q.p.p.d.d.j.n.V.N.N.n.n.n.n.n.n.n.n.f.f.f.n.n.n.x.x.n.n.n.N.V.B.B.B.S.S.C.C.Z.Z.F.F.F.F.F.Y.R.E.R.R.E.W.W.W.R.R.W.W.W.W.W.W.E.W.W.W.W.W.W.T.E.E.R.R.R.R.E.R.E.E.E.E.E.E.E.E.E.E.E.E.E.E.R.J.J.Z.S.m.s.5.6.6.6.=.*.O.o.X.[ [ [ [ ",
"/ / / / / ^ / / ^ ^ / / _ / ^ ^ ^ ^ ^ ^ / / [ o.:.u.1.E <.b.$.+.&.o.o.+.&.&.&.>.;.%.&.o.o.o.o.o.o.%.&.&.%.*.:.u.s.x.x.x.x.A.T.^.D.#.#.n.Z.R.W.].'.{.OX%X=X3X6X6X6X1X=X%XXX.X[.~.T.T.R.Y.Y.Z.Z.Z.Z.Z.Z.Z.Z.Z.A.A.D.D.D.A.C.Z.F.F.T.[.XX3X8XdXhXkXvXkXjXfXtXeX-X%XXX.X[.W.R.F.Z.A.N.m.m.m.m.m.M.M.m.m.m.m.m.c.x.x.x.d.d.s.f.d.d.x.m.S.D.R.Q.W.^.[.[.[.[.].W.Q.E.J.S.C.m.m.c.x.x.x.s.s.a.p.p.s.s.s.s.s.s.s.p.y.y.y.w.w.w.w.6.6.6.6.6.6.6.6.6.=.6.6.6.6.6.6.6.6.9.9.9.9.9.w.w.w.q.q.q.q.q.q.q.q.e.p.i.d.k.n.n.M.H.K.Q._.}.}.}._._.W.E.E.K.F.F.F.G.G.G.G.Z.Z.S.J.G.J.J.J.J.Y.R.W.].[..XXX*X6X8XiXdXfXjXdXtXeX2X=X-X&X&X&X&X&X&X&X-X=X*X*X-X2X2X4X5X4X7X0XrXrXaXxXhXkXvXbXBXCXCXMXkXjXfXaXaXaXaXrXaXaXsXsXsXsXtXtXtXtXtXtXsXgXdXxXxXjXvXCXZXFXFXFXDXZXCXbXnXlXdXaXsXtX9XtXyXyXyXyXyXyXyXrXyXrXaXgXkXvXbXbXbXvXkXhXdXsXyX8X5X4X6X1X=X=X*X*X*X*X*X%X%X%X%X%X*X*X*X*X*X2X5XeXsXdXhXjXjXhXhXgXaXrX7X6X1X*X*X=X*X%X*X*X*X*X%X%X*X*X*X*X*X-X3X3X2X5X8X0X9X9XtXtXtXyXyXeXeX8X7X4X7X7X4X4X4X4X4X4X4X4X7X7X8X8X0X0X0X0X0X9X9X9XtXtXsXsXsXsXsXdXgXdXdXdXdXsXsXtXyXyXyXeXeX7X7X7X7X4X4X4X5X5X5X2X2X2X2X2X2X2X4X4X4X4X5X5X5X5X5X5X5X5X5X5X3X2X2X=X=X*X%X*X%XOXOXOXOXOX%X%X*X*X2X2X4X4X5X5X5X5X5X3X=X&X&X+X}.}.b.[ E ' ' E / ' z.Y.Q.A.u.#.o.X.[ ] ] [ X.u.x.n.N.N.n.n.m.C.Y.~.oX&X5X0X0X0X4X*X[.W.m.x.s.0.#.@.O.O.o.O.O.o.o.X.X.X.[ [ [ [ [ [ [ X.X.+.X.+.#.#.#.+.F A W z.<.$.E A S A E $.b.b.z.$.( D A W ).9XqXU.| $.$.$.+.o.%.%.*.=.#.#.#.=.6.w.0.t.p.a.d.d.n.n.n.N.N.n.n.n.n.n.n.n.f.f.f.n.n.n.x.x.n.n.n.N.V.B.B.M.S.S.S.C.Z.Z.G.G.F.F.F.Y.Y.Y.R.R.E.E.W.W.T.T.W.T.W.W.T.W.E.E.W.W.R.R.R.R.R.R.R.R.R.R.R.R.R.R.R.R.R.R.Y.Y.Y.Y.R.R.J.J.J.K.J.J.S.m.f.5.6.6.6.=.*.O.o.X.[ [ [ [ ",
"/ / / / ^ ^ ^ ^ ^ ^ ^ / / / ^ ~ ~ ~ ^ ^ / / ] o.:.b.b.E ^./.$.b.>.>.:.:.;.%.O.*.;.;.%.%.%.%.%.%.%.%.%.%.%.*.-.u.v.D.H.H.K.Q.}.Y.D.#.#.n.Z.R.W.].'.{..X&X-X3X6X6X6X1X=X&XXX.X[.~.T.R.Y.Y.Y.F.Z.Z.Z.Z.Z.Z.A.A.A.A.D.D.D.A.A.A.C.G.F.T.[.#X6X9XiXhXvXkXkXjXsXtX4X*X%XXX.X[.~.W.Y.C.A.C.m.m.B.B.B.B.M.M.m.m.m.m.x.x.x.d.s.s.s.s.s.s.x.m.S.J.R.Q.Q.^.[.[.[.[.].W.Q.E.J.J.S.C.m.m.x.x.d.d.d.s.s.s.s.s.g.g.s.s.p.p.p.y.t.0.w.9.9.9.9.9.6.6.6.6.=.6.6.6.6.6.6.6.6.6.9.9.9.9.9.9.w.w.q.q.q.0.q.q.q.e.e.p.i.d.j.n.M.C.J.K.Q._._._.}._._.W.E.E.E.F.F.F.G.G.G.G.Z.Z.S.J.G.G.J.J.R.R.W.W.}.}..X#X*X8X9XiXdXfXfXdXyX4X2X*X%X%X#X$X%X%X%X%X&X&X-X*X-X2X2X4X4X4X7X7X0XrXaXxXhXkXvXCXCXBXBXbXkXjXxXgXaXaXrXrXrXrXsXsXsXsXtXtXtXtXtXtXsXgXdXdXxXhXvXCXZXFXFXFXDXZXCXbXnXlXdXaXsXtX9XtXyXyXyXyXyXyXyXrXrXrXaXgXjXvXbXbXbXvXkXjXdXsXyX7X4X4X2X1X=X=X*X*X*X*X*X*X*X%X*X%X*X*X%X*X*X=X2X8XtXdXhXhXkXkXhXxXaXrX7X4X1X1X*X=X*X*X%X%X%X%X%X%X*X*X*X*X*X*X-X-X2X2X5X5X0X0X9XtXtXyXtXeXeXeX7X7XeX7X4X4X4X4X4X4X4X4X7X7X7X7X0X0X0X0X9X9XyXyXyXyXtXtXtXtXsXsXgXgXdXdXdXsXsXtXtXtXtXyXyXyX0X0X8X8X4X4X5X5X5X3X2X2X2X2X3X3X5X5X5X5XwXwXeXeXeXeX8X5X5X5X2X2X2X=X=X*X%X%X%X%XOXOX%X%X*X*X*X-X2X4X5X4X5X5X5X5X3X3X=X&X+XoX}.Q.b.' E ' $.' / ' b.T.Q.A.u.#.+.X.[ ` ] [ ' #.s.n.N.N.N.N.m.Z.T.[.&X3X5X0X0X0X1X@X!.Y.m.f.t.9.#.@.O.O.o.O.O.o.o.o.X.X.X.X.X.X.X.X.X.X.X.X.X.X.#.u.s.b.b.$.W A M M v v M M E /.^.~.Z.z.$.~ A A A A ).hXhX(.<.W | $.+.O.@.@.#.#.#.#.9.9.w.7.i.i.d.d.j.n.n.N.N.n.n.n.n.n.n.n.f.f.f.n.n.n.n.n.n.n.n.n.V.B.B.M.S.S.C.C.C.C.G.Z.F.F.F.F.R.R.Y.Y.E.E.W.W.W.Y.W.W.W.W.W.W.Y.Y.E.E.Y.Y.R.R.R.R.Y.Y.Y.Y.F.F.F.Y.Y.F.R.R.R.R.R.R.R.R.J.J.J.K.J.Z.S.V.f.5.6.6.6.=.*.O.o.X.[ [ [ [ ",
"^ / / / ^ ^ ^ ^ ^ ^ ^ / / / ^ ~ ~ ~ ~ ~ / / [ o.:.b.b.W $X5X$./.+.v.v.u.#.$.$.$.:.:.#.$.$.$.$.+.+.@.$.$.@.#.-.u.s.v.V.n.V.Q.}.Q.x.5.9.i.D.R.W.W.'.'..X%X-X2X2X2X2X2X=X&XXX.X[.].W.R.Y.Y.Y.Z.Z.Z.Z.Z.Z.Z.A.A.A.A.A.A.m.m.m.m.m.A.G.F.T.oX#X6X9XiXlXkXkXjXgXsXyX2X-X%X%X.X[.W.T.F.C.A.A.m.B.B.B.B.M.M.m.m.m.c.x.x.x.d.s.s.s.s.s.f.d.x.m.S.D.J.Q.Q.~.^.].^.].W.W.Q.E.E.K.J.S.S.V.n.n.d.d.d.d.d.d.s.s.s.s.s.s.p.p.p.y.0.w.9.9.9.9.9.6.6.6.6.6.6.=.=.6.6.6.6.6.6.9.9.9.9.9.9.0.0.q.w.q.0.q.q.0.e.e.p.i.d.j.n.M.C.J.E.Q._._._._._._.E.E.E.E.F.F.F.F.G.G.G.Z.Z.S.J.G.G.J.J.Y.Y.W.~.].{..X#X1X8XiXiXdXfXfXsXeX4X1X*X%X%X#X#X%X%X%X%X&X%X*X*X-X2X2X4X4X4X7X0X0X0XaXxXxXkXbXCXCXBXbXbXkXxXgXgXaXaXrXrXrXrXtXsXsXsXtXtXtXtXtXtXsXgXdXxXxXjXvXCXZXFXFXDXDXZXCXbXnXlXdXaXsXtX9XtXyXyXyXyXyXyXyXrXrXrXaXgXjXkXbXbXbXvXvXjXdXaXyX7X4X4X6X1X=X=X*X*X*X*X*X%X*X*X*X%X*X*X%X%X*X*X2X5XeXsXfXhXkXkXjXhXdXaX0X7X6X1X*X*X%X*X%X%X%X%X%X%X*X*X*X*X*X*X-X-X2X2X5X5X8X0XeXtXtXyXtXeXeXyX7X7XeX7X4X4X4X4X4X4X4X4X7X7X7X7X0X0X0X0X9X9XyXyXyXyXtXtXtXtXsXsXgXgXdXdXgXsXsXtXtXtXyXyXyX9X9X9X8X8X4X4X5X5X5X3X2X2X2X2X3X5X5X5X5X5XwXwXeXeXeXeX8X5X5X5X2X2X2X=X-X*X%X%X%X%X%X%X%X*X*X*X-X1X4X4X5X4X5X5X5X3X3X-X&X&X+X}._.Q.s.' W $.:.$.' ' b./.Q.A.5.#.O.X.[ ` ] [ ' +.5.x.N.M.N.P.A.Y.]..X&X3X8X0X0X7X@X XT.Z.c.i.5.#.#.@.O.O.o.O.O.o.o.o.X.X.X.X.X.X.X.X.X.X.X.X.X.X.@.#.i.v./.^./.<.S S A A N H A z.$X+XT.c.+.' ~ ( U G v Q ,XhXhX).<.,.$.$.O.@.@.#.#.#.6.9.9.9.0.i.d.d.k.l.n.n.N.n.n.n.n.n.n.n.f.f.f.n.n.n.n.n.n.n.n.n.V.V.B.M.S.C.C.C.C.C.Z.Z.J.F.F.F.Y.Y.R.Y.E.E.W.W.W.Y.W.R.R.R.Y.Y.Y.Y.E.E.Y.Y.R.R.R.R.Y.Y.Y.Y.F.F.F.F.Y.F.R.R.J.J.J.J.J.J.J.J.J.J.J.J.D.N.d.5.5.6.6.=.*.O.o.X.[ [ [ [ ",
"^ / / ^ ^ ^ ^ ^ ^ ^ ^ ( / ( ~ ~ ~ ~ ~ ~ / / [ +.u.A.&X(.MXNX(./.$.}.l.5.T.5X7X6X6X$Xz.).).<.<.<.W ' $.$.$.$.$.#.O.+.O.O.#.#.+.s.#.#.w.g.c.J.K.W._.'..XXX*X-X2X2X2X2X=X-X#XoX[.].W.Y.Y.Y.F.Z.Z.Z.Z.Z.C.A.A.A.A.D.A.m.m.m.m.m.m.N.M.G.Y.!. X1XqXiXhXhXjXjXfXgXaXrX4X2X=X&X.X'.W.Y.F.Z.A.M.M.M.B.B.M.M.M.M.m.m.x.x.x.d.s.s.s.s.s.s.f.s.x.x.M.S.D.R.Q.Q.Q.Q.~.W.W.W.E.E.E.E.K.H.S.M.m.n.n.d.d.d.d.d.g.g.d.s.s.f.i.p.p.q.7.w.w.w.w.w.6.6.6.6.9.9.6.6.6.6.6.6.6.6.9.9.9.9.w.w.w.w.q.0.q.q.t.p.p.p.p.p.a.d.j.N.M.C.J.E.Q._._._._._._.E.E.E.F.F.F.J.G.G.G.G.G.G.Z.Z.G.J.J.R.Y.Y.W.~.[..XXX%X3X8XiXiXdXdXdXyX7X2X*X*X%X%X#X#X#X#X%X%X&X&X%X%X-X=X2X6X4X5X7X7X9XaXaXxXjXvXbXCXCXBXbXvXkXxXgXgXaXaXrXrXrXrXrXrXrXtXsXsXtXtXtXtXrXaXaXgXxXxXvXCXZXDXFXFXFXZXCXbXvXkXdXsXsXtXtXtXtXtXtXtXyXyXrXrXrXrXaXgXjXkXvXMXMXbXvXjXfXgXtX7X4X4X6X2X1X=X*X*X*X*X*X*X*X*X*X%X%X%X%X%X*X*X1X5XeXsXfXhXkXkXkXhXdXaXtX8X5X6X1X*X*X*X%X%X%X%X*X*X*X*X*X*X=X=X-X-X2X2X2X5X5X5X0X9XtXtXyXyXyXyXeX7X7X7X7X7X7X7X4X4X4X4X7X7X7X7X8X8X8X0X0X0X0X0XyXyXtXtXtXtXsXgXgXgXgXgXdXdXsXsXtXtXtXtXtXyXyXyX0X8X8X8X5X5X5X5X5X5X5X5X4X4X4X5X5X5XeXeXeXwXeX8X5X5X5X3X3X-X=X-X-X-X-X*X*X%X%X*X*X*X-X-X1X2X5X5X4X5X5X5X3X6X1X&XOX+X}.].].`.c.X.5./.}.^.b.' u.Q.Q.C.f.#.+.X.[ o.{ [ [ X.5.x.M.M.C.P.Z.T.'.XX=X4X7X7X0XqX#X!.Y.A.x.t.9.#.#.*.O.O.o.o.o.o.o.o.o.X.X.X.X.X.X.X.X.X.X.X.X.O.@.#.u.c.D./.^.(.(.z.W A v n A W <.U.oX^.$.' ` ~ F ~ E S M W ).kXvX(.<.W -.O.O.*.#.#.5.5.9.5.0.t.i.d.d.j.n.n.N.N.n.n.n.n.n.n.j.j.n.n.x.x.x.x.n.n.n.n.N.m.M.B.S.C.C.C.C.C.Z.Z.G.J.F.J.R.R.R.R.R.R.E.E.E.E.E.E.E.E.R.R.R.R.Y.Y.Y.Y.R.Y.Y.Y.Y.Y.J.J.J.J.J.J.J.J.J.J.J.J.J.J.J.J.J.G.G.H.J.J.D.S.x.5.6.6.9.=.@.O.o.X.[ [ [ [ ",
"~ ^ ^ ^ ^ ^ ^ ^ ^ ^ ^ ( / ( ^ ~ ~ ~ ~ ~ / / [ +.u.D.&X(.HXZX(.z.5.K.e.5.1XNXNXmXNXqXqXjXmXiXiXiXiX9X6X6X$X(.^././.A.b.z.f.u.z./.z.c.g.y.c.Z.R.Q.W.'..X XXX*X-X1X1X1X=X-X&XoX[.].W.R.Y.Y.F.Z.Z.Z.Z.Z.C.A.C.A.A.A.m.m.m.m.m.m.m.m.N.C.Z.T.!.#X6X0XiXdXhXjXfXfXgXsXtXeX5X1X#X.X'.T.Y.F.Z.A.M.B.M.B.M.M.M.M.m.m.x.x.x.d.d.s.s.s.s.s.i.f.s.s.x.c.A.D.D.R.Q.Q.Q.Q.W.W.E.E.E.E.K.K.K.H.S.M.N.n.n.n.x.x.d.d.d.d.d.f.f.s.p.t.0.0.w.w.w.w.6.6.6.6.9.9.6.6.6.6.6.6.6.6.9.9.9.9.w.w.w.w.0.0.0.q.p.p.p.p.p.p.a.d.n.N.M.H.K.Q.`._._._._.W._.E.F.E.K.F.J.J.G.G.G.G.G.G.Z.Z.G.J.J.R.Y.Y.W.].[..XXX&X6X8XiXiXsXsXtX7X4X1X*X*X%X%X#X#X#X#X%X%X&X&X%X%X-X=X2X2X4X5X7X0X9XaXaXhXkXvXbXCXCXBXbXbXkXxXgXgXaXaXrXrXrXrXrXrXrXrXsXsXtXtXtXtXtXaXgXgXxXxXkXCXZXDXFXFXFXZXCXbXvXkXdXsXsXtXtXtXtXtXtXtXyXyXrXrXrXrXaXgXjXkXmXmXMXbXvXjXfXgXtX7X4X4X4X6X1X=X=X*X*X*X*X*X*X*X*X%X%X%X%X%X*X*X1X4X8XtXdXhXhXkXkXhXhXdXsX9X8X5X6X=X*X*X%X%X%X%X*X%X*X*X*X*X*X*X=X-X2X2X3X3X5X5X8X9XtXtXyXyXyXyXeX7X7X7X7X7X7X7X4X4X4X4X7X7X7X4X8X8X8X8X0X0X0X0XyXyXtXtXtXtXsXsXgXgXgXgXdXdXsXsXtXtXtXtXtXyXyXyX0X0X8X8X5X5X5X5X5X5X5X5X4X4X5X5XwX5XeXeXeX8XeX8X8X5X5X5X3X-X-X-X-X-X%X*X*X*X*X*X*X*X2X2X2X4X5X5X4X5X5X5X3X3X-X%X+XoX]._._.`.v.5.Z._.}.Q./.+.u.D.K.S.c.5.O.X.[ o.{ [ [ X.#.x.M.M.G.G.Y.~. X#X*X1X7X0X4X1XXX!.Z.m.x.t.5.#.#.*.O.O.o.o.o.o.o.o.o.X.X.X.X.X.X.X.X.X.X.X.O.O.@.#.u.c.A./.Q.^.&X$X(.z.W A A ' $.$.W W ' / / ~ } } } &...E b J (.vXkX(.$.W $.+.#.#.#.#.#.9.9.9.t.d.d.j.n.n.N.N.n.n.n.n.n.n.j.j.n.n.x.x.x.x.n.n.n.n.m.m.M.M.B.B.C.C.C.C.Z.Z.G.F.F.F.R.R.R.R.R.R.E.E.E.E.E.Y.Y.Y.R.R.Y.R.R.R.Y.Y.R.Y.Y.Y.Y.Y.J.J.J.J.J.J.J.J.J.J.F.J.J.J.F.Z.G.C.C.C.J.J.F.Z.t.5.6.=.=.=.@.O.o.X.[ [ [ [ ",
"~ ~ ^ ~ ^ ^ ^ ^ ^ ^ ^ ^ / ( ~ ~ ~ ~ ~ ~ / / [ +.5.A.oX0XDXBX(.$.5.l.h.$.iXGXJXHXjX@XpXmXtX@X6XqXNXAXjXqXtXsXfXzXzXjXzXzXwX=XdXNXtXP.x.s.m.Z./.Q.~.~.[..XXX@X*X-X2X=X=X=X&X&XoX[.W.T.Y.Y.F.Z.Z.Z.Z.A.C.A.A.A.A.A.m.m.m.m.m.c.m.m.m.A.Z.Y.!. X$X6X0X9XsXdXfXfXfXgXsXsXeX6X=XXX.X'.W.R.F.Z.M.M.B.B.M.M.M.m.m.m.x.x.x.x.d.s.f.f.f.f.f.f.f.s.c.x.c.c.A.D.D.R.Q.Q.Q.W.E.E.E.E.E.E.K.K.J.S.S.M.V.m.N.N.m.n.x.d.d.f.f.f.i.p.0.0.9.w.w.w.w.w.w.w.9.9.9.9.6.6.9.6.6.6.6.6.9.9.w.w.w.w.0.q.t.p.i.p.p.a.a.a.d.n.N.M.M.H.E.Q.`.`._._.W.W.Q.E.E.E.F.F.J.J.G.G.C.C.G.G.C.G.J.J.R.R.R.W.W.].{..XOX-X8X9XiXiXsXtXeX4X2X*X*X%X#X#X#X#X#X#X%X%X%X%X%X*X-X=X2X2X4X4X8X0X9XaXgXxXkXvXbXCXCXBXbXvXkXjXgXaXaXrXrXrXrXrXtXtXrXrXtXtXtXtXtXtXsXaXgXgXxXxXkXMXZXDXFXFXDXZXZXbXvXkXdXsXsXtXtXtXtXtXtXtXyXyXrXrXrXrXaXgXjXkXmXmXMXbXvXkXjXgXtX7X4X4X2X6X1X=X=X*X*X*X*X*X*X*X*X%X%X%X*X*X*X*X*X6X8XyXaXfXhXjXkXjXhXdXdXsX9X8X6X6X=X*X%X%X%X%X%X*X*X*X*X*X*X*X=X*X2X2X2X3X3X5X5X0X9X8XyXyXyXyXeXeXeXeXeX7X7X7X4X4X7X7X7X7X4X4X8X8X8X8X0X0X0X0XyXyXrXrXyXtXsXsXsXsXgXgXdXdXsXsXsXtXtXtXsXtXtXtX9X0X0X8X5X5XwXwX5X5X5X5X5X5XeXeXeXeXeXeXeXeXeX8X8X5X5X3X3X2X=X-X-X-X-X-X*X*X-X-X-X2X2X2X2X4X5X5X5X5X5X3X1X-X%XXX.X[.~.W.T.`.D.c.Q._._.Q.Q.#.u.D.D.D.c.c.@.X.[ o.{ [ [ X.#.c.M.C.F.F.W.]..X#X1XqX4X4XqX*XoXT.A.m.d.i.5.#.#.*.O.O.O.O.O.o.o.o.o.o.o.X.X.X.X.X.X.X.X.X.o.O.@.-.u.c.m.Z.T.[.&XXX$X$X(.z.W E E A A S F I ~ ~ [ +.>.>.+.[ E A p b (.hXkX(.<.! $.$.$.@.*.;.;.6.w.p.d.k.j.n.n.N.n.n.n.n.n.n.j.j.n.n.n.x.n.n.n.n.n.n.m.m.m.M.B.B.S.C.C.C.C.C.G.G.J.J.R.R.R.R.R.R.R.R.R.R.R.R.R.R.R.R.R.R.Y.R.J.F.F.F.F.F.F.F.F.F.F.F.J.J.F.F.J.J.J.J.J.J.Z.Z.Z.Z.C.Z.Z.Y.Y.&Xc.6.=.=.*.@.@.O.o.X.[ [ [ [ ",
"~ ~ ~ ~ ^ ^ ^ ^ ^ ^ ^ ^ ^ ( ~ I ~ ~ ~ ~ / / [ +.-.c./.iXBXbX$X:.#.v.v.W qXZXFXZXmXaXjXNXzX0XfXzXvXHXAXpXjXxXxXxXvXnXlXxX4X@XbXZXqXz.m.i.n.D./.Q.T.W.].[..X X@X*X*X*X*X=X&X&XoX[.W.T.Y.Y.F.Z.Z.Z.A.A.A.A.A.A.m.m.m.c.c.c.x.x.c.c.A.A.A.Z.Y.!.XX=X6X4X9XsXdXfXjXjXfXdXtX8X3X-XOX.X'.W.R.F.Z.M.M.B.B.M.M.m.m.m.x.x.d.d.d.f.f.f.f.s.i.i.i.i.f.s.c.c.x.c.A.D.R.R.Q.E.E.E.E.E.E.E.E.E.J.J.J.S.S.M.M.m.M.N.x.f.d.d.d.d.i.i.p.0.9.w.w.w.w.w.w.w.9.9.9.9.6.6.6.6.6.6.9.6.9.9.w.w.w.w.0.0.i.p.i.i.i.i.a.a.k.n.V.B.H.H.E.Q.Q.Q.Q.Q.W.Q.Q.E.K.J.F.F.J.G.G.G.C.C.G.G.C.G.J.J.R.R.R.W.~.[..XXX&X3X5X9XiXiXtXyX8X2X1X*X@X#XXXXXXXXX#X#X#X%X%X%X%X*X*X-X2X2X4X4X5X0X9XaXgXxXkXvXbXCXCXBXbXvXkXjXgXaXaXrXrXrXtXrXtXtXrXrXtXtXtXtXtXtXtXaXgXgXgXhXkXbXZXDXDXFXDXZXCXbXvXkXdXsXsXtXtXtXtXtXtXtXtXyXrXrXrXrXaXgXjXkXvXmXbXbXvXkXjXdXtX7X4X4X2X6X1X=X=X*X*X*X*X*X*X*X*X*X%X%X*X*X*X*X*X1X4X0XsXdXhXjXkXjXhXhXdXsXsX9X8X6X6X=X*X*X%X%X*X*X*X*X*X*X*X*X=X=X2X2X2X2X3X5X5X8X0X9XyXyXyXyXeXeXeXeX7X7X7X7X7X4X7X7X7X7X4X4X8X8X8X8X0X0XeXeXeXyXtXrXrXrXtXsXsXsXsXsXgXgXsXsXsXtXtXtXsXtXtXtX9X9X0X8X5X5X5XwX5X5X5X5X5X5XwXeXeXeXeXeXeXeXeX8X8X5X5X5X3X2X=X-X-X-X-X-X*X*X-X-X2X2X2X2X5X5X5X5X5X5X5X3X-X&XXX.X[.[.~.R.Y.Q.c.c.R.E.`.}.v.X.-.D.D.D.D.v.#.X.o.&.{ [ [ X.-.c.C.G.F.Y._.[.XX#X1XqX8X6X6X$X^.Y.A.x.d.t.9.#.#.*.O.O.O.O.O.o.o.o.o.o.o.X.X.X.X.X.X.X.o.o.o.O.@.-.u.s.b.A.Y.!.'. XXX&XoXoXQ.$.W A n V V L I F } v.D.h.;.;.o.F M A 9 b ).vXkXqX<.,.$.$.O.;.;.6.6.i.a.j.j.j.n.n.n.n.n.n.n.n.j.j.n.n.n.x.d.j.n.n.n.n.n.m.m.m.m.m.D.A.C.C.C.C.S.C.Z.J.J.J.R.R.R.Y.Y.Y.Y.Y.Y.Y.Y.F.F.F.Y.J.F.F.F.F.F.F.F.F.F.F.F.F.F.F.F.F.F.F.F.F.F.F.Z.Z.Z.Z.Z.Z.C.Z.Y.Y.!.-X5.#.=.*.*.@.%.+.o.X.[ [ [ [ ",
"~ ^ ^ ^ ^ ^ ^ ^ ^ ^ ~ ^ ( ^ I I ~ ^ ^ ^ / ` [ $.:.b.W W Q ,X(.| | ..] ' v ,XHXHXvXzXdXjXNXMXMXCXAXAXAXHXnXNXNXAXHXHXZXMXaXcXGXFXiX>XD.V.c.c.D.Z.Z.Y.W.].[..X X%X*X*X*X&X&X&XoX[.'.W.Y.Y.F.Z.C.A.A.A.A.A.A.m.m.c.c.c.c.c.c.c.c.c.c.A.A.A.Z.T.[.XX$X1X8X9XsXfXjXjXjXdXsX7X5X-X%XXX{.'.W.R.F.Z.C.C.S.S.D.M.m.m.x.x.d.s.f.f.f.f.i.i.i.i.s.s.s.s.s.c.c.x.x.m.S.Z.J.J.K.E.E.E.W.W.W.Q.Q.E.J.J.J.H.H.S.C.M.m.n.x.d.f.f.d.i.p.0.7.0.0.0.0.0.w.9.w.9.9.9.w.w.6.6.9.9.9.w.w.w.w.w.0.0.q.q.p.p.i.a.i.d.a.d.l.V.B.B.H.J.K.E.Q.Q.Q.Q.Q.E.E.R.F.J.J.F.G.G.G.G.C.C.G.G.G.G.J.J.R.R.W.W.].[..XXX-X3X8X9XiX9XtXeX4X1X*X;X#XXXXXXXXXXXXXXX#XXX%X%X%X*X*X=X1X6X5X4X5X0XtXaXdXhXkXvXbXMXCXBXbXvXkXjXdXaXaXaXrXrXrXrXsXsXsXsXtXtXtXtXtXtXsXaXgXgXgXhXkXMXZXDXFXDXDXZXCXbXvXkXhXdXsXsXtXtXtXtXtXtXrXrXrXrXrXrXaXgXhXjXvXvXbXbXvXkXjXdXrXrX7X4X4X6X1X=X=X=X=X=X=X=X=X=X*X*X*X*X*X*X*X*X*X1X4X8XyXgXdXjXkXkXjXhXfXdXiXiX9X8X4X6X1X=X*X*X*X*X*X*X=X=X*X*X=X1X2X2X6X3X5X5X5X5X8X0XyXyXtXtXyXeXeXyXeX7X7X7X7X7X7X7X7X8X8X8X8X8X8X8X0X0XeXeX0X0XeXeXyXtXtXtXsXsXsXsXdXdXsXsXsXsXsXsXsXsXtXtXyXyX0X8X5X5X5X5X4X4X4X4XwXwXeXeXeXeXeXeXeXeXeX8X8X5X5X4X6X1X1X=X=X=X=X=X=X=X2X2X2X2X4X4X5X5X5X5X5X3X3X=X&XXX.X{.[.].~.W.T.Q.c.5.D.Q.`.Q.b.#.$.v.D.D.D.v.:.o.X.[ [ [ [ X.#.c.Z.F.E.W.[.oXXX$X6X4X4X6X1XXX~.Z.m.x.f.t.9.-.*.@.O.O.o.o.O.o.o.o.o.o.o.X.X.X.X.X.X.X.X.o.O.O.@.-.u.s.b.A./.T.!. X XoX+X}.^.Q.b.<.( S F D D F ` :.v.v.h.h.:.>.} E A v d A ).hXNX0X<.<.$.@.=.#.6.0.a.j.k.j.j.j.n.n.n.n.n.n.n.j.n.n.n.d.d.d.d.n.n.n.n.n.m.m.m.m.A.C.C.C.C.C.S.Z.Z.Z.G.F.J.J.J.J.Y.Y.F.F.F.F.F.F.F.F.G.G.J.J.G.G.F.F.G.Z.Z.Z.Z.Z.Z.Z.Z.Z.Z.Z.Z.Z.Z.Z.Z.Z.Z.C.C.C.C.Z.Y.Y.!.:XD.9.=.*.*.*.%.+.o.X.[ [ [ ' ",
"~ ~ ~ ~ ~ ~ ~ ~ ~ ~ ~ ~ ( ^ I P I ^ ^ ^ / ` [ +.u.b.~ M A v v S U U L F ( v J b b b b b 3.3.).).<XhXCXCXhXhXzXzXAXCXMXmXzXzXbXZXkX6XA.x.c.m.A.S.S.J.Q.~.[..XXXXX%X%X%X&XOX+XoX[.].W.T.Y.Z.Z.C.A.A.A.A.m.m.c.c.c.c.c.x.x.c.c.c.c.c.c.A.A.A.Z.W.}.oX=X6X8X9XsXfXhXhXdXaX9X4X2X=X%X.X{.'.W.R.F.C.C.S.S.D.M.m.m.x.x.d.s.f.f.s.s.i.i.i.i.y.i.i.s.s.s.s.s.s.x.c.m.C.G.K.E.E.W.W.W.W.W.Q.Q.Q.E.J.J.J.H.C.S.S.M.n.n.d.d.d.i.p.t.0.0.0.0.0.0.0.9.w.9.9.9.w.w.6.6.9.9.9.9.w.w.w.w.0.0.q.t.p.p.a.a.d.d.d.k.n.V.B.H.H.J.J.E.E.Q.Q.Q.Q.E.E.R.J.J.F.G.G.G.G.G.C.C.G.G.G.G.J.J.R.R.W.W.].[.XX%X=X5X8X9X9XtXeXwX2X*X*X@XXXXXXXXXXXXXXXXXXXXX%X%X%X%X%X=X=X6X2X4X4X0XtXsXdXhXkXvXbXMXCXBXbXvXkXfXsXaXaXaXrXrXrXrXsXsXsXsXtXtXtXtXtXtXsXaXaXaXgXjXkXbXZXZXDXDXDXZXCXbXvXkXhXdXdXsXtXtXtXtXtXtXrXrXrXrXrXrXaXgXhXjXkXvXvXbXvXkXjXgXaXrX7X4X4X2X2X=X=X*X=X=X=X=X=X=X*X*X*X*X*X*X*X*X*X=X2X4X9XrXdXdXjXkXjXhXhXhXdXdX9X9X7X6X1X1X=X*X*X*X*X*X=X=X*X=X1X1X2X2X6X6X3X3X5X5X8X8XeXyXtXtXyXyXeXyXeX7X7X7X7X7X7X7X7X7X8X8X8X8X8X8X0X0X0X0X0X0XeXyXyXyXtXtXtXtXtXtXsXsXsXsXsXsXsXsXsXsXtXtXyXyX0X0X8X5X5X5X4X4X4X4XeXwXeXeXeXeXeXeXeXeXeX8X8X5X5X4X6X1X1X=X=X=X=X1X1X6X2X2X2X4X4X4X5X5X5X5X3X3X-X&XOX.X.X[.[.].].W.W.E.x.#.#.c.D.Q.+.' $.D.S.D.D.v.:.o.X.[ [ [ [ X.-.c.Z.R.T.].[.oX#X1X6X4X6X1X$X^.Y.A.c.s.i.9.#.#.*.*.O.O.o.o.O.o.o.o.o.o.o.o.X.X.X.X.X.X.X.o.O.O.@.-.u.s.b.D./.!.!. X XXX.X[.Q.Q.b.b.<.| ( I F S / ' X.O.@.O.X.[ :.1.$.| | | A b >XhXCX,X<.$.$.t.5.5.i.k.k.k.j.j.j.j.n.n.n.n.n.j.n.n.x.d.d.d.d.d.n.x.n.n.n.n.m.m.m.m.C.C.C.C.S.S.Z.Z.G.G.F.F.J.J.F.F.F.F.F.G.G.G.G.G.G.G.Z.Z.Z.Z.Z.Z.Z.Z.Z.Z.Z.Z.Z.Z.Z.Z.Z.Z.Z.Z.Z.Z.Z.Z.C.C.C.C.C.C.Z.Z.Y.:X}.t.=.*.*.@.%.+.o.o.[ [ [ ' ",
"~ ~ ~ ~ ~ ~ ~ ~ ~ ~ ~ ~ ( ^ I P ~ ~ ^ ~ / ' X.#.u.b.~ M A A S S S S D C F E W W G | G W | W E A Q J W ! W W ! ! <.! ! ! <.! ! ).(.z.u.v.c.x.j.V.B.J.Q.Q.].}..XXXXX#XXXOXOX+XoX[.].W.T.Y.Z.Z.C.C.A.A.m.m.m.c.c.c.c.c.c.c.c.c.c.c.c.c.c.A.A.C.Y.~.}.oX=X6X8X9XdXhXhXhXaXrX7X4X2X*XXX.X[.].W.R.F.Z.C.S.D.D.m.m.x.x.d.s.f.f.s.s.i.i.i.i.i.i.y.y.i.s.s.s.s.s.x.m.m.C.G.K.E.E.W.W.W.W.`.`.Q.Q.Q.E.K.J.J.H.S.H.M.M.N.j.d.d.f.i.t.t.q.q.q.q.0.w.0.0.w.w.w.9.6.9.9.w.9.9.0.0.0.0.q.q.t.p.p.i.i.d.d.d.k.j.V.B.L.H.H.J.J.E.E.E.Q.E.E.R.E.K.R.R.J.F.J.G.G.G.G.G.G.G.F.F.J.E.E.W.W.].[..XOX&X=X5X8X9XtXeXwXwX-X*X;XXXXX.X.X.XXXXXXXXXXXOXOXOX%X%X%X=X=X6X2X6X4X0XtXgXdXjXkXvXbXMXCXBXbXvXjXfXgXgXrXrXrXrXrXrXtXtXtXtXsXsXtXtXtXtXrXaXaXaXgXfXkXbXZXZXDXDXDXZXCXCXbXkXhXdXdXsXsXtXtXrXtXtXrXrXrXrXrXrXaXgXfXjXkXvXvXbXvXkXjXfXaXrXyX4X4X2X3X1X-X-X2X2X-X-X-X-X*X*X-X-X-X-X-X*X*X=X2X4X0XrXaXdXjXkXjXjXhXhXhXdXsX9X7X4X1X2X-X-X*X-X-X-X-X-X=X=X1X1X2X2X2X2X3X2X5X5X8XeXeXyXtXtXyXyXyXeXeXeX0X0X0X0X7X7X0X0X0X0X8X8X8X8X8XeX0X0X0X0XyX9XyXyXtXtXtXtXtXtXtXsXsXsXsXsXsXsXtXtXtXtXtXyXyXeXeXeXwXwXwXwXwXwXeXeXeXeXeXtXtXtXeXeXeX0X8X5X5X5X2X2X2X2X2X2X2X2X2X2X5X5X5X5X5X5X5X5X5X3X3X3X-X%X.X.X{.].].].]._.E.E.D.+.E ' ' E ' E X.D.D.J.D.v.u.+.o.[ [ [ [ X.-.c.R.T.W.[..XXX=X1X6X4X1X$XXX~.Z.m.x.i.0.9.#.#.*.*.@.O.O.O.O.O.O.O.o.O.o.o.o.o.o.o.o.X.X.o.O.@.@.-.u.c.c.A.Y.!.~. XoX X(.^.Q.D.c.s.b.$.$.| ~ E / / ~ ~ E E E S E [ v.v.U.<.W A v v 3.iXfX6Xz.! #.5.7.p.k.j.j.j.j.j.n.n.n.n.n.n.n.x.x.d.d.d.f.f.n.n.n.n.n.n.m.m.m.m.M.C.C.C.S.S.Z.Z.J.J.Z.G.J.J.F.F.F.F.F.G.G.G.G.G.G.G.Z.C.C.C.G.C.G.G.C.C.C.C.Z.Z.Z.Z.Z.Z.Z.C.S.S.S.S.S.C.C.C.C.C.A.A.m.D.K.i.#.#.#.@.*.O.o.o.[ [ [ ' ",
"~ ~ ~ ~ ~ ~ ~ ~ ~ ~ ~ ^ ( ^ I P ~ ^ ^ ~ / ' X.#.s.b./ S A A S S S S D C V E E E U Y L U L ~ ~ ~ ( | | / / | $.$.$.$.' ' | $.' ' W $.+.:.c.x.l.l.B.D.Q.Q.^.}.oX+XXXXXXX+X+XoX.X[.]._.W.Y.Z.Z.C.C.A.A.m.m.m.c.c.c.c.c.c.c.c.c.c.c.c.c.c.c.m.m.C.Q.].[.XX=X6X8XiXdXhXdXdXiX7X4X2X=X%XXX.X[.].W.R.F.Z.S.D.D.m.m.x.x.d.s.f.s.s.i.i.i.i.i.i.t.y.y.i.y.y.i.i.s.s.d.n.N.M.G.K.E.W.W.W.W._.`.`.Q.Q.Q.Q.E.E.F.J.G.H.B.B.N.d.d.f.i.t.t.t.0.q.q.0.0.0.0.w.w.w.w.9.9.9.9.9.9.0.0.0.0.0.q.t.p.p.i.i.d.d.j.j.n.V.B.L.H.H.J.F.F.E.E.E.E.R.R.J.K.R.J.J.J.J.G.G.G.G.G.F.G.F.F.K.E.E.T.W.].[..X%X-X2X5X8X9X8X8X5X3X*X%X%XXXXX.X.X.XXXXXXXXXXXOXOXOX%X%X%X=X=X6X2X6X4X0XtXaXdXjXkXvXbXMXMXbXbXvXjXfXgXgXrXrXrXrXrXrXtXtXtXtXsXsXtXtXtXrXrXaXaXaXaXfXjXbXCXZXDXDXDXZXCXMXvXkXhXdXdXsXsXtXrXrXtXtXrXrXrXrXrXrXaXgXfXjXkXkXvXvXvXkXjXxXgXrXyX4X4X2X3X2X2X2X2X2X2X-X-X-X=X-X-X-X-X-X-X*X*X=X2X4X7XrXaXxXhXjXjXkXjXhXhXhXsXtX9X7X4X2X1X-X*X-X-X-X-X-X=X=X1X1X2X2X2X2X2X2X5X5X8X8XeXeXyXyXyXyXyXeXeXeXeX0X0X0X0X7X0X0X0X0X7X7XeXeX0XeX0X0X0X0XeX9XyXyXyXtXtXtXtXtXtXtXtXtXtXtXsXsXtXtXtXtXtXyXyXeXeXeXeXwXwXwXwXwXeXeXeXeXtXyXyXyXyXeXeX8X5X4X5X2X2X2X2X2X2X2X2X2X2X2X5X5X5X5X8X5X5X5X5X3X3X-X&X+X.X{.].'.~._.W.`.F.K.D.X.' +.:.:.+.' +.v.D.J.D.V.u.O.o.[ [ [ [ X.#.c.Y.~.].[..X#X=X1X6X6X$X#X XT.Z.n.f.0.9.9.#.@.*.*.@.O.O.O.O.O.O.O.O.O.o.o.o.o.o.o.o.o.X.o.O.@.@.9.u.c.c.A.Y.!.~.[. XoX^.!./.Z.c.c.u.:.:.$.+.' ` / / ~ E E A A E ' X.#.D.^.U.| F M A b >XsXfX6Xz.5.5.i.j.k.j.j.j.k.N.N.n.n.j.n.n.x.d.d.d.d.f.f.n.n.n.n.n.n.m.m.m.m.M.M.C.C.S.S.C.Z.J.J.Z.G.G.G.F.F.F.F.Z.C.C.C.G.G.G.G.G.G.C.C.G.G.G.G.C.C.C.C.C.C.C.C.C.C.C.C.S.S.S.S.C.C.C.C.M.M.M.n.x.x.V.0.#.#.@.@.*.O.o.o.[ [ [ ' ",
"~ ~ I I ~ ~ ~ ~ ~ ~ I ~ ^ ~ P P I ^ ^ ^ / ` O.#.v.b.' S S A S S S C D D D S S S F F F F F F ~ E E ~ ~ ~ / / ` ` ` ` ` ` ' ` ' [ ' +.#.u.u.f.f.d.n.V.D.Z.R.Q.~.[..XXXXXXX.X.X.X[.]._.W.Y.F.Z.C.A.A.A.m.m.c.c.c.c.c.c.c.c.c.c.c.c.c.c.c.c.c.m.M.J.Q.].[.XX=X6X8XiXdXdXiXiX9X8X5X3X=X%XXX.X[.~.W.R.Z.Z.C.S.m.m.x.x.d.s.f.f.i.i.i.i.i.i.t.t.y.y.t.t.y.t.t.p.i.i.d.x.N.C.G.R.W.W._._._._._._._._._.W.W.E.E.F.H.H.B.B.n.d.d.i.y.y.t.t.q.q.q.q.q.0.0.w.w.w.9.7.7.0.0.0.0.0.q.q.q.t.p.p.a.a.s.d.n.n.N.M.N.L.L.H.H.J.F.F.F.J.R.J.J.J.R.R.R.R.J.J.J.F.F.F.G.F.G.G.F.F.F.F.E.W.'.[..XXX%X*X2X5X8X8X8X5X3X-X%XOXOX.X.X.X.X.X.XXXXXXXXXXXOXOX%X%X%X*X=X6X5X4X4X7XtXaXdXjXvXvXbXMXMXMXvXvXjXfXdXsXsXrXtXtXtXtXtXtXtXtXtXtXtXsXsXsXsXsXgXgXgXdXjXvXCXZXDXDXZXZXCXCXbXkXhXdXdXdXsXtXrXrXrXrXrXrXrXrXaXaXaXdXfXjXkXkXvXvXvXkXjXfXgXrXyXwX4X2X3X3X2X2X3X3X2X2X3X3X2X-X-X-X-X-X-X-X=X1X3X5X7X0XaXgXhXjXkXjXkXhXhXhXdXsXyX7X4X4X2X2X2X-X2X2X1X1X1X1X2X3X2X1X2X2X2X2X4X4X7XeXeXeXyXyXyXyXyXyXyXyXyXyXyXyXyX9X0X0X0X0X0X0X0X0X0X0XeXeXeXeXeX0XyX0X0X9XyXyXtXtXtXtXtXtXtXtXtXtXtXtXtXtXtXyXyXyX0X8XeXeXwXwXeXeXeXeXeXeXtXyXtXyXyXeXeX8X5X4X4X4X2X2X2X2X1X1X2X2X2X2X5X4X8X8X8X8X5X5X3X3X-X%XOX.X.X{.]._.W.W.Q.Q.K.K.D.+.$.A.Q.Q.D.:.+.u.D.J.H.m.u.%.o.[ [ [ [ [ #.A.R.].oX.X.X#X$X1X1X*X#X X[.Y.A.n.a.0.9.9.#.@.*.*.O.O.O.O.O.O.O.O.O.O.o.o.o.o.o.o.o.o.o.O.O.@.#.u.u.c.c.A.Y.T.^.oXoXoX~.~.Y.Z.c.c.u.-.@.O.O.X.[ [ ` / E E F S F / ' X.$.:.b.U.1.| S v v b 3.pXmX9Xz.5.f.a.l.n.N.N.N.N.n.j.j.j.n.n.n.d.d.d.d.d.n.n.n.n.n.n.n.N.m.m.M.M.C.C.C.C.C.C.C.C.Z.Z.G.G.G.G.G.G.C.G.G.G.H.H.C.C.C.C.C.C.C.C.C.C.C.C.C.C.C.C.C.C.C.C.C.C.S.S.S.S.C.M.M.M.B.B.B.V.d.d.i.5.#.#.#.@.*.O.o.o.[ [ [ ' ",
"~ ~ I I ~ ~ ~ ~ ~ ~ I ~ ^ ~ P P I ^ ^ ~ / ` O.#.v.b.' F S S S S C C C G G G G D F F F F F E ~ ~ ~ ~ ~ ^ / / / / ` ` ` ` ` ` ' X.' X.#.u.u.s.c.c.x.m.D.D.R.Q.~.[..X.X.X.X.X.X.X{.].].W.Y.F.Z.A.A.A.A.m.c.c.c.c.c.c.c.c.c.c.c.c.c.c.c.c.x.x.x.m.S.J.E.]..X#X1X6X9XiXaXiXiX9X0X5X5X3X-X&XoXoX[.~.T.Y.Z.Z.C.A.m.x.x.f.f.f.s.i.i.t.i.t.t.t.t.y.t.t.t.t.t.t.t.t.p.i.f.x.N.C.F.R.W.W.~._._.].].].].]._.`.W.W.E.J.H.H.B.m.x.d.f.i.y.t.t.t.y.q.0.q.0.0.w.w.9.9.7.7.7.0.0.0.q.q.q.t.t.p.p.i.i.d.n.V.B.B.B.B.L.H.H.H.G.J.F.F.F.R.J.J.J.J.J.J.J.J.J.J.F.G.G.G.G.G.G.F.F.F.Y.R.W.].[..XOX%X-X5X5X8X8X5X5X-X&XOX+X.X X.X.X.X.X.X.XXXXXXXOXOXOXOX%X%X*X=X6X5X4X4X7XtXaXdXkXvXvXMXMXMXbXvXjXhXdXgXsXrXrXtXtXtXtXtXtXtXtXtXtXtXtXsXsXsXsXsXgXgXdXjXvXCXZXZXDXZXZXCXbXnXkXjXdXdXgXsXtXrXrXrXrXrXrXrXrXaXaXaXdXfXjXkXkXkXkXkXkXjXjXgXrXyXwX4X2X3X2X2X2X3X3X2X2X3X3X2X2X2X-X=X-X2X1X1X1X5X4X7X0XaXgXhXjXjXjXkXkXjXhXdXaXtX0X0X8X4X4X2X2X2X2X6X6X6X6X2X2X2X2X2X2X2X4X4X4X7X7X7X7X9X0XyXyXyXyXyXyX9X9XyXyXyXrX0X0X0X0X0X0XeXeX0X0XeXeXeXeXeXeX9X9X0X8XyXyXyXtXtXtXtXtXyXyXtXtXtXtXtXtXyXyXyXyX0X8XeXeXeXeXeXeXeXeXeXyXyXtXtXtXyXeXeXeX5X4X4X4X2X2X2X2X1X2X2X2X2X2X4X4X8X0X8X8X5X5X3X3X*X%XXX.X{.]._._.W.W.Q.Q.E.K.D.5.m.E._.E.Q.u.:.v.D.J.J.M.u.%.o.[ [ [ [ ' #.D.T.[.oX.XXX#X$X*X=X*XXX X'.Y.M.f.i.0.9.#.#.=.*.*.O.O.O.O.O.O.O.O.O.O.o.o.o.o.o.o.o.o.o.O.O.@.#.u.u.c.c.A.Y.T.^.[.oX[.~.~.Y.Z.c.s.0.=.@.O.O.o.X.[ [ ' ` ~ ~ ~ ~ / ] } } ' / ' 1.b.1.E A W b 9 4.iXzX6Xc.c.i.x.n.n.n.n.n.n.n.n.j.j.n.j.d.f.d.d.n.n.n.n.n.n.n.n.N.m.M.M.C.C.C.C.C.C.C.C.Z.Z.G.Z.G.G.G.G.C.C.C.G.C.C.C.C.C.C.C.C.C.C.C.C.C.C.C.C.C.C.C.M.C.C.C.C.S.S.S.M.M.M.m.m.M.M.V.V.x.d.i.5.#.#.@.*.*.O.o.o.[ [ [ ' ",
"~ ~ ~ ~ ~ ~ ~ ~ ~ I I ~ ~ ~ P P I ^ ~ ~ / ' O.-.v.u.' F S S S S C V G G G G G D S S F F F F E ~ ~ ~ ~ ^ / / / / / ` ` ` ` ` [ X.' +.#.u.u.s.c.x.x.m.D.D.J.Q.^.[.[.[..X.X.X.X.X{.].].W.Y.F.Z.A.A.M.m.m.m.x.c.c.c.c.c.c.c.c.c.c.c.x.x.x.x.x.x.n.M.S.F.W.]..X$X6X8X9X9X9X9X9X9X8X5X5X3X=X$XoX[.^.~.T.Y.F.Z.A.m.m.n.f.f.f.s.i.i.i.i.i.t.t.t.y.y.t.t.t.t.t.q.q.t.t.i.f.x.m.C.Z.R.W.W.].].].].]._.].].].]._.W.E.J.H.H.B.n.x.s.s.s.i.y.i.t.t.0.q.0.0.0.0.0.0.0.0.0.0.0.0.0.t.t.p.p.p.p.a.d.x.n.N.B.M.B.L.L.H.H.H.H.J.J.G.G.J.J.J.J.J.J.R.R.E.J.R.J.F.F.F.F.F.F.F.F.E.E.R.W.].{..XOX-X3X5X5X5X5X5X3X-X&XOX.X.X.X.X.X.X.X.X.X.X.X.X.X+X+XOX%X%X*X=X6X5X4X4X7XtXgXhXkXvXvXMXMXmXvXkXhXhXdXaXsXtXtXtXtXtXtXtXtXtXtXtXtXtXtXrXrXrXrXsXsXgXdXjXvXCXZXZXZXZXZXCXCXbXnXjXhXdXgXsXsXsXrXrXrXrXrXrXrXrXaXaXdXfXjXjXkXkXkXkXkXjXjXfXaXrXyX4X5X5X3X3X3X5X5X5X5X3X3X3X3X3X3X3X3X3X3X5X5X5X4X7X0XaXgXdXjXjXjXjXjXjXjXfXdXsXtXeXeXeX4X4X4X4X4X4X4X4X4X2X2X2X2X2X2X4X4X4X4X4X4X7X7X0X0XeXyXyXyXtXtXtXtXtXtXyXyXyXyXyXyXyXyXyXeXeXeX0X0X8X8XeXeX9X9XyXyXyXyXyXyXyXyXyXyXyXyXyXyXtXtXtXtXyXyXyXyXyXeXeXeXeXeXeXeXeXeXtXtXtXsXsXtXyXeXeXeXwX4X4X4X2X2X2X2X2X4X4X4X4X4X5XwX8X0X8X8X5X3X3X=X%XXX X{.'._.]._._.W.Q.W.E.K.D.c.K.`._.`.Q.u.:.v.D.K.J.M.y.*.o.{ [ [ [ [ #.D.Q.oX+XXXXX#X#X*X*X#X X'.T.F.N.f.r.7.9.#.#.*.*.*.@.O.O.O.O.O.O.O.O.O.O.O.o.o.o.o.o.X.o.O.@.#.#.0.s.c.c.A.R.W.^.[.[.[.~.~.Y.Z.c.c.9.-.*.O.%.o.X.X.o.} ] ` / / / / ] ..$.} / ~ E ` :.b.b.u.$.W A i <.qXtX3XoXz.c.x.v.x.V.c.A.m.n.l.n.n.N.j.f.f.n.n.n.n.n.n.n.n.N.N.m.m.M.M.M.C.C.C.C.C.C.C.C.Z.Z.Z.C.G.C.C.C.C.C.C.C.C.C.C.C.M.M.M.M.M.M.M.M.M.C.M.M.M.C.C.C.C.S.S.S.M.M.M.M.m.m.N.n.n.x.d.i.9.#.#.*.*.*.O.o.o.[ [ [ ' ",
"P P I I I I ~ ~ I I I I ~ P I P I I ~ ~ / ' O.-.v.u./ S S S S S V C C C S S D D S S F F F F P ~ ~ ~ ~ ~ / / / / / / ` ` ' ` [ X.' +.#.u.u.s.c.c.x.m.D.D.J.Q.~.].[.[.[..X.X.X.X[.[.]._.E.F.Z.A.A.M.N.m.c.c.c.c.c.c.c.c.c.s.s.c.c.c.c.c.c.x.x.n.N.M.G.Y.W.[.oX$X6X5X8X9X9X9X8X8X8X5X6X3X=X#XoX[.~.T.T.Y.F.C.m.m.n.d.f.f.f.s.i.i.t.i.i.t.t.t.t.t.t.0.0.q.q.q.q.t.t.i.f.x.m.C.Z.R.W.Q.W.].].].].].].].].]._.W.E.J.H.S.m.n.x.s.s.s.y.i.t.t.0.q.q.0.0.7.0.0.0.0.0.0.q.0.0.t.t.i.p.p.a.d.d.n.n.N.B.B.B.L.H.H.H.G.G.G.G.G.G.J.J.J.J.K.J.J.J.R.J.J.J.F.F.F.F.F.F.F.Y.E.R.T.W.'.{.XX%X-X3X5X5X5X6X3X3X-X%XXX.X.X.X.X.X.X.X.X.X.X.X.X.X+X+XOX%X%X*X=X1X3X4X4X7XtXgXhXlXvXvXMXMXMXvXkXhXfXaXsXtXtXtXtXtXtXtXtXtXtXtXtXtXtXtXrXrXrXrXsXsXgXdXjXvXCXZXZXZXZXZXCXCXnXvXjXhXdXdXsXsXrXrXrXrXrXrXrXrXrXaXaXdXdXjXjXjXjXkXkXkXkXjXfXgXrXyX7X4X5X5X3X3X5X5X5X5X3X3X5X5X3X3X5X5X5X5X5X5X5X4X7X0XaXgXdXjXjXjXjXjXjXjXfXfXdXsXtXeXeXeX7X4X4X4X4X4X4X4X4X4X4X4X4X4X4X4X4X4X7X4X7X7X0X0XeXyXyXtXtXtXtXtXtXtXtXyXyXyXyXyXyXyXyXyXeX0X0X0X8X0XeXeX9XyXyXyXyXyXyXyX9XyXyXyXyXyXyXyXtXtXyXyXyXyXyXyXyXyXyXyXeXeXtXtXtXtXtXtXsXsXsXtXyXeXeXeXwX4X4X4X4X2X2X2X4X4X4X4X4X4XwXwX8X8X8X5X3X1X=X&XXX X{.'.'.'._._.W.W.W.Q.E.K.B.f.D.C.E.|.Q.u.#.c.D.K.K.M.u.*.O.X.[ [ [ [ #.D.~.oXXX#X#X#X$X$X#XXX[.'.T.C.n.i.0.6.=.=.=.*.*.*.@.O.O.O.O.O.O.O.O.O.O.O.O.O.o.o.o.X.o.O.@.#.#.0.s.c.c.A.R.W.^.^.[.^.!.~.Y.Z.c.c.9.-.*.@.%.o.X.X.+.} } [ ] ` } / ] } E E E E S E ' +.t.D.^./.| W v b ! ).fX6X^.U.b.c.v.c.m.m.n.n.N.N.N.n.f.f.n.n.n.n.n.n.n.n.N.N.m.m.M.M.M.C.C.C.C.C.C.C.C.C.C.C.C.C.C.C.C.C.C.C.C.C.M.M.M.M.M.M.M.M.M.M.M.M.M.M.M.M.M.M.M.M.M.M.M.M.M.m.N.m.n.n.x.x.d.s.y.9.#.@.*.*.%.O.o.[ [ [ [ [ ",
"P P P P P P P P P P P P I P I I I I ~ ~ / ' O.9.v.u./ S S S S S V V V V C S S S S S F F F F F F F ~ ~ ~ ~ / / / / / ` ` ` ' ' +.+.+.#.u.s.s.s.s.s.d.c.m.A.Z.Y.Y.~.[.[.{..X.X.X{.[.].].W.Y.Z.C.C.M.N.m.c.c.c.x.x.c.c.c.c.f.f.f.f.f.f.s.s.x.x.x.N.M.M.G.E.~.[.XX$X6X5XeX8X8X9X8X8X8X5X5X3X=XXXoX[.~.T.R.F.Z.M.N.n.d.f.s.s.s.s.s.t.i.t.t.t.y.t.0.0.0.0.0.0.q.q.t.t.i.i.d.x.m.C.F.R.E.W.Q._._._.].}.].'.].]._.W.E.J.J.C.m.n.c.c.s.f.s.y.y.t.t.y.q.0.0.0.0.0.0.0.q.q.0.0.t.t.p.i.i.i.d.d.n.n.N.B.M.B.H.H.H.H.H.S.H.S.S.S.J.H.H.J.K.J.J.J.J.J.J.J.J.E.Y.Y.Y.E.E.E.R.R.W.'.'..XXX%X-X3X5X4X5X5X3X-X&XXX.X.X.X.X.X.X.X.X.X.X.X.X.X.X+X+X+XOX%X*X=X1X6X6X4X7XtXdXjXkXvXMXMXMXmXvXkXhXfXaXsXtXtXtXtXtXtXtXsXsXtXtXsXsXsXsXtXtXsXsXgXgXgXdXjXvXbXBXZXAXAXAXCXCXbXvXkXhXfXdXgXsXaXaXsXsXsXsXsXsXaXaXaXdXdXfXjXjXjXkXkXkXkXjXjXgXrXrX7X7X5X5X5X5X5X5X5X5X5X5X4X4X4X4X4X4X5X5X5X5X5X8X7XrXrXaXxXjXjXjXjXjXkXjXjXfXdXdXsXtXyXeX0X7X7X7X8X5X5X5X4X4X4X4X4X4X4X4X4X4X4X4X7X7X0XeXyXyXtXtXtXtXsXtXtXtXsXtXrXrXrXrXeXeXeXeXeXeXeXeXeXeXeXeXeXeXyXyXtXtXtXtXeXeXeXeXyXyXyXyXyXyXyXyXyXyXyXyXyXyXyXyXyXyXtXtXtXtXtXtXsXaXsXtXyXeXeXeXwXwX4X4X4X4XwXwX4X4X4X4X4X4XwXwXeX8X5X5X3X=X-X&XXX.X{.'.'.'._.`.W.W.E.E.E.K.V.0.V.D.F.E.D.#.+.c.S.K.K.H.u.;.%.o.[ [ [ X.#.D.^.oX#X#X#X#X$X#XXX.X'.W.Y.A.x.i.q.6.=.;.=.*.*.@.O.O.O.O.O.O.O.O.O.O.O.O.o.o.o.o.o.o.o.O.@.@.#.u.t.c.c.A.Z.Q.^.^.^.^.!.~.Y.Z.c.c.0.-.@.O.%.o.X.X.X.{ } [ [ [ [ ] ] [ ~ F S S S S [ s.f.$.z.&XoX<.( A A b Q (.9XsX(.z.A.N.j.N.A.A.C.N.N.n.n.n.n.n.n.n.n.n.n.n.N.N.M.M.M.M.M.C.C.C.S.S.C.C.C.C.C.C.C.C.C.C.M.M.M.M.M.M.M.M.M.M.M.M.M.M.M.M.M.M.M.m.m.m.M.M.M.M.B.B.B.M.m.N.N.n.x.x.x.x.d.s.y.9.#.*.@.*.O.o.o.[ [ [ [ ] ",
"P P P P P P P P P P P P P P I I I I I ~ / [ O.9.s.u.E S S S S S V V V V V C S S S S S S F F F F F F P ~ ~ ~ / / / / / / ` ` ' +.+.+.#.:.s.s.s.f.f.s.x.m.A.Z.F.Y.T.!.[..X.X.X{.[.[.].]._.E.F.C.C.M.m.m.c.c.c.c.c.c.c.s.s.f.f.f.f.s.s.s.f.d.x.x.n.N.M.S.J.T.~.[.XX%X2X5XwXeX8XeX8XeX0X5X5X3X=X#X.X'.W.W.E.G.C.M.n.n.d.s.s.f.s.s.s.i.t.t.t.t.t.0.0.0.0.0.0.0.q.q.q.0.r.i.d.x.m.C.G.F.Y.E.W.`._.].}.{.{.{.{.]._.W.E.J.G.C.A.m.x.x.s.s.s.s.i.y.t.t.t.0.0.0.0.y.q.t.t.t.t.i.i.i.a.i.s.d.n.n.V.B.B.B.H.L.L.H.C.C.C.C.C.C.C.S.S.S.H.J.J.J.J.J.J.J.J.R.E.Y.Y.E.E.R.R.E.T.W.].{..XOX%X3X3X5X4X5X3X3X=X%XXX.X.X{.{..X.X.X.X.X.X.X.X.X.X.X.X+XOX%X*X=X1X6X6X4X7XsXdXjXkXvXMXMXMXbXvXkXhXfXaXsXtXtXtXtXtXtXtXtXtXtXtXsXsXsXsXsXsXsXsXgXgXgXdXhXkXMXBXZXZXZXAXCXCXbXvXkXhXfXdXgXsXaXaXsXsXsXsXsXsXaXaXaXdXdXdXjXjXjXkXkXkXkXkXjXfXaXrX7X0X0X8X5X5X5X5X5X5X5X5X4X4X4X4X4X4X5X5X5X5X5X8X7XrXrXgXdXjXjXjXjXjXkXjXhXjXfXdXdXsXtXtXyX9X0X0X0X0X8X8X7X7X4X4X4X4X4X4X4X4X4X4X7X7X0XeXyXyXtXtXtXtXtXtXsXsXsXtXrXrXrXtXyXeXeXeXeXeXeXeXeXeXeXeXeXeXyXeXtXtX9XtXeXeXeXeXyXyXyXyXyXyXyXyXyXyXyXyXyXyXyXyXyXtXsXsXsXsXtXsXaXaXsXtXyXyXeX8XwXwX4X4X4X4XwXwX4X4X4X4X4X4XwXwXwX5X5X3X3X-X&XOXXX.X{.'.'._.`.W.T.E.E.E.K.J.c.#.X.#.c.J.5.' ' v.D.K.K.S.9.*.O.o.[ [ [ X.+.R.^.#X$X$X$X#X$XXX.X.X'.T.Z.A.x.i.w.6.=.;.*.*.*.@.O.O.O.O.O.O.O.O.O.O.O.O.o.o.o.o.O.O.O.O.@.@.#.u.t.c.c.A.Z.Q.~.~.^.^.!.~.Y.Z.c.c.t.-.@.%.%.o.X.X.X.[ +.[ { [ [ [ [ [ ` / E S S S ' :.}.}.D.$.c.&X/.1.E W A v ! ,XmXdX^.A.c.c.P.Z.G.N.N.n.n.n.n.n.n.n.n.n.n.n.N.N.M.M.M.M.M.C.C.C.S.S.C.C.C.C.C.C.C.C.M.M.M.M.M.M.M.M.M.M.M.M.M.M.M.M.M.M.M.M.m.m.m.m.m.m.m.m.M.M.M.N.n.n.n.x.x.x.x.x.d.i.y.=.@.@.@.O.O.o.X.[ [ [ ' ' ",
"L L L L L L L L L L P P P P I P I I I ~ / [ @.u.b.:.E S S S S S V V V V V V S S S S S S S S F F F F F P ~ ~ ^ ^ / / / / / ` ` &.+.@.#.-.s.s.s.s.s.s.x.m.A.Z.J.Y.T.~.[.[..X.X{.{.[.[.].].Q.F.C.C.m.m.m.c.c.c.c.c.c.c.s.s.f.f.f.f.s.s.s.s.s.x.x.x.n.N.B.J.R.T.~.[.XX%X-X5XwX8X9X9XyXeX0X5X3X3X-XXX.X'.W.R.F.G.C.M.n.d.s.s.s.f.s.s.y.y.t.t.t.t.0.0.0.0.0.0.0.0.0.0.q.0.r.i.d.x.m.C.G.G.F.E.T.`._.].{..X.X.X{.].].W.E.Y.G.C.A.m.x.x.s.s.s.s.p.p.y.t.t.t.t.t.y.y.y.y.p.p.i.i.a.f.s.d.d.n.V.V.B.B.B.B.B.L.S.S.S.C.C.C.C.C.C.C.C.H.J.J.J.J.J.J.R.R.E.E.E.E.R.E.E.W.W.W._.[..XXX%X*X3X3X5X4X5X3X3X-X%XXX.X.X{.{.[.[.oX[..X.X.X.X.X.X.X.XXXXX%X*X=X1X6X6X4X0XsXdXjXkXmXMXMXbXbXvXkXhXfXaXsXtXtXtXtXtXsXsXtXtXtXtXsXsXsXsXtXtXsXsXsXgXgXdXjXkXbXBXZXZXAXAXCXCXMXvXjXhXhXfXgXsXaXaXsXsXsXsXsXsXsXsXaXdXdXdXfXjXjXkXkXkXkXkXjXjXgXaXtX9X0X0X8X8X8X8X8X8X8X8X8X8X8X8X8X8X5X5X5X5X8X8X7XyXsXgXdXjXjXjXjXjXkXjXjXjXjXfXdXdXdXsXtXtXyX9X9X9X9XeX0X0X7X7X4X4X4X4X4X4X7X7X7X7X0X0XyXyXtXtXsXsXsXsXsXsXsXsXsXtXtXtXyXyXyXyXyXeXeXeXeXeXeXeXeXeXeXeXeXtXtXtXeXeXeX0XeXeXyXyXyXyXyXyXtXtXtXtXtXtXtXtXsXsXsXsXdXdXdXsXsXsXsXtXyXyXeX8XwXwXwX4X4XwXwXwX5X8X5X4XwXwXwXwX5X5X3X3X-X&X%XXX.X{.{.'.'._.`.T.R.E.E.E.J.C.c.#.X.[ ' ' E E X.v.K.K.J.m.-.%.o.o.{ { [ X.+.Q.oX$X=X1X$X#X#XXX X[.~.Y.A.c.s.0.6.6.=.=.*.@.@.@.O.O.O.O.O.O.O.O.O.O.O.O.O.o.o.o.o.o.O.O.@.#.#.0.t.c.c.A.R.T.~.~.~.!.~.~.Y.Z.m.x.t.9.*.*.*.O.X.X.X.[ +.{ o.[ [ [ [ [ [ [ ' ~ E F ~ $.#.s./.(.$.' $.1.D.<.W W A 9 ! qXiXsX(.).z.A.A.N.N.N.n.n.n.n.n.n.n.n.n.n.N.N.M.M.M.M.M.C.C.C.C.S.C.C.C.C.C.C.C.C.M.M.M.M.M.M.M.M.M.M.m.m.m.m.m.m.m.m.m.m.m.m.m.m.N.N.N.N.m.m.m.N.n.n.n.x.x.x.x.x.f.i.t.#.@.@.@.O.O.o.X.[ [ ' ` ` ",
"L L L L L L L L L L P P P P P P I I ~ ~ / [ O.u.b.:.E S S S S S V V V V V V S S S S S S S S F F F F F P ~ ~ ^ ^ ^ / / / / / ` &.@.@.#.u.s.s.s.s.s.s.x.m.M.S.Z.Y.T.~.[.[.{.{.{.{.[.[.].].Q.E.G.C.m.m.m.c.c.c.c.c.c.c.s.s.f.f.f.s.s.s.s.s.s.d.d.d.n.N.V.S.J.R.W.~.[.XX%X-X5XeXeXtXyXyX9X0X5X5X-X&XXX{.'.W.E.F.C.M.N.n.d.d.s.s.s.s.y.y.t.y.t.t.0.0.0.0.0.0.0.0.0.0.0.q.0.r.i.d.x.m.A.Z.F.F.K.T._.'.{. X.X.X{.{.].].W.W.F.G.C.C.m.x.x.s.s.s.s.s.s.i.y.t.y.t.t.t.i.i.i.i.a.a.f.s.d.d.n.n.V.B.B.B.B.H.B.B.S.M.C.C.C.C.C.C.C.C.C.S.J.J.J.J.J.J.R.E.E.E.E.E.W.W.W.W.W.W.].[..XXX%X*X3X3X5X4X3X3X3X-X&XXX.X.X{.{.[.[.[.[..X.X.X.X.X.X.X.X+XXX%X*X=X1X6X6X5X0XsXdXjXkXmXMXMXbXvXvXkXhXdXsXsXtXtXtXtXsXsXsXtXtXtXtXsXsXsXsXtXtXsXsXsXgXgXfXjXkXbXBXCXZXAXCXCXCXbXvXkXhXhXfXgXsXaXaXsXsXsXsXsXsXsXsXaXdXdXdXfXjXjXkXkXkXkXkXjXjXfXaXsXtX9XeX8X8X8X8X8X8X8X8X8X8X8X8X8X8X8X8X5X8X8X0X9XyXsXgXdXjXjXjXjXkXkXkXjXjXjXjXfXdXdXsXsXtXtX9X9X9X9X9X0X0X7X7X7X4X4X4X4X4X7X7X7X7X0X9XyXyXtXtXsXtXsXsXsXsXsXsXsXsXtXtXyXyXyXyXyXeXeXeXeXeXeXeXeXeXeXeXeXtXtXtXeXeXeX0X0X0XyXyXyXyXyXyXtXtXtXtXtXtXtXtXsXsXgXgXdXdXdXdXsXsXsXtXyXyXeX8XwX4X4X4X4XwXwXwX8X8X5XwXwXwXwX5X5X3X3X3X=X&X&XXX.X{.'.'._._.`.T.R.E.E.E.F.C.x.#.' X.-.u.#.' O.v.K.K.G.c.#.+.X.X.X.{ { X.+.J.oX$X1X1X$X#X#XXXoX[.W.Z.A.c.t.0.6.=.=.=.*.@.O.O.O.O.O.O.O.O.O.O.O.O.O.O.o.o.o.o.O.O.O.O.@.#.#.u.t.c.c.A.J.T.~.~.~.!.~.~.Y.Z.m.x.t.9.*.@.*.O.X.X.X.X.X.[ { [ [ [ [ [ [ [ [ [ / ~ ~ [ ' X.| | ~ ~ ~ E $.b./.b.E A A A W (.zXsX(.^.A.P.c.N.n.n.N.n.n.n.n.n.n.n.N.N.M.M.M.M.M.M.C.C.C.S.C.C.C.C.C.C.C.C.M.M.M.M.M.N.m.M.M.M.m.m.m.m.m.m.m.m.m.m.m.m.m.m.m.N.N.m.m.m.m.n.n.n.n.x.x.d.d.d.s.i.0.#.@.@.O.O.O.o.X.[ [ [ ` ` ",
"F F F F F F L L L L L P P P P P P P I ~ / [ @.u.v.:.E S S V M M M M M M V V S S S S D D D F F F F F F E ~ ~ ~ ~ ^ / / ( / / ] &.;.@.-.-.u.s.s.s.s.f.x.x.m.A.C.F.Y.T.~.].[.[.{.[.[.].].].`.E.G.C.m.m.m.c.c.c.x.c.s.s.s.s.s.s.s.s.s.s.t.t.s.s.d.x.x.V.n.m.S.J.E.W.].{..X%X2X5X0X9X9XtXtX9X8X5X3X-X%X.X[._.E.F.G.M.m.n.x.s.s.f.f.s.p.y.y.t.y.y.q.q.0.0.w.w.0.0.0.0.7.0.q.q.p.i.d.x.m.A.C.C.G.K.T._.'.{.{.{.{.{.}.].`.T.F.F.G.S.C.m.x.x.d.s.s.s.s.s.i.i.i.p.y.y.i.i.i.i.f.f.s.d.d.d.n.V.B.B.B.B.B.B.S.S.S.M.C.C.C.C.C.C.C.C.C.C.J.F.J.J.K.K.E.R.E.E.E.E.E.E.W.W.W._.].[..XXX%X-X3X3X4X4X3X3X3X&X#X.X.X.X.X{.[.[.[.[.{.{.{..X.X.X.X.X.XXX%X%X=X=X6X6X8X9XdXdXjXkXmXMXMXbXvXvXkXhXdXsXsXtXtXtXtXtXtXtXtXtXtXtXsXsXsXsXtXtXtXtXsXaXaXfXjXvXmXCXCXCXCXCXCXCXbXvXkXjXhXfXdXgXsXsXsXsXsXsXsXsXsXgXgXgXgXdXfXjXjXjXkXvXvXkXkXjXjXdXaXsX9X9X0X0X8X8X0X0X0X0X8X7X7X7X7X0X0X0X8X8X8X0XyXtXsXgXgXdXjXjXkXkXkXkXkXjXjXjXfXdXdXdXsXsXsXsXtX9X9XyX7X7X7X7X7X7X7X7X7X7XeXeX7X7X7XrXrXrXyXtXtXsXsXsXsXsXsXsXsXtXtXtXyXyXyXyXyXyXyXyXyXyXyXyXyXyXyXyXeXeXeXeX7X0X0X0X0X0XeXeXeXeXeXeXyXyXtXtXtXsXsXtXsXsXgXgXfXfXdXdXaXaXaXsXtXeXeXeXwX4XwXwX4X4X7XeX8X8XeXeXwXwXwXwX5X5X3X3X-X&XXX+X{.[.'.'._._._.T.T.E.E.K.F.C.c.#.#.v.D.D.D.s.O.v.M.G.E.Z.5.$.$.#.+.&.} ` +.J..X=X1X1X$X$X$XXX^.^.T.Z.c.c.t.9.6.=.=.*.@.@.O.O.O.O.O.O.O.O.O.O.O.O.o.o.o.o.O.O.O.O.O.O.@.#.#.0.t.c.c.A.Z.Q.~.~.~.~.!.~.Y.Z.m.c.t.9.*.*.*.O.X.X.X.X.X.X.o.{ [ [ [ [ [ [ o.o.[ [ ] ' ` ~ F F P ~ ~ E E / $.b.D.:.' E S M E U.5X3X+XY.A.N.c.f.n.n.n.n.n.n.n.n.N.N.m.m.m.m.B.M.C.M.C.B.C.C.C.C.C.C.C.C.M.M.M.M.M.m.m.m.m.m.m.m.m.m.m.m.m.m.m.m.N.N.N.N.N.N.N.N.N.N.N.n.n.n.x.x.d.d.d.f.s.t.0.=.@.@.O.O.O.o.X.[ [ ` ` ` ",
"F F F F F F L L L L P P P P P P P P I ~ / [ O.u.b.:.E S M V M M M M M M V C S S S S D D D F F F F F F E ~ ~ ~ ~ ~ ^ ( ( ( / ] &.:.@.#.:.u.u.s.s.s.s.s.x.x.m.A.C.F.Y.T.~.].'.[.[.[.].].].`.E.F.C.m.m.m.x.c.c.c.c.s.s.s.s.f.s.s.s.s.s.t.t.s.f.d.x.x.n.V.m.M.S.K.E.`.].{.OX*X2X5X9X9XtX9XtXeXeX5X3X-XXXoX].W.E.H.H.M.N.n.d.s.s.s.i.p.i.y.t.y.y.q.q.0.0.w.w.0.0.0.0.w.8.0.q.q.t.i.f.x.m.A.C.C.F.E.W._.'.{.{.{.].]._.`.T.F.F.J.J.S.S.m.x.x.d.s.s.f.s.s.f.i.i.i.i.f.f.f.f.s.d.d.d.d.d.V.B.V.B.B.B.B.B.S.S.M.M.M.M.C.C.C.C.C.C.C.C.G.F.J.J.J.E.R.R.E.E.E.E.W.W.W.W.W.].].[..XOX%X-X3X5X4X4X3X3X=X&XXX.X.X.X.X[.[.[.[.[.{.{.{..X.X.X.X.X.XXX%X%X-X=X1X3X8XyXdXdXjXkXMXMXMXbXvXkXkXhXdXsXsXtXtXtXtXtXtXtXtXtXtXtXtXsXsXtXtXtXtXtXsXaXdXfXjXvXmXCXCXCXCXCXCXCXbXbXvXjXhXfXdXgXsXsXsXsXsXsXsXsXsXsXgXgXgXdXfXjXjXjXkXvXvXkXkXjXjXfXdXsXtXtX9X0X8X0X0X0X0X0X7X7X7X8X7X0X0X9X0X8X8XeXyXtXsXgXgXdXjXkXkXkXkXkXkXkXjXhXfXfXdXdXaXsXsXsXsX9X9X9X0X7X7X7X0X0X0X7X7X7XeXyX7X7X7X0XrXrXyXtXsXsXsXsXsXsXsXsXsXsXsXtXtXyXyXyXyXyXyXyXyXyXyXyXyXyXyXyXeXeXeXeX0X0X0X0X0X0XeXeXeXeXeXeXyXyXtXtXsXsXsXsXsXgXdXdXfXfXdXdXaXaXaXsXtXeXeXeXwX4XwXwX4X4X7XeX8X8XeXeXwXwXwX4X5X3X3X=X%X&X+X.X[.'.'._._._.T.E.E.E.K.K.J.S.c.5.x.D.R.C.Q.v.@.-.i.Z.^.!.^.=X^.s.:.+.[ [ +.J.XX2X6X1X1X$X#XoX^.!.Y.A.c.f.t.0.6.=.=.*.*.@.@.O.O.O.O.O.O.O.O.O.O.O.o.o.o.o.O.O.O.O.O.O.*.#.#.0.t.c.c.A.Z.Q.W.^.~.~.!.~.Y.Z.m.x.t.9.*.*.*.O.X.X.X.X.X.X.{ { [ [ [ [ X.X.o.o.o.+.{ } ] / ~ F D F ~ ~ ~ ~ E / [ b.D.:.) ~ F E W U.=X3XQ.S.N.N.m.n.c.n.n.n.n.n.N.N.m.m.m.m.B.M.C.C.C.M.C.C.C.C.C.C.C.C.M.M.M.M.m.n.n.n.m.m.m.m.m.m.m.m.m.m.m.m.N.N.N.N.N.N.N.m.N.N.N.n.n.n.x.x.d.d.f.s.i.t.0.#.@.O.O.O.O.o.X.[ [ ` ` ` ",
"F F F F F F F F L F L L P P I P P P P ~ ' [ #.u.v.:.E S M V M M M M M M V V S S S S S S D D F F F F F F ~ ~ ~ ~ ~ ~ ( ( ( / ] >.:.@.@.#.#.u.s.i.i.s.s.s.x.x.N.A.Z.F.E.W.~.].[.[.[.].].].`.E.J.C.A.m.m.c.c.c.c.s.s.s.f.f.f.s.t.t.s.s.t.t.s.s.s.x.x.x.V.n.V.M.H.J.W._.]..X#X=X4X8X9XyXyXyXeXeXeX5X3X&XXX[._.E.F.H.S.M.n.x.d.s.s.i.s.s.i.y.y.y.t.q.0.0.0.0.0.0.0.0.w.w.0.w.w.q.t.i.s.x.m.A.C.Z.F.E.T._.'.].].]._._.`.W.K.J.J.J.J.H.S.m.n.x.x.d.d.s.f.f.f.f.f.f.d.d.d.d.d.d.d.d.n.n.V.V.B.B.B.B.B.B.S.B.B.M.B.B.M.M.M.M.C.C.C.C.G.F.J.J.K.E.E.E.E.E.Q.Q.W.W.W.W.].].[..X+XOX&X-X3X5X4X4X3X=X*X#XXXoX.X{..X[.}.[.[.[.[.[..X.X.X.X.X.X.XXX%X%X=X=X3X5X8XtXdXfXjXvXmXMXMXbXvXkXjXhXdXsXsXtXtXtXtXtXtXtXtXtXtXtXtXtXtXtXtXyXtXtXsXaXdXfXjXvXmXMXCXCXCXCXCXCXCXbXvXhXhXhXdXdXsXsXsXsXsXsXsXsXsXsXgXgXdXdXfXjXjXjXkXkXvXkXkXkXjXfXdXsXtXtXtXeXeXeX9X9X9X9XeXeXeXeX9X9XyX9XeX0XtXtXyXtXdXgXgXxXjXjXkXkXkXvXvXkXjXjXjXjXfXdXdXgXsXsXsXsXtXtXtXtXyXyX9X9X0X0X0XeXyXyX7X7X0X0XrXrXyX9XsXsXsXsXsXsXsXsXsXdXsXsXsXsXsXtXtXyXyXyX9X9XyXyXyXyXyXyXyXeXeXeXeXeXeXeX0XeXeXeXyXyXeXeXyXyXtXtXsXsXgXgXdXdXdXdXfXfXfXfXdXdXdXgXtXyXeXeXeXwXwXwXwX7XeXeXeX8XeXwXwXwX5X2X3X3X=X*X#XXX.X[.].'.'._.`.T.T.T.E.E.E.K.J.J.D.i.D.Q.Q.Z.Z.A.-.-.s./.).jXNXzX/.$./.&Xu.-.+.Q.#X4X6X1X$X#X#X X^.~./.c.c.i.0.9.9.=.=.*.@.@.@.@.O.O.O.O.O.O.O.O.O.O.O.O.O.O.O.O.O.O.O.O.@.#.#.0.t.c.c.A.Z.Q.Q.~.~.!.!.~.Y.Z.m.x.t.9.;.*.;.O.X.+.X.X.X.X.{ { [ [ o.o.X.X.o.o.o.o.+.&.+.{ ] ` ~ F S F ~ I I I ^ ~ $.b.(.U.<.E E E W z.Q.Q.K.x.m.m.m.n.x.n.n.n.N.N.m.m.m.m.M.M.M.M.M.M.C.C.C.C.C.C.M.M.M.M.M.n.n.n.n.n.m.m.m.m.n.m.m.m.n.n.m.m.N.m.m.m.N.N.N.n.n.n.n.n.n.n.x.x.d.d.f.f.p.t.0.#.@.O.O.O.o.o.X.[ ' ` ` ` ",
"F F F F F F F F F F L L P P I P L P ~ ~ ` [ #.u.v.:.E S M M M M M M M M V V V V S S S S D D F F F F F F F F E E E ( ( ~ ^ ~ ` :.:.-.@.#.#.u.u.u.t.t.s.s.s.x.n.N.A.Z.F.E.W.~.~.[.[.].]._.Q.E.J.C.A.m.m.c.c.c.x.s.s.s.f.t.t.t.t.t.t.t.t.t.t.s.f.d.x.x.x.n.m.m.M.H.K.W._.'..X#X*X4X7X9XyXyXyXeXeX8X5X=X#XoX].W.E.J.H.B.m.n.x.s.s.s.s.p.i.y.y.y.t.0.0.0.0.0.0.0.0.0.w.w.0.0.0.q.q.p.s.s.c.m.C.C.Z.F.Y.T._._._._._.`.W.E.K.J.J.J.J.J.S.S.N.n.x.x.x.d.d.d.d.f.f.d.d.d.d.d.d.d.x.n.n.V.B.V.B.B.B.B.B.B.M.M.M.M.m.m.M.M.M.M.C.C.C.C.C.G.G.J.J.E.E.E.E.E.Q.W.W.W.W.].].].[.oX+X&X&X-X3X2X5X2X2X*X%XXX.X.X[.[.[.[.}.[.[.[.[.[..X.X.X.X.X.X.XXX%X%X*X=X6X5X8XtXdXfXjXvXmXMXMXbXvXkXjXhXdXsXtXtXtXtXtXtXtXtXtXtXtXtXtXtXtXtXyXyXtXtXsXaXdXfXhXvXbXMXCXCXCXCXCXCXCXbXvXhXhXhXdXdXsXgXsXsXsXsXsXsXsXsXgXgXdXdXfXjXjXjXkXkXvXvXkXkXjXhXdXsXtXtXtXtXtXeX9X9X9X9X0XeXeXeX9X9XyXyX9X9XtXtXtXtXsXgXgXxXjXjXkXkXvXvXvXvXkXjXjXjXjXfXdXgXgXsXsXsXtXtXtXtXyXyXyXyXyXeX0XeXyXrXyX7XrXrX0X9X9X9XsXsXsXsXsXsXsXsXsXsXdXsXdXsXsXsXsXsXtXtX9X9XyXyXyXyXyXyXyXeXeXeXeXeXeXeXeXeXeXeXyXyXeXeXyXyXtXtXsXsXgXgXdXdXdXdXfXfXfXfXdXdXdXgXtXyXeXeXeXeXeXeX7X7XeXeXeX8XeX8X5X4X4X3X2X=X*X#XXX.X[.[.].'._._._.T.T.T.E.E.E.K.J.K.D.c.c.J.`.Q.A.m.u.b.A.).iXmXkX(.' :.z.oX=Xz.X./.XX1X6X1X$X$X X^.^.R.Z.c.c.t.9.9.=.=.*.*.@.@.@.@.O.O.O.O.O.O.O.O.O.O.O.O.O.O.O.O.O.O.O.@.*.-.#.u.t.c.x.A.Z.R.Q.~.~.!.~.~.Y.Z.m.x.y.w.=.*.*.O.X.X.X.X.X.X.{ { [ [ o.o.X.X.o.o.o.+.&.&.&.&.+.o.[ ` ~ ~ F F I P P ^ E E <.U.(.(.| E A E E :.D.D.D.A.m.c.c.c.m.m.m.m.m.m.m.m.M.C.M.M.M.M.C.C.C.C.C.C.M.M.M.M.M.n.n.n.n.n.m.m.m.m.n.n.n.n.n.n.n.n.n.n.n.n.N.N.n.n.n.n.n.n.x.x.f.f.d.f.i.i.i.q.9.#.@.O.O.O.o.o.X.[ ' ` ` ` ",
"F F F F D F F F F F F F P L L L F P ~ ~ ' [ #.u.v.$.E S M M M M M M M M M M V V S S S S S S F F F F F F F F E E E E ~ ~ ( ~ ' :.u.:.#.#.#.9.0.u.t.t.i.t.f.f.x.n.N.A.Z.F.W.W.~.].].].]._.W.E.J.S.C.m.m.c.x.c.x.s.s.f.s.t.t.t.t.t.t.t.t.t.t.i.s.s.v.x.x.x.n.N.M.M.G.E.W.].[.XX*X6X5X7XeXyXyXyXyXeX5X3X*XXX[.].T.F.J.S.M.n.x.x.s.s.s.s.p.t.y.y.y.y.0.0.0.0.q.q.q.q.0.0.0.0.q.q.q.t.y.s.x.c.m.C.C.Z.F.K.T.W.`.`._.W.Q.E.K.K.K.K.K.J.J.S.M.m.m.m.n.x.x.x.d.f.d.d.d.d.f.f.x.x.x.n.n.V.V.B.B.B.B.B.B.B.M.M.M.M.m.m.m.m.M.M.M.M.C.C.C.C.J.K.J.R.R.R.Q.W.W.W._._.].].].[.[.+X&X&X-X-X3X3X3X3X=X%X#XXXoX[.[.[.[.[.[.[.[.[.[.[.{.{.{.{.{..X.XXXOX%X*X=X6X5X0XtXdXjXjXvXmXMXbXbXvXkXjXhXdXsXtXtXtXtXtXtXtXtXtXtXtXtXtXtXtXtXyXyXtXtXsXaXdXfXhXkXbXbXCXCXCXCXCXCXCXbXvXhXhXhXdXgXsXgXsXsXsXsXsXsXaXsXsXgXdXdXdXjXjXjXkXvXvXvXkXkXjXjXfXdXsXtXtXyXyXyXyXyXyXtXyXyX9X9XyXyXyXyXtXtXtXtXtXtXsXgXgXxXhXjXkXkXvXvXvXvXvXkXkXjXjXjXdXdXdXsXdXsXsXtXtXtXtXtXtXtXyXyXrX0X0X0XrXrXyXyX9X9XsXsXsXsXgXgXgXgXgXgXdXdXdXdXdXdXdXdXaXsXtXtXsXtXtXtXyXyXyXyXyXyX9X0X0X0XeXeXeXeX0X0XyXyXyXyXeXeXyXtXtXtXgXgXdXdXfXfXfXfXfXhXdXfXdXdXsXyXyXeXyXrXyXyXeXeXeXeX0X8X8X8X5X5X5X2X-X*X%X%XXX.X[.].'.'._._.`.T.T.E.T.E.E.K.J.K.D.c.f.m.R.Q.J.u.#.b.dXAXNXiX! $.+.o.&.b.uX!.5.Q.=XeX6X1X#XXX X~.~.Y.A.c.f.t.0.w.=.=.*.*.@.@.@.@.O.O.O.O.O.O.O.O.O.O.O.O.O.O.O.O.O.O.O.@.*.-.9.0.t.s.x.m.Z.R.W.~.~.!.~.T.Y.Z.m.x.i.0.=.=.*.O.X.X.o.X.X.[ [ [ [ [ [ X.X.o.o.o.o.o.o.+.&.&.&.+.+.o.+.] ~ F F E F F L P S E ,.1.(.U.$.E E E W $.s.b.D.D.v.v.v.v.v.m.m.m.N.N.M.C.C.C.C.C.C.C.S.S.S.S.M.M.M.M.M.M.N.n.n.n.m.m.m.m.n.n.m.m.n.n.m.m.N.N.n.n.n.n.n.n.n.n.n.n.d.d.d.d.f.f.a.i.p.0.9.@.@.O.O.O.o.o.[ [ ' ` ` ` ",
"F F F D D D D D F F F F P L L L F L ~ ~ ' X.#.u.v.$.E S M M M M M M M M M M V V V S S S S S F F F F F F F F E E E E ~ ~ ( ( W U.$.#.#.#.#.9.9.u.t.t.y.t.s.f.f.x.n.N.C.G.Y.W.W.W.~.W._.W.Q.E.J.S.C.m.m.c.x.c.x.s.s.s.s.t.t.t.t.t.t.t.t.t.t.i.s.s.x.v.x.x.x.n.n.M.M.G.E.W.[..X#X*X2X4XeXeXyXyXyXyX0X5X=X#X.X[.W.E.J.Z.S.m.x.x.s.s.s.s.p.t.y.y.y.y.0.0.0.0.q.q.q.q.0.0.0.0.q.q.q.q.y.s.s.x.x.m.A.C.G.F.K.E.W.Q.`.Q.Q.Q.E.K.R.K.K.K.J.S.C.N.m.m.m.m.m.n.x.d.d.d.d.d.x.x.n.n.n.n.V.V.V.B.B.B.B.B.m.m.M.M.m.m.m.m.m.m.m.m.M.M.A.A.C.C.J.K.J.E.R.E.W.W.W.W._.].].[.[.[.oX+X&X=X-X-X3X2X2X-X*X%XXXXX.X[.[.[.[.[.[.[.[.[.[.[.{.{.{.{.{..X.XXXXX%X%X=X3X5X0XtXdXjXkXvXmXMXbXbXvXkXjXhXdXsXsXtXtXtXtXtXtXtXtXtXtXtXtXtXtXtXyXyXtXtXsXaXdXdXhXjXvXbXbXBXCXCXCXCXCXbXvXhXhXhXdXgXgXgXsXsXsXsXsXsXsXaXsXsXgXdXdXjXjXjXkXvXvXvXvXkXkXjXdXdXaXsXtXtXyXyXyXyXtXtXyXyX9X9XyXyXyXyXtXtXtXtXtXtXsXgXgXxXdXhXkXkXvXvXvXvXbXvXkXkXjXjXfXdXdXdXdXsXsXsXsXsXtXtXtXtXtXyXyX0X0X0XrXrXyXtX9X9XsXsXsXsXaXgXgXgXdXdXdXdXdXdXdXdXdXdXaXaXsXtXsX9XtXtXyXyXyXyXyXyX9X9X0X0XeXeXeXeX0X0XyXyXyXyXeXyXyXtXtXtXgXgXdXdXfXfXfXfXfXfXfXfXdXdXsXtXyXeXyXrXyXyXeXeX0XeX0X0X8X4X5X2X2X2X-X%X%XOX.X.X].].].'._._.`.`.`.E.T.E.E.K.J.K.D.c.#.5.m.Q.c.X.[ b.jXiX).! $.$.X.O.;.' $X$XA.c.oX3X=X*X#XoX~.~.T.Z.A.c.i.u.9.9.=.=.=.*.@.@.@.@.O.O.O.O.O.O.O.O.O.O.O.O.O.O.O.O.O.O.O.@.*.-.9.0.t.s.c.m.C.R.W.~.~.!.~.T.Y.Z.m.x.i.0.=.=.=.O.X.X.o.X.X.[ [ [ [ [ [ [ X.o.o.o.X.o.o.o.O.O.O.O.O.O.-.:.+.[ ' E E F L I P ~ ~ | E 1.U.1.| ' E E E X.s.v.D.D.D.V.v.m.m.m.N.m.C.C.C.M.C.C.C.C.S.C.C.S.M.M.M.M.M.M.N.n.n.n.m.m.n.n.n.n.n.n.n.n.n.n.n.n.n.n.n.n.n.n.n.n.n.x.d.d.d.f.f.s.i.i.0.0.9.@.@.O.O.o.o.o.X.[ [ ` ` ` ",
"F F D D D D D D F F F F P P L L F L ~ ~ ' X.#.u.v.$.E S M M M M M M M M M M V V V V S S S S F F F F F F F F F E E ~ ~ ~ E W A 9XW $.#.@.-.9.9.9.u.y.y.t.i.i.d.x.x.n.M.C.G.Y.E.W.W.W._.Q.E.R.J.J.C.m.m.c.x.c.x.s.s.s.s.t.t.t.t.t.t.t.t.t.t.i.s.s.x.v.x.x.x.n.n.n.M.M.G.E.~.[.XX%X1X5X7XeXyXtXtXyXeX8X3X%XXX[.].T.R.J.S.A.m.x.d.s.s.s.p.i.y.y.t.y.y.0.0.0.0.q.0.0.0.0.0.0.q.q.q.y.t.i.s.d.x.x.m.M.C.C.G.J.K.E.E.E.E.Q.E.E.R.R.K.K.K.G.G.A.m.C.M.M.m.m.N.n.n.n.n.n.n.n.N.N.m.B.B.B.B.M.M.M.B.B.m.m.B.M.m.m.m.m.m.m.m.m.M.M.A.A.C.C.J.K.E.E.Q.Q.W._.].].].].[.}.}.oXoXXX&X=X-X-X-X3X3X*X%XXXXX.X[.[.[.[.].].[.[.[.[.{.{.{.{.{.{.{..X.XXXXX%X%X=X3X8X9XtXdXjXjXkXMXMXbXvXvXkXjXhXdXsXtXtXtXtXtXtXtXtXtXtXtXtXtXtXtXyXyXyXtXtXsXaXdXdXhXjXvXbXbXCXCXCXCXCXCXMXvXkXhXhXdXgXgXsXsXsXsXsXsXsXsXsXsXsXgXdXdXfXjXkXkXkXvXvXkXkXkXjXjXdXdXdXsXtXtXtXtXtXtXtXtXtXyXyXtXtXtXtXtXsXtXtXtXtXsXsXaXgXhXhXkXkXvXvXbXbXbXvXvXkXjXjXjXfXfXfXsXsXsXsXsXsXsXsXtXtXtXtXtXtXtXtXyXtXyXtXsXsXtXtXsXsXgXgXgXgXdXdXdXdXfXdXdXdXfXfXdXdXgXsXsXtXtXtXtXtXyXyXyXyXyXyX0X0X0XeXeXeX0X0XeXeXyXyXeXeXyXtXtXsXgXgXdXdXfXfXfXfXfXfXdXdXdXdXsXtXyXyXyXyXyXyXeXeX0X0X0X0X8X4X5X2X2X2X-X%XOXXX.X{.].].]._._._.`.`.`._.W.W.E.K.K.K.J.c.+.' ' X.X.+.&.{ ' $.$.$.+.+.+.+.@.#.z./.u.' z.^.&X*XXX.X!.T.Y.A.c.f.t.5.9.9.=.=.*.@.@.@.@.O.O.O.O.O.O.O.O.O.O.O.O.O.O.O.O.O.O.O.O.@.*.-.9.0.t.s.c.m.C.R.W.~.~.!.~.T.Y.Z.A.c.f.0.9.=.;.@.O.X.X.X.+.X.[ [ [ [ [ [ X.o.o.X.X.X.o.o.O.O.O.O.O.@.*.-.:.:.$.[ ' ~ ~ ~ ~ ( ( ( ~ ( ( $.2...} ' ' E E ' b.v.D.v.v.V.m.m.m.M.C.C.A.M.C.C.C.C.C.M.C.C.C.M.M.M.M.M.m.n.n.n.n.n.n.n.n.n.n.n.n.n.n.n.n.n.n.n.n.n.n.n.n.n.n.d.d.d.d.d.f.i.i.p.0.0.9.@.@.O.O.O.o.o.[ [ [ ] ' ' ",
"D D D D D D D D F F F F F F L F F L ~ ~ ' X.#.u.b.$.F S M m M M M M M M M M M M V V S S S S D D F F F F F F F F E ~ I ~ E W ! 0XW $.#.@.=.9.0.9.9.9.t.t.t.i.f.d.x.x.N.M.C.G.F.E.W.Q.Q.Q.E.J.J.J.C.m.m.c.c.x.x.s.s.s.s.t.t.t.t.t.t.t.t.t.t.t.t.s.x.x.x.x.x.x.n.n.n.M.C.F.R.~.[.XX%X2X5X4X0X0X9XyX7X8X3X=X#X.X[.W.R.R.J.C.m.x.x.d.s.a.i.i.i.y.t.t.y.0.0.0.0.0.0.0.0.0.0.0.q.q.q.y.0.y.i.f.d.x.n.N.M.M.M.H.K.K.K.E.Q.Q.Q.E.R.R.K.K.K.J.G.C.C.C.C.M.M.M.M.N.n.n.N.N.N.N.M.M.B.B.B.B.M.M.M.M.B.B.M.M.M.M.m.m.m.m.m.m.m.m.M.M.C.C.C.C.J.K.E.E.E.W.W._.].].].].[.[.oXoX+XXX&X&X-X-X-X*X-X%XXXXX.X{.[.[.].].].].].].[.[.[.[.{.{.{.{.{..X.XXXXX#X%X*X3X8XeXtXdXjXjXkXvXvXvXvXvXjXhXfXdXsXtXtXtXtXtXtXtXtXtXtXtXtXtXtXyXyXyXyXtXtXsXaXdXdXhXjXvXbXbXCXCXCXCXCXCXMXvXlXhXhXdXgXgXsXsXsXsXsXsXsXsXsXsXsXgXgXdXfXjXjXkXkXvXvXkXkXkXjXjXdXdXdXsXtXtXtXtXtXtXtXtXtXtXtXtXtXtXtXtXtXtXtXtXtXsXsXaXgXdXhXjXkXvXvXvXvXbXvXvXkXkXjXjXfXfXfXfXdXdXsXsXsXsXsXtXtXtXtXtXtXtXtXyXtXtXtXsXtXtXtXsXsXgXgXgXgXdXdXdXdXdXdXdXdXdXfXdXdXdXgXgXsXtXtXtXyXyXyXyXyXyXyX0X0X0XeXeXeX0X0XeX0XeXyXeXeXyXtXtXsXgXdXdXdXfXfXfXfXfXfXfXdXdXdXsXtXtXyXrXyXyXyXeX0X0X0X0X0X8X5X4X2X2X-X-X%X+X.X.X{.].]._._._._.`.`.`._.W.T.E.K.K.K.G.c.+.X.X.@.O.X.&.>.+.+.@.-.O.O.+.+.#.#.+.$.' ' $.}.&X%XXX[.T.Y.Z.c.f.f.5.5.9.9.=.=.@.@.@.@.@.O.O.O.O.O.O.O.O.O.O.O.O.O.O.O.O.O.O.O.O.@.*.=.9.0.t.s.x.m.C.R.W.T.~.~.~.T.Y.Z.A.m.f.0.9.=.=.@.O.X.o.X.o.o.[ [ [ [ [ [ X.X.X.X.X.X.O.O.O.O.O.O.O.@.#.9.u.9.:.@.+.[ ` / ~ E E E | / ~ / } ..>.+.X.' E E ' $.s.D.D.D.D.D.m.m.m.m.A.C.C.C.C.C.C.M.C.C.M.M.M.M.M.N.n.n.n.n.n.n.n.n.x.x.x.x.x.x.x.x.n.n.n.n.n.n.x.x.x.n.n.d.d.d.d.d.f.p.p.p.q.0.9.#.@.O.O.o.o.o.[ [ [ ] ' ' ",
"D D D D D D D D F D F F F F L L F P ~ ~ ` X.#.u.b.$.F S M m m m M M M M M M M M M M S S S S D D D D F F F F F F E F P ~ F W 4.dX<.' +.@.=.9.9.u.u.u.t.t.t.s.s.s.f.x.n.m.A.C.G.F.E.E.R.R.J.J.J.S.C.m.m.m.c.x.c.s.s.y.i.t.t.t.0.0.t.t.t.t.t.t.t.s.d.x.x.x.x.x.x.n.n.M.M.C.Y.T.!..XXX%X2X5X4X7X7X7X0X8X5X=X&XXX.X].W.Y.J.S.C.N.x.x.d.f.f.i.y.y.y.t.t.q.0.0.q.q.q.0.q.q.0.0.q.q.t.t.t.t.t.i.s.x.x.n.N.M.M.B.H.H.K.K.K.E.Q.E.R.R.J.R.J.J.J.G.J.H.H.H.S.M.M.M.M.M.M.M.M.M.M.M.M.B.S.S.B.B.M.B.B.B.B.M.M.m.m.m.n.n.m.m.m.m.M.M.M.M.C.C.H.K.K.E.Q.W._._.].].].[.[..X.XXX+X#X&X&X-X-X*X*X%X%XXX.X X[.[.].].].].].].].].].[.[.[.{.[.[.{..X.XXXXXXX%X=X5X8XeXtXdXjXjXkXvXvXvXvXkXjXhXdXaXsXtXtXtXtXtXtXtXtXtXtXtXtXtXtXyXyXyXyXtXtXsXaXdXdXhXkXvXbXMXCXCXCXCXCXCXMXvXkXhXhXdXgXgXsXsXsXsXsXsXsXsXsXsXsXsXgXdXfXjXjXjXkXvXvXkXkXkXjXjXdXdXdXsXsXtXtXsXsXtXtXtXsXtXtXtXtXrXrXtXtXtXsXsXaXsXsXgXdXfXhXjXkXvXvXvXvXvXvXvXvXvXkXjXjXjXjXfXdXgXsXsXsXsXsXtXtXtXtXrXrXrXrXrXrXrXrXaXaXaXaXsXaXaXgXdXdXgXdXdXdXdXdXfXfXfXfXfXfXfXdXgXsXsXtXtXtXtXtXtXtXyXyXyXyXeXeXeXeXeXeXeXeXeXeXeXyXtXtXtXsXgXdXdXdXfXfXfXfXfXfXfXfXfXdXdXsXtXtXrXrXyXyXyXyX9X9X0X0X8X5X5X2X-X-X-XOX.X.X{.{.].]._._.`.`.`.T.W.T.E.E.E.E.K.K.J.m.#.X.' O.O.O.O.O.O.O.@.@.O.O.@.#.$.+.#.#.+.$.z.^.&X%X.X[.R.F.M.n.f.i.t.5.9.=.=.*.@.@.@.@.O.O.O.O.O.O.O.O.+.O.O.O.O.O.O.O.O.O.O.O.O.@.=.-.9.0.t.s.x.m.C.Y.W.T.~.!.~.T.Y.Z.A.m.s.t.6.#.=.@.O.O.o.o.X.X.[ [ [ [ X.X.X.o.o.o.O.O.O.O.O.O.O.O.@.@.#.9.0.0.9.-.;.-.O.X.E E E F F E ~ ~ / ) } { >.&.X.' E E E #.u.s.v.v.m.m.m.A.C.C.M.M.C.C.S.S.C.C.M.M.M.M.m.N.n.n.n.n.n.n.n.x.x.x.x.x.x.x.x.x.x.x.n.n.n.x.x.x.n.n.j.f.d.d.d.d.a.p.p.p.q.0.9.#.@.@.O.O.O.o.X.[ [ ] ' ' ",
"D D D D D D D D D D D D F F F F F L ~ ~ ` X.#.u.b.$.S S M m m m m m M M M M M M M M M S S S D D D D F F F F F F F F P P ( W ! jX6XE O.@.6.9.9.u.u.0.9.t.u.s.s.s.f.d.x.n.N.M.C.G.J.J.J.J.J.J.G.S.C.m.N.m.c.c.c.s.s.y.y.t.t.t.0.0.t.t.0.0.t.t.t.s.d.x.x.x.x.x.x.x.n.N.M.C.Z.Y.T.!. XXX-X3X5X4X4X7X7X5X5X1X=X#XoX[.W.Y.F.G.C.C.m.n.x.d.f.i.i.y.t.t.t.q.0.0.q.q.0.0.q.q.0.0.q.q.t.t.t.t.t.i.f.d.x.n.n.N.m.B.S.S.H.H.J.K.R.R.R.R.J.R.J.J.J.J.J.J.J.J.H.H.H.M.M.M.M.M.M.M.M.M.S.B.S.S.B.B.M.B.B.B.B.M.M.m.m.N.n.n.n.n.m.m.m.m.m.m.B.M.H.K.K.E.W.W._.].].].].[.{..XXXXXXX#X#X&X&X&X%X%X%XXX.X X[.[.].].].].].].].].].].[.[.[.[.[.[.{.{..XXXXXXX%X=X5X8XyXsXfXjXjXkXvXvXvXnXkXjXjXdXaX9XtXtXtXtXtXtXtXtXtXtXtXtXtXtXyXyXyXyXtXtXsXaXdXfXhXkXvXbXMXCXCXCXCXCXCXMXvXkXhXhXdXdXgXsXsXsXsXsXsXsXsXsXsXsXsXgXdXfXjXjXjXkXkXvXkXkXkXjXjXfXdXdXgXsXtXsXsXsXsXtXtXsXtXtXtXtXrXrXtXtXtXsXaXaXsXgXgXdXfXhXjXlXkXkXvXvXvXvXvXvXkXkXkXjXjXjXfXdXgXgXsXsXsXsXtXtXtXtXrXrXrXrXrXrXrXrXaXaXrXaXaXaXgXaXdXdXgXgXdXdXdXdXfXfXfXfXfXfXfXfXdXgXsXsXtXtXtXtX9XtXyXyXyXyXeX0XeXeXeXeXeXeXeXeXyXyXtXtXtXsXdXdXdXdXfXfXfXfXfXfXfXfXfXfXdXsXtXtXrXrXyXyXyXyX9X0X0X8X5X4X2X2X-X-X%XOX.X.X{.}.].]._._.`.`.`.`.W.T.E.E.E.E.E.K.K.`.u.@.@.-.O.O.O.O.@.@.@.@.O.O.O.O.$.$.+.+.+.b.^.&X%X%X.X'.R.H.N.j.a.i.0.9.9.=.=.@.@.@.@.@.O.O.O.O.O.O.O.O.O.O.O.O.O.O.O.O.O.O.O.O.O.@.*.-.9.0.t.s.x.m.Z.Y.T.T.T.!.~.T.Y.F.A.m.s.t.6.#.#.@.O.O.o.o.X.X.[ [ [ [ X.X.X.o.o.o.O.O.O.O.O.O.O.O.O.@.#.9.9.9.9.w.w.h.9.-.O.X.' ' E E S E ~ ^ / ) ] [ &.-.:.X.' E W ' :.u.v.D.D.S.C.C.M.C.C.B.S.C.C.C.M.M.M.n.m.n.n.n.n.n.x.x.x.x.x.x.x.x.x.x.x.x.x.x.n.n.d.d.d.d.d.x.j.f.d.d.d.f.a.p.p.p.q.0.w.9.=.#.*.@.O.O.o.[ [ [ ] ] ",
"D D D D D D D D F D D D F F L L P P ~ / ` X.#.u.b.$.S S M m m M m m M M M M M M M M M S S S D D S S G F F F F F F F P P ^ F W U.$XE X.@.=.=.-.-.u.u.9.0.u.t.t.f.f.s.d.x.n.N.M.C.G.G.G.J.Z.Z.S.S.C.m.N.m.c.x.x.s.s.i.i.t.0.0.0.0.0.0.0.0.0.t.t.s.d.x.x.x.x.x.x.x.n.n.m.C.Z.Z.Y.T.'.XX&X-X3X5X4X4X5X5X6X6X=X&XXXoX].T.Y.F.G.C.m.n.n.d.d.f.i.i.t.t.t.t.0.q.q.q.q.0.q.q.q.q.q.q.t.t.t.t.t.i.i.d.d.x.n.n.N.m.M.S.S.S.S.S.J.K.K.K.K.K.K.K.J.J.J.J.J.J.K.K.J.H.H.H.H.H.H.H.H.H.H.S.S.S.S.M.M.B.B.B.B.m.B.m.m.N.m.m.m.m.m.m.m.m.m.m.B.B.H.K.K.E.W.`._.].].].{.{..X.XXXXX#X&X#X%X&X&X%XOXXX.X.X{.[.[.].].].].].].].].].].[.].{.{.[.{.{.{..XXXXXXX%X=X5XeXtXsXfXjXkXkXkXvXkXkXkXjXfXdXsX9XtXyXtXtXtXtXtXtXyXyXyXyXyXyXyXyXyXyXtXtXsXaXdXdXhXkXvXbXMXCXCXCXCXCXCXMXvXkXkXhXdXdXgXgXsXsXsXsXsXsXsXsXsXsXsXgXdXfXjXjXjXkXkXvXvXkXkXjXjXjXfXgXgXgXsXsXsXsXtXtXtXsXsXtXsXsXsXsXtXtXtXtXsXsXgXgXdXdXdXdXjXkXkXkXkXvXvXvXvXvXvXvXvXkXjXjXjXjXgXgXsXsXsXgXdXsXgXgXsXsXsXsXsXsXsXsXaXaXsXsXaXaXgXdXdXdXgXgXdXdXdXdXfXfXfXfXfXfXfXfXgXgXgXgXgXsXsXsX9XtXyXyXyXyX0X0XeX0XyXeXyXyXeXeXyXyXtXtXsXgXdXdXdXdXfXfXfXfXfXfXfXfXfXfXdXsXsXtXtXtXyXyXeXeX0X0X8X8X5X4X2X2X-X-X%XOX.X.X{.}.].]._._._.`.`._.W.T.E.E.E.E.E.E.}.+Xv.-.O.@.@.@.@.@.@.@.@.@.@.@.@.@.$.$.#.#.' A.OX;X-X%X.X].R.S.N.j.a.r.0.9.9.;.*.*.@.@.@.@.O.O.O.O.O.O.O.O.O.O.O.O.O.O.O.O.O.O.O.O.O.@.=.-.9.9.t.s.x.m.C.Y.T.T.T.!.!.T.Y.Z.C.m.f.t.5.#.#.@.O.O.o.o.o.o.X.[ X.[ X.X.X.o.o.o.O.O.O.O.O.O.O.O.@.@.#.9.6.9.9.w.w.h.q.w.v.y.#.' ' E E F F P ~ ^ / ` o.>.:.#.+.' E E ' $.:.v.D.D.A.A.C.C.C.C.C.C.C.C.M.M.M.m.m.m.N.n.n.n.n.n.n.d.d.d.d.d.d.d.d.d.d.d.n.n.d.d.d.d.x.x.j.d.d.d.d.a.i.p.p.e.0.q.p.p.q.w.w.=.@.O.O.X.[ [ [ ' ",
"D D D D D D D D D D D D F F L L L P ~ / ` X.@.u.b.$.S V M m m M n n M M m m M M M M M V S S S S S S D D F F F F F F F U U I ( <.$.' O.@.=.=.-.-.-.u.u.9.9.u.t.t.i.s.f.x.x.n.N.M.C.C.C.S.C.S.S.S.C.m.N.m.c.x.x.s.i.y.i.t.0.0.0.0.9.0.9.9.5.t.u.s.s.d.x.x.x.x.x.x.x.n.N.A.C.Z.Y.Y.!..XXX&X-X3X3X4X4X5X6X6X=X$X$XoX[.W.R.Y.J.C.C.N.n.n.d.f.f.i.p.t.t.t.0.0.q.0.q.0.q.q.q.q.q.q.t.t.t.t.t.t.i.f.d.d.x.n.n.n.m.m.m.C.C.C.J.J.J.K.K.K.K.K.J.J.J.J.J.J.J.J.J.J.J.J.J.H.H.H.H.H.H.S.S.S.S.M.M.B.B.B.M.m.N.m.N.N.m.m.m.m.m.m.m.m.m.m.B.B.H.K.K.E.W._._.].].{.{.{..XXXXXXX#X#X%X%X%XOXXXXX.X.X{.[.[.].].].].].].].].].].].[.[.{.{.[.[.{.{..XXXXXXX%X-X5XeXtXsXfXjXkXkXkXkXkXlXjXhXdXaXsX9XyXyXyXrXrXrXrXrXyXyXyXyXyXyXyXyXyXyXtXtXsXaXdXdXhXkXvXbXMXCXCXCXCXCXCXMXvXkXlXhXdXdXdXgXsXsXsXsXsXsXsXsXsXsXsXgXgXfXfXjXjXkXkXvXvXvXkXkXjXjXjXfXsXgXsXsXsXsXtXtXtXsXsXsXsXsXsXsXsXsXsXsXsXsXgXgXdXdXfXfXjXjXjXkXkXkXvXvXvXvXvXvXvXvXkXjXjXjXfXgXsXsXgXgXdXgXgXgXgXsXsXsXsXaXaXsXaXaXsXsXaXaXgXdXdXdXdXdXdXdXfXfXfXfXfXfXfXfXfXfXdXdXgXgXdXsXsXsXtX9XyXyXyXyX9X0XeX0XyXyXyXyXeXeXyXrXtXtXgXgXdXdXdXdXfXfXfXfXfXfXfXfXfXfXdXsXsXtXtXtXyXyXeXeX0X0X8X5X4X2X2X-X-X-XOXOX.X{.{.}.].]._._._.`.`._.W.T.E.E.E.E.E.E.F.f.#.#.9.#.#.@.@.O.@.O.@.@.@.@.@.@.$.$.#.#.' A. X X-X%X.XW.Y.S.n.d.a.r.7.6.=.=.@.@.@.@.@.@.O.O.O.O.O.O.O.O.+.O.O.O.O.O.O.O.O.O.O.O.O.@.=.-.9.9.t.s.x.m.C.Y.T.T.T.!.!.T.Y.Z.C.N.f.t.9.#.#.@.O.O.o.o.o.o.X.[ [ [ X.X.X.o.o.o.O.O.O.O.O.O.O.O.O.@.=.-.9.9.9.9.w.w.w.q.h.g.v.v.:.+.E E E E F P | | / / ` [ +.$.$.X.[ [ [ +.u.c.m.C.C.C.C.S.M.M.M.M.M.M.M.m.m.m.N.n.n.n.n.n.n.d.d.d.d.d.d.d.d.d.d.d.n.n.d.d.d.d.x.x.j.d.d.d.d.a.a.p.p.r.q.p.g.g.g.h.h.h.;.@.O.O.X.X.[ [ ",
"D D S S S S D D G D D D D F L L P P ~ / ' X.@.u.b.$.S V m m n n n n m m M M M M M M M M S S S S S S D D G G F F G F F P U Y / / ' [ X.O.@.=.-.-.-.-.9.u.9.u.u.u.y.s.s.x.x.x.m.N.C.C.C.S.S.S.S.S.C.A.N.m.x.x.x.s.i.i.i.t.0.0.0.0.9.9.9.9.0.t.u.s.s.d.d.x.x.x.x.d.x.n.N.m.A.Z.Z.Y.T.^..XXX&X*X2X2X6X6X3X1X=X$X$XoX[.].T.Y.Y.G.C.M.N.N.n.d.d.f.i.i.p.t.t.t.t.t.t.t.0.0.t.t.t.t.t.t.t.t.t.i.i.f.d.d.x.x.n.n.n.m.m.N.m.S.S.S.J.J.K.J.K.K.K.J.J.J.R.J.J.J.K.E.K.J.J.J.K.K.K.J.J.G.G.S.C.C.C.C.B.B.M.m.m.m.m.m.N.N.m.m.m.m.M.M.m.m.B.B.H.K.K.Q.W._.'.].{.{..X.X.XXX#X#X$X%X%X%X&XXXXXXX.X{.[.].].].].].].].].].].].].].].].|.|.[.{.{.{..X.XXXXX%X=X5XeXsXdXhXjXkXkXkXkXkXjXjXdXaXsXtX9X9XyXyXyXyXyXyXyXyXyXyXyXyXyXyXyXyXyXyXtXsXaXdXhXhXjXvXvXMXCXCXCXVXCXCXMXvXnXlXhXdXdXgXgXsXsXsXsXsXsXsXsXgXdXgXgXsXgXjXjXjXjXkXkXvXvXvXkXjXjXjXfXgXsXsXgXsXsXsXsXsXgXgXgXgXgXgXgXgXgXgXgXgXgXgXgXdXdXgXdXjXjXjXkXkXkXkXkXvXvXvXvXvXvXvXkXkXjXjXjXfXgXgXgXdXdXdXdXaXgXgXgXaXaXaXaXaXaXaXaXgXdXdXdXdXdXdXdXfXfXfXfXhXhXhXhXhXfXfXfXdXdXfXdXdXgXaXsXtXtXtXtX0X0X0X7X7XyXyXyXyXeXeXeXtXtXsXsXgXgXdXdXdXdXfXfXfXfXfXfXfXfXfXfXsXgXgXsXsXtXyXyXeX7X7X7X5X5X3X3X-X%X%X%XOX.X.X{.{.|.].|._._._._.`.`.`.W.W.W.W.E.W.E.G.A.5.#.#.#.#.@.@.O.O.O.O.O.@.@.@.@.z.A.D.s.#.z.oXXX;X%X{.T.F.S.n.d.p.0.7.9.=.=.@.O.O.O.@.O.O.O.O.O.O.O.+.+.O.+.+.+.O.O.O.O.O.O.O.O.O.@.=.-.9.0.t.s.x.m.C.J.R.T.T.~.~.T.Y.Z.C.m.f.t.9.9.#.@.O.O.o.o.o.o.X.X.X.X.X.X.X.X.X.X.X.X.O.O.O.O.O.O.O.@.=.-.9.9.6.w.w.w.w.w.t.s.v.v.v.s.:.$.E E F ~ ~ ( | | / ' [ +.+.+.+.X.[ [ ' X.u.c.S.A.C.C.m.N.m.M.M.M.M.M.M.m.N.m.n.m.n.n.x.x.x.x.d.d.d.d.j.j.d.d.j.j.j.n.d.d.d.d.d.d.d.d.d.a.a.i.i.r.0.r.l.L.V.l.g.g.w.@.@.O.O.o.o.o.",
"S S S S S S S S C C D D D F L L P ~ ~ / ' X.@.u.u.$.S V M m n n n n n n m m M M M M M M M S S S S S D D G D F F F F F F I I ^ / ' X.+.+.@.*.-.-.-.-.-.-.9.9.u.u.y.i.s.s.x.x.x.m.m.M.S.S.S.S.C.C.C.A.N.m.x.x.x.s.s.i.i.t.0.0.0.0.9.9.9.9.9.t.t.t.s.s.d.d.d.d.d.d.x.x.n.N.A.Z.Z.Y.T.~.^.oXoX#X*X=X=X1X1X=X$X$XXXoXoX].W.R.Y.F.G.C.M.N.n.n.d.d.d.f.i.i.p.t.t.t.t.t.0.0.t.t.t.t.t.t.t.t.t.t.i.f.d.d.x.x.x.x.n.n.m.N.m.M.S.S.S.Z.J.J.J.K.K.K.J.J.R.R.R.Y.E.E.E.E.E.E.E.E.E.J.J.J.H.G.C.C.C.C.B.M.m.m.m.m.m.m.N.N.m.m.m.m.M.M.m.m.B.B.H.K.J.W.W._.].].[.{..X.XXXXX#X#X%X%X%X&XXXXX.X.X{.[.].].].~.].].].].].].].].].].].].|.|.[.{.{.{..X.XXXXX%X1X5X0XsXdXjXkXkXvXvXkXkXjXxXdXsXtX9X0X7X0XrXrX0X0XyXyXyXyXyXyXyXyXyXyXyXyXyXtXsXaXdXhXhXjXvXvXMXCXCXCXCXCXCXMXvXnXlXhXdXdXgXgXsXsXsXsXsXsXsXsXgXdXgXdXgXgXfXjXjXjXkXkXvXvXvXvXkXjXjXfXgXsXsXgXsXsXsXsXsXgXgXgXgXgXgXgXgXgXgXgXgXgXgXdXdXdXfXdXjXjXjXjXkXkXkXkXvXvXvXvXvXvXvXvXkXkXjXjXfXfXfXgXdXdXdXdXaXaXaXgXaXaXaXaXgXgXgXgXdXdXdXdXdXdXdXdXfXfXfXfXhXhXhXhXhXhXfXfXdXdXdXdXdXdXgXaXtXtXtXtX0X0X7X7XyXyXyXyXyXyXeXeXtXtXsXgXgXdXdXdXdXdXfXfXfXfXfXfXfXfXfXdXfXgXgXgXsXtXtXyXeX7X7X4X5X5X3X-X%X%X%XOX+X.X{.{.{.|.].|._._._._.`.`.`.W.W.W.W.W.W.R.K.J.5.#.+.#.#.#.@.O.O.O.O.O.O.O.O.O./.}.Q.v.:.b.oXXX%XOX{.T.F.S.n.d.p.q.9.9.=.=.*.@.O.O.@.O.O.O.O.O.O.O.+.+.+.+.+.+.O.O.O.O.O.O.O.O.O.@.=.-.9.0.t.s.x.m.C.R.R.T.T.~.~.T.Y.Z.C.m.f.i.0.9.#.@.O.O.o.o.o.o.X.X.X.X.X.X.X.X.X.X.X.X.O.O.O.O.O.O.O.@.=.-.-.6.6.6.6.6.w.0.q.p.g.s.c.v.v.v.:.X.' ~ / ^ ~ / ` ' ' ' [ X.+.&.&.+.X.' ' ' 5.m.S.M.m.m.m.m.m.m.M.M.M.m.N.m.m.m.n.n.x.x.x.x.d.d.d.d.d.d.d.d.j.j.j.n.d.d.d.d.d.d.d.d.d.a.a.i.i.i.r.7.a.L.H.V.V.g.q.=.@.*.O.o.o.+.",
"C C C C C C C C C C D D D P L L P ~ ~ ` ' X.-.u.u.[ S V M n n n n n n n m m M M M M M M M M S S S S S S D D D F F F F F P ~ ~ ' ' X.+.+.@.@.*.=.#.-.-.-.9.9.9.9.y.y.s.s.c.x.c.x.m.m.S.S.S.S.C.C.C.A.N.m.x.x.x.s.i.i.i.t.0.0.0.0.9.9.9.9.9.0.t.t.s.s.s.s.d.d.d.d.x.x.n.N.A.C.Z.Y.Y.T.T.^..XXX%X%X*X*X*X$X#X#XXXoXoX[.].T.E.F.F.C.M.M.M.n.n.x.d.d.f.i.i.p.p.t.t.t.t.y.y.y.t.t.t.t.t.t.t.i.i.f.d.d.x.x.x.x.n.n.m.m.m.m.M.S.S.S.S.D.Z.J.K.K.R.R.R.R.E.R.E.E.E.E.E.E.E.E.E.E.J.J.J.J.J.H.C.C.B.M.m.m.m.m.m.m.N.N.m.m.m.m.M.M.m.M.B.B.S.K.J.W.W._.].{.{.{..X.XXX#X$X$X%X%X%X%XXXXX.X.X[.[.].].~.~.~.~.].].].].].].].].].].[.[.[.[.{.{..X.XXXXX*X1X5XtXsXdXjXkXkXmXvXkXkXjXgXgXtXtXeX0X7X0XyXyX7X7X7X7X9X9XyXyXyXyXyXyXyXyXyXtXsXaXdXhXhXhXvXvXMXCXCXCXCXCXCXMXvXvXkXjXdXdXgXgXsXsXsXsXsXsXsXsXsXsXsXgXgXgXfXjXjXkXkXkXvXvXkXkXkXkXjXjXgXgXsXsXgXgXgXgXsXsXgXgXgXgXaXaXgXgXgXgXgXgXdXdXdXdXfXdXjXjXjXjXkXkXkXkXvXvXvXvXvXvXvXvXvXkXjXkXjXjXfXfXdXdXdXdXdXdXdXdXgXgXgXgXgXgXdXdXdXdXfXfXdXdXdXdXfXfXfXfXjXjXjXhXjXjXfXfXfXfXfXgXgXdXdXaXsXtXtXyXrXrXyXyXeXeXeXeXeXeXeXeXtXtXsXdXgXdXdXdXjXjXfXjXfXfXfXfXfXfXfXdXdXdXdXgXsXtXtXyX0X7X7X4X5X3X-X-X%X%XOX+X.X.X{.{.{.|.|.|._._.`.`.`.`.`.W.W.W.W.W.T.T.E.R.m.5.#.#.#.#.@.O.O.O.O.O.O.X.X.X.+.+.#.u.+.b.^.XXOXOX'.T.F.S.x.d.p.q.w.9.=.*.*.*.@.@.@.O.O.O.O.O.O.O.O.O.O.O.O.O.O.O.O.O.O.O.O.O.O.@.=.-.9.0.t.s.x.m.C.F.R.T.T.~.~.T.Y.Z.C.N.f.i.0.0.9.=.@.O.O.o.o.o.o.X.X.X.X.X.X.X.X.X.X.X.O.O.O.O.O.O.O.@.@.-.-.=.9.9.6.6.6.7.q.p.d.s.f.x.v.D.v.u.:.X.[ ` / ~ / ` ' ' ' [ [ o.+.&.>.O.X.+.X.$.5.f.m.C.C.A.M.M.M.M.m.m.m.m.m.m.n.n.n.n.n.x.d.d.x.x.d.d.d.f.j.d.n.n.n.x.d.d.d.d.d.d.d.d.a.p.i.a.e.7.r.V.L.l.g.g.w.=.*.*.O.O.+.o.",
"C C C C C C C C C C S S D P L L P ~ ~ ` ' X.-.u.u.' S V m n n n n n n n m m M M M M M M M M S S S S S S D D F F F F F F F ~ ~ ' ' [ +.+.@.@.*.=.#.-.-.-.9.9.9.9.9.y.y.s.s.c.x.x.x.m.m.S.S.D.D.C.C.C.m.m.x.x.x.s.s.i.i.t.0.0.0.0.9.9.9.9.9.0.t.u.s.s.s.s.d.d.d.d.x.x.n.m.m.C.Z.Z.Z.Y.T.T.~..XXX%X#X%X%X#X#XXX+X+XoX[.].W.E.Y.Y.G.C.M.M.N.N.n.x.d.f.i.i.i.p.t.t.t.y.y.y.y.t.t.t.t.t.t.t.i.i.f.d.d.x.x.x.x.x.n.n.n.m.m.m.M.C.C.S.S.Z.Z.J.J.R.R.R.R.E.E.W.W.W.W.W.W.E.E.E.E.E.J.J.J.J.H.C.C.M.M.m.m.m.m.m.m.N.N.m.m.m.m.M.M.m.m.B.B.H.K.J.E.W.].].{.{.{..X.XXX#X#X#X%X%X%X%XXXXX.X{.[.[.].].~.~.~.~.].].].].].].].].].].[.[.[.[.{.{..X.XXX#X*X2X8XyXsXfXjXkXvXmXmXvXkXjXgXgXtXyXeX8X7XeX0XyX7X7X7X7XyXyXyXyXyXyXyXyXyXyXyXtXsXaXdXhXhXjXvXbXMXCXCXCXVXCXCXMXvXvXkXjXhXdXdXgXgXsXsXsXsXsXsXsXsXsXsXgXgXgXfXjXjXkXkXkXvXvXkXkXjXjXkXjXgXsXsXgXgXgXgXgXgXgXgXgXgXgXgXaXgXgXgXgXgXgXdXdXdXdXfXdXjXjXjXjXjXkXkXkXvXvXvXvXvXvXvXvXvXvXkXkXjXjXjXfXdXdXdXdXdXdXdXdXgXgXgXgXdXdXdXdXdXdXfXfXdXdXdXdXfXfXfXfXjXjXjXjXjXjXjXfXfXfXfXgXgXdXdXgXsXtXtXyXrXrXyXyXyXyXeXeXyXyXyXyXtXtXsXsXgXdXdXdXjXjXjXjXfXfXfXfXfXfXfXdXdXdXdXdXsXtXtXyXeX7X4X4X2X3X-X-X%XOX+X+X.X.X{.{.{.|.|.|._._.`.`.`.`.`.W.W.W.W.W.W.T.T.E.Q.A.c.5.$.#.#.#.+.+.+.X.X.X.X.[ [ [ [ ' E $.^.XXXX.X[.T.F.B.x.d.p.q.9.9.=.=.*.*.@.@.@.O.O.O.O.O.O.O.O.O.O.O.O.O.O.O.O.O.O.O.O.O.O.@.=.-.9.9.t.s.x.m.C.J.R.T.T.~.~.T.Y.Z.C.N.f.i.0.0.9.-.*.O.O.o.o.o.o.X.X.X.X.X.X.X.X.X.X.X.O.O.O.O.O.O.O.@.*.=.=.=.9.9.6.6.6.6.q.e.a.i.i.d.x.V.V.v.s.:.-.+.[ ' ` ' ' ' ' ' ' [ [ { +.@.@.X.' ' ' +.u.v.D.D.M.m.M.M.m.m.m.N.m.m.n.n.n.x.x.x.x.n.x.x.d.d.j.d.d.j.n.n.x.x.d.d.d.d.d.d.d.d.a.p.i.i.r.r.r.a.p.q.7.6.6.#.@.O.O.O.+.+.",
"C C C C C C C C C C C S D ~ L L P ~ ^ / [ +.-.u.u.' S V m n n n n n n n n n M M M M M M M M S S S S G S G G F F F F F F F ~ ~ ' ' [ +.+.O.*.*.=.-.-.-.-.-.9.9.9.9.y.y.y.s.s.x.x.c.x.m.N.M.D.D.S.S.B.m.m.x.c.x.s.f.s.i.t.t.0.t.9.9.9.9.9.9.9.9.t.s.s.s.s.d.d.d.d.x.x.n.m.m.A.C.Z.Z.F.Y.T.T.[..X.XXXXXXXXXXXXX+XoXoX}.].].W.E.R.J.G.C.C.C.V.n.n.x.d.i.i.i.i.i.i.p.t.t.t.t.t.t.t.t.t.t.p.t.i.i.f.d.d.d.x.x.x.x.n.n.n.n.N.N.m.A.S.S.S.S.Z.J.J.R.E.E.E.T.W.W.W.W.W.Q.W.Q.W.E.K.J.J.J.H.S.C.C.C.M.M.M.m.m.m.m.m.m.m.m.m.m.m.M.M.M.M.M.H.J.K.E.W.].].[.{..X.X.XXX#X%X%X%X%X%X%XXXXX.X[.[.].].].]._._._.~.~.].].].].].].].].].].[.{.{.}.oX.XXX%X*X2X8XtXsXfXjXkXvXmXvXvXkXxXgXaXrXeX8X4X4X8X7X7X7X7X0X0XeXeXeXeXrXrXyXeXyXyXyXtXsXiXaXfXhXjXvXvXbXCXCXCXCXCXCXCXbXvXvXkXhXdXdXdXgXsXsXtXtXtXsXsXsXsXsXsXgXgXgXfXjXjXkXkXkXkXvXkXkXkXjXjXfXgXgXgXgXgXgXgXgXdXgXgXgXgXgXgXdXdXdXdXdXdXdXdXdXdXfXjXjXjXjXjXkXkXkXkXvXvXvXvXvXvXvXvXvXvXkXkXjXjXjXjXjXdXdXdXdXdXdXdXdXdXdXdXdXdXdXdXdXdXfXfXfXfXjXjXjXjXjXjXjXjXjXjXjXjXjXjXfXfXfXgXgXgXgXsXtXtXtXtXyXyXyXyXyXyXyXyXtXtXsXsXtXtXsXgXfXfXfXfXjXjXjXjXfXfXfXfXfXfXfXdXdXdXgXgXsXsXtXrX7X4X5X4X3X2X-X%X%XOX+X+X.X.X{.{.{.|.}.|._._._._.`.`.W.W.W.W.W.W.T.W.W.Q.Q.Q.K.Q.Q.Q.D.S.c.5.#.+.' ' ' X.X.[ ' E ' u.Q.oXoXoX^.R.Z.m.d.a.e.0.6.6.=.@.@.@.@.@.@.O.O.O.O.O.O.O.O.O.O.O.O.O.O.O.O.O.O.O.O.O.@.@.=.9.9.t.i.s.x.m.C.Z.R.T.T.T.~.T.Y.Z.C.m.x.i.t.0.9.-.*.*.O.o.o.o.X.X.X.X.X.X.X.X.O.O.O.O.O.O.O.O.O.O.@.@.*.;.=.=.9.9.6.6.w.w.q.e.p.p.i.a.d.j.d.d.g.s.s.u.-.O.X.' ' ' ' ' ' ` ` ] [ o.+.@.@.X.[ ' ' X.O.u.v.D.m.C.S.J.S.m.m.N.N.N.n.n.n.x.x.x.x.d.x.d.d.d.d.d.d.d.d.d.x.x.d.d.d.d.d.d.a.a.i.i.r.i.i.r.7.6.6.6.6.#.#.#.@.u.u.:.",
"C C C C C C C C C C C S D ~ L L P ~ ^ / [ +.-.u.:.' S V m n n n n n n n n n M M M M M M M M S S S S G S G G G F F F F F F ~ ~ / ` [ +.o.+.*.*.*.-.-.-.-.#.-.-.-.9.9.9.y.s.s.s.x.x.x.c.m.m.D.D.D.S.M.m.m.x.x.x.x.s.s.t.t.t.t.t.9.9.9.9.9.9.9.5.0.i.s.s.s.d.d.d.d.x.x.x.x.m.m.A.C.C.Z.Y.Y.T.~.[.{..X.X.X.X.X.X.XoX{.[.].].W.Q.E.R.J.F.C.S.B.V.n.V.d.i.i.i.i.i.i.y.t.t.t.t.t.t.t.t.t.t.i.t.i.i.f.s.d.d.d.x.x.x.x.n.x.n.n.n.N.m.A.S.C.C.Z.Z.J.R.E.E.E.W.W.W.W.W.W.W.W.W.W.E.E.K.J.J.H.S.C.C.C.M.M.M.m.m.m.m.m.m.m.m.m.m.m.M.M.B.M.M.H.J.K.E.W.].].[.{..X.X.XXX#X%X%X%X%X%XOXXX.X.X[.[.].].].].W._._.~.~.].].].].].].].].].].[.{.{.}.oX.XXX%X*X6X8XtXdXhXjXkXvXvXvXvXkXxXxXaXrXeX8X4X4X8X7X7X7X7X0X0XeXeXeXeXrXrXeXeXyXyXyXtXsXiXaXdXhXjXvXbXbXCXCXCXCXCXCXCXbXvXkXkXhXdXdXdXgXgXsXtXtXtXsXsXsXsXsXsXgXgXgXfXjXjXkXkXkXkXkXkXkXkXjXjXfXgXgXgXdXgXdXgXdXdXgXgXgXgXgXgXdXdXdXdXdXdXdXdXdXdXfXjXjXjXjXjXjXkXkXkXkXvXvXvXvXvXvXvXvXvXvXvXjXjXjXjXjXhXhXdXdXdXdXdXdXdXdXdXdXdXdXdXfXfXfXfXfXfXjXjXjXjXjXjXjXjXjXjXjXjXjXjXfXfXfXgXgXgXsXsXsXtXtXtXtXyXyXyXyXyXyXtXtXsXsXgXtXsXgXgXfXfXfXfXjXjXjXjXfXfXfXfXfXfXfXdXdXdXgXgXsXtXtX0X8X5X5X3X2X2X-X%X%XOXOX+X.X.X{.{.|.|.].]._._._._.`.`.W.W.W.W.W.W.W.W.W.Q.Q.Q.Q.Q.Q.`.Q.`.}.`.Q.Q./.A.b.z.<.b.b./.Q.^.oXoXoX^.Q.R.D.m.d.p.q.7.6.6.#.@.@.@.@.@.O.O.O.O.O.O.O.O.O.O.O.O.O.O.O.O.O.O.O.O.O.O.@.@.=.9.9.t.i.s.x.m.C.Z.R.T.T.T.~.T.Y.Z.C.m.x.f.t.0.9.-.*.*.O.o.o.o.o.X.X.X.X.X.X.X.O.O.O.O.O.O.O.O.O.O.@.@.*.=.=.=.6.9.6.6.w.w.q.e.p.p.i.a.k.k.d.d.g.g.g.s.y.u.-.+.X.' ' ' ' ` ` ] ] ' [ X.O.@.>.&.] / ` ' @.v.c.m.D.D.S.C.M.m.N.N.N.n.n.x.x.x.x.d.d.d.d.d.d.d.f.d.d.d.x.x.d.d.d.d.d.d.a.a.a.a.a.a.f.a.i.r.r.r.i.i.i.s.v.Q.Q.b.",
"C C C V V V V V C C C S D ~ L L P ~ ^ ` [ +.-.u.:.' S V m n n n n n n n n n M M M M M M M M M M S S S S S S G G G G F F F ~ ~ / ] [ X.o.O.%.*.*.=.*.-.-.-.-.-.-.9.9.9.9.u.s.s.s.x.x.x.x.m.m.D.D.S.M.m.m.c.c.x.x.s.f.i.t.t.t.t.9.9.0.0.9.9.5.5.9.i.f.f.s.s.s.d.d.d.x.x.x.m.m.A.C.C.S.Z.Y.Y.T.W.].'.{.{..X.X.X{.{.[.].].}._.W.W.W.R.R.Z.D.S.B.m.n.x.d.i.i.i.p.t.t.t.t.t.t.t.t.t.t.t.t.p.p.i.i.s.s.d.d.d.x.x.x.x.x.x.x.n.n.m.m.m.m.A.S.S.Z.J.R.E.E.E.W._.W.W.W.W.W.`.W.Q.Q.E.E.K.J.K.J.S.S.C.C.M.M.M.M.M.M.m.m.m.m.m.M.B.B.B.B.M.M.H.J.K.E.W._.].].{..X.X+XOX&X%X%X%X%X%XOXXX.X.X[.].].].]._._.W.W.~.~.].].~.~.].].].].].].[.[.}.}.oX.XXX%X*X5X0XtXdXhXjXkXmXmXmXvXkXxXxXaXrXeXeX4X4X8X7XeX7XeXeXeXyXyXeXeXyXyXyXyXyXyXyXtXsXiXaXdXhXjXvXbXMXCXCXCXCXCXCXCXbXvXvXkXhXdXdXdXgXgXsXsXsXsXsXsXsXsXsXsXgXdXgXfXjXhXkXkXkXkXkXkXkXkXjXjXjXfXfXfXdXgXdXdXdXdXgXgXgXgXgXgXdXdXdXdXdXdXdXdXdXdXfXjXjXjXjXjXjXkXkXkXkXvXvXvXvXvXvXvXvXvXvXvXkXjXjXjXhXhXhXhXdXdXdXdXdXdXdXdXdXdXdXdXfXfXfXfXfXfXjXjXjXjXjXjXjXjXjXjXhXjXjXjXfXfXfXgXfXgXgXgXsXsXsXsXsXtXtXtXtXtXtXsXsXgXdXdXgXgXsXfXfXfXjXjXjXjXjXjXjXjXjXjXfXfXfXdXdXdXgXgXsXrXyX7X7X4X5X2X3X-X-X%X%XOX+X+X.X{.{.{.|.].].]._._.]._.`.`.W.W.W.W.W.W.T.T.T.W.Q.Q.Q.Q.Q.Q.`.}.}.}.{.oXoX&X$X=X3X3X-X=X=X&X#XXXoX~.Q.Z.A.x.f.0.7.6.6.#.@.@.@.@.@.@.O.O.O.O.O.O.O.O.O.O.O.O.O.O.O.O.O.O.O.O.O.O.@.@.-.9.9.t.i.f.x.m.C.Z.R.T.T.T.~.T.Y.Y.C.m.x.f.t.0.9.=.*.*.O.O.o.o.o.o.o.o.X.X.o.O.X.X.O.O.O.O.O.O.O.O.@.@.*.=.=.=.=.=.6.6.6.w.q.e.e.p.p.i.d.k.d.d.d.d.g.s.s.y.u.u.:.@.X.' ' ' ` ` ` ` ' [ X.X.>.&.&.o.o.[ ] %.@.u.v.D.D.H.C.A.P.N.N.N.n.x.x.x.x.j.d.d.d.d.d.d.f.f.d.d.x.x.d.d.d.d.d.d.d.d.d.d.n.n.n.m.V.N.n.n.f.d.j.N.S.R.D.A.",
"V V C C V V V V V V C S D I L L P ~ ^ ` [ +.-.u.:.' S V m n n n n n n n n n n n M M M M M M M M M V V S S S G G G G F F F ~ ~ / ] [ +.o.O.O.@.@.@.*.#.#.#.#.#.#.-.9.9.0.u.t.s.s.c.x.c.x.c.m.m.D.M.m.m.m.v.c.x.x.s.s.i.t.t.t.t.9.9.9.9.9.9.9.9.5.t.f.f.f.s.s.s.s.d.d.x.x.x.m.m.D.D.S.C.Z.R.E.T.W._._.'.|.{.{.{.[.[.].].].}.].W.W.W.R.R.Z.D.S.B.m.n.d.f.i.i.p.t.t.t.t.t.t.t.t.t.t.t.t.p.p.i.i.f.f.d.d.d.d.x.x.x.x.x.x.n.n.m.m.m.m.m.A.S.S.Z.R.E.E.E.W._._.W.].W.W.`.`.Q.W.Q.E.E.K.K.J.S.C.C.C.M.M.M.M.M.M.m.m.m.m.m.M.B.B.B.M.M.C.H.J.J.E.W._.'.'.{.{..X+XOX&X%X%X%X%X%XXXXX.X[.[.].].~.~._.W.W.W.~.~.~.].~.~.].].].].].].[.[.}.}.oX.XXX#X*X4X0XtXdXhXkXvXmXmXmXvXkXxXxXaXtXeXeX4X4XwX8XeX7XeXeXeXeXeXeXeXyXyXeXyXyXyXyXtXsXiXaXdXhXhXvXbXMXCXCXCXCXCXCXCXbXvXvXkXhXhXdXdXdXgXsXsXsXsXsXsXsXsXsXsXgXgXgXfXjXjXjXkXkXkXkXkXkXkXjXjXjXjXfXfXdXgXdXdXdXdXgXgXgXgXgXgXdXdXdXdXdXdXdXdXdXdXfXjXjXjXjXjXjXjXkXkXkXvXvXvXvXvXvXvXvXvXvXvXkXjXjXhXhXhXhXhXdXdXdXdXdXdXdXdXdXdXfXfXfXfXfXfXfXfXfXjXjXjXjXjXjXjXjXjXhXjXjXjXjXfXfXfXfXgXgXgXsXsXsXgXsXsXsXtXsXsXsXsXgXgXdXdXgXgXfXfXfXfXjXjXjXjXjXjXjXjXjXjXfXfXfXdXdXdXdXgXsXrXyX7X7X4X5X2X2X-X-X%X%XOX+X+X.X{.{.{.|.].].].].].]._.`.`.W.W.W.W.W.W.T.T.T.W.Q.Q.Q.Q.Q.Q.|.}.{..X.XXXXX#X6X6X3X3X=X*X5X3X*X#X[.~./.A.m.x.i.0.7.6.6.#.@.@.@.@.@.O.O.O.O.O.O.O.O.O.O.O.O.O.O.O.O.O.O.O.O.O.O.O.@.@.-.9.9.t.i.f.f.m.C.Z.R.T.T.T.~.T.Y.Y.C.m.x.f.t.0.9.=.=.@.O.O.o.o.o.o.o.o.X.X.o.X.X.X.O.O.O.O.O.O.O.O.O.@.*.*.=.=.=.=.6.6.w.w.w.q.q.0.p.a.d.k.d.d.d.d.s.s.s.s.s.s.y.y.-.#.X.[ ' ` ` ` ` ' [ [ ] o.:.u.v.v.:.[ / X.:.s.m.D.G.C.N.N.N.N.n.x.x.x.x.j.j.d.d.d.d.d.f.f.d.d.d.x.d.d.d.d.d.d.d.d.n.n.V.B.S.H.H.B.M.M.B.L.L.H.`.+X}.C.",
"V V V V V V V V V V C C D L L L F I / ` [ O.-.u.:./ V V m n n n n n n n n n n n n n M M M M M M M M V V S S S S G D D F F ~ ~ / ] [ +.o.o.O.O.@.@.@.@.@.@.@.*.*.-.-.9.9.u.u.s.f.s.s.x.x.x.m.m.m.M.m.m.m.m.c.x.x.d.s.i.i.t.t.9.9.9.9.9.9.9.9.9.9.t.s.i.f.f.f.f.f.s.d.x.x.x.c.m.M.M.D.D.C.Z.J.E.T.T.W._._.].].].].].].]._.].~.~.~.W.W.T.R.Z.Z.S.S.V.n.d.f.i.i.y.y.p.p.p.p.p.t.t.t.t.i.i.i.i.s.f.s.d.d.d.d.x.x.x.x.x.x.x.x.m.m.m.m.m.m.S.S.Z.J.R.E.E.W.W.W._._._._._._.Q.W.Q.Q.Q.E.R.K.J.C.C.C.C.C.M.M.M.M.M.M.M.M.M.M.S.S.C.C.C.C.S.J.Y.E.W.].'.'.{..X.XOX&X&X%X%X%X%X%XXX.X.X[.[.].~.W.W.W.W.W.W.~.~.~.~.~.].].].].].].].].].}.{.oX+XXX#X*X4X0XsXdXhXkXvXmXmXmXvXkXxXgXaXyXeX5X5X5X5X5X4X7X7X8X8X0X0X0X0X9X9XyXrXeXeXyXtXsXaXdXfXhXkXvXbXCXCXCXCXZXZXCXCXMXvXvXkXhXhXhXdXdXgXgXgXgXgXgXdXgXgXsXsXgXdXfXfXjXjXjXkXkXkXkXkXkXkXkXjXjXfXfXfXdXdXdXgXgXgXgXdXdXdXdXdXdXdXdXdXdXdXfXfXfXfXjXjXjXjXjXjXjXjXkXkXkXvXvXvXvXvXvXvXvXvXvXvXvXkXkXjXjXhXjXjXhXdXfXfXdXdXhXfXfXfXfXfXfXfXfXfXjXjXjXjXjXjXhXhXjXjXjXjXjXjXjXjXjXjXjXjXjXfXfXfXgXgXsXdXdXdXsXsXgXdXdXdXdXdXdXdXfXfXfXjXjXjXjXjXjXjXjXjXjXjXjXjXjXfXfXdXdXdXdXaXsXrXyX7X7X4X5X2X3X-X-X%X%XOX+X+X.X{.{.{.].].}.}.].].]._._.`.`.`.`.`.W.W.W.W.W.W.Q.Q.Q.Q.Q._.}.}..X.XXX#X$X=X1X1X1X1X1X1X1X1X6X$X^.W.Y.A.c.x.i.0.6.6.#.#.@.@.@.@.@.O.O.O.O.O.O.O.O.O.O.O.O.O.O.O.O.O.O.O.O.O.O.@.@.*.-.9.0.t.i.d.x.m.S.Z.R.R.T.T.T.T.Y.Y.C.m.x.f.t.0.9.=.=.@.O.O.o.o.o.X.o.X.O.O.X.X.o.o.O.O.O.O.O.O.O.O.O.*.*.*.=.=.=.=.6.6.6.w.w.w.w.0.i.a.d.k.d.d.d.a.a.a.s.s.s.s.s.s.y.9.-.#.X.' ' ` ` ' [ [ / +.u.D.D.Q.Q.v.o.` / ' #.u.m.C.C.C.C.m.m.n.n.n.n.n.n.d.d.d.d.d.j.j.j.j.d.d.d.d.d.d.d.d.d.d.f.n.B.B.H.K.K.H.S.B.H.H.L.H.Q.+X+XQ.",
"V V V V V V V V V V V V D F L F F ~ / ] X.O.-.u.:./ M B m n n n n n n n n n n n n n M M M M M M M M V V V V S S S S D D F ~ ~ / ] [ +.o.o.O.O.@.@.@.@.@.@.@.*.*.=.-.-.9.u.u.t.s.s.s.f.f.x.x.m.m.m.m.m.m.m.c.x.x.d.s.i.i.t.0.9.0.9.9.9.9.9.9.9.9.y.s.p.i.f.s.f.f.s.d.x.x.x.x.V.m.m.m.M.D.C.S.J.E.E.E.T.W.W._.].].].].].].~.~.].^.~.~.T.T.R.Z.Z.S.B.V.n.x.f.i.i.y.p.p.p.p.p.p.t.t.i.i.i.i.i.s.f.s.d.d.d.d.x.x.x.x.x.x.x.x.x.c.m.m.m.m.D.S.S.Z.J.R.E.W.W.W._._._._._._.Q.W.Q.Q.Q.Q.E.R.J.C.C.C.C.C.M.M.M.M.M.M.M.M.M.M.S.S.C.C.C.C.C.F.Y.R.W.'.'.'.[..X.XOX&X&X%X%X%X%XXXXX.X[.[.].].~.W.W.W.W.W.W.~.~.~.~.~.].].].].].].].].].}.{.oX+XXX#X=X4X9XsXfXjXkXvXmXmXmXvXkXxXgXaXyX0X5X5X5X5X5X5X4X7X8X0X0X0X0X0X9X9XeXyXeXeXtXtXsXaXdXfXjXkXvXbXCXCXCXZXZXZXZXCXMXvXvXkXjXhXhXdXdXdXgXgXgXgXgXgXgXgXsXsXgXdXfXfXjXjXjXjXkXkXkXkXkXkXkXjXjXjXjXjXdXdXdXdXfXfXgXdXdXdXdXdXdXdXdXdXdXdXfXfXfXfXjXjXjXjXjXjXjXjXkXkXkXvXvXvXvXvXvXvXvXvXvXvXkXvXkXkXjXhXjXjXhXdXdXfXdXdXhXhXfXfXfXfXfXfXfXfXjXjXjXjXjXjXhXhXjXjXjXjXjXjXjXjXjXjXjXjXjXjXfXfXgXgXgXgXdXdXdXdXdXdXdXdXdXdXdXdXfXfXjXjXjXjXjXjXjXjXjXjXjXjXjXjXjXjXfXdXdXdXdXgXtXrXyX7X4X4X3X3X3X-X-X%X&XOX+X+X.X{.{.].].].}.}.].].].]._.`.`.`.`.`.W.W.W.W.W.W.Q.Q.Q.W._._.}.}..XoXXX#X*X*X1X1X1X1X6X1X1X1X6X$X^.W.Y.A.c.f.t.0.7.6.#.#.@.@.@.@.@.O.O.O.O.O.O.O.O.O.O.O.O.O.O.O.O.O.O.O.O.O.O.@.@.#.-.9.9.t.i.f.x.m.S.Z.R.R.T.T.T.T.Y.Y.C.m.x.f.t.0.9.=.=.@.@.O.o.o.o.X.o.X.O.O.X.X.o.o.O.O.O.O.O.O.O.O.O.*.*.*.=.=.=.=.6.6.6.w.w.w.0.q.i.a.d.k.d.d.d.a.a.a.a.s.s.s.s.s.s.p.y.u.-.+.X.[ ` ` ` ` ` X.u.c.D.Q.J.D.:.&.] ' ' ' +.i.D.D.S.S.S.m.n.n.n.n.n.d.d.d.d.d.k.j.j.j.d.d.d.d.d.d.d.d.d.d.d.d.V.V.B.K.K.S.B.n.d.d.d.d.f.5.5.u.",
"V V V V V V V V V V V C D D L L F I / ] X.O.:.u.:.E M m m N n n n n n n n n n n n n M M M M M M M M V V V V S S G D D D F ~ ~ / ] [ { o.o.o.O.@.@.@.@.@.@.@.@.@.*.-.-.9.9.u.u.t.i.f.s.f.x.x.c.m.m.m.m.m.m.x.x.x.d.s.i.i.t.0.9.0.9.9.9.9.9.9.9.0.y.s.p.a.f.s.i.i.f.d.d.x.x.x.x.V.V.m.m.m.m.C.S.J.K.K.E.E.W.W.W._.].].].].].].].~.].^.~.W.T.R.Z.D.S.D.V.n.d.f.s.i.i.i.i.i.i.i.i.i.i.i.i.i.i.f.s.d.d.d.d.d.x.x.x.x.n.n.x.x.x.x.c.m.m.m.m.C.C.Z.G.F.E.E.W.W._._._._._._.W.W.Q.Q.Q.Q.Q.R.J.G.C.S.C.C.S.S.C.C.M.M.M.M.C.C.S.S.S.S.S.S.G.F.E.R.W.'.'.'.{..XXXOX&X&X%X%X%X%XXX.X.X{.[.].].W.W.W.W.W.W.W.W.W.W.W.].].].].].].].].].].{.{.oX.XXX%X1X4XyXaXhXkXvXvXmXmXmXvXkXjXgXaXyX0X5X5X5X5X5X5X4X4X8X0XeXeX0X0X0X0XeXeXeXeXyXtXsXaXdXfXjXkXvXMXCXCXZXAXAXZXZXCXMXMXvXkXjXjXjXdXdXdXgXgXsXsXgXgXgXgXsXsXgXgXgXfXjXjXjXjXkXkXkXkXkXkXkXjXjXjXjXjXdXdXdXdXfXfXdXdXdXdXdXdXfXfXfXfXdXhXjXjXjXjXjXjXjXjXjXjXjXjXkXkXkXvXvXvXvXvXvXvXvXvXvXvXvXvXvXkXjXjXjXjXjXjXjXjXxXxXjXjXfXfXjXjXfXfXfXfXjXjXjXjXjXjXjXjXjXjXjXjXjXjXjXjXjXjXjXjXjXjXfXfXfXfXfXfXfXfXfXfXfXdXfXfXfXfXfXfXfXjXjXjXjXjXkXjXjXjXjXjXjXjXjXjXjXjXfXdXdXdXdXsXtXrXeX7X4X4X2X3X3X1X=X&X&XOXOX+X+X.X{.|.{.{.}.}.].].].].]._.`.`.`.`.`.`.`.`.`.`.`.W.W.].].].{.{..X.XXX%X*X*X*X*X*X1X-X*X*X$X$X$X[.W.Z.A.c.i.t.0.7.6.#.#.@.@.@.@.@.O.O.O.O.O.O.O.O.O.O.O.O.O.O.O.O.O.O.O.O.O.@.@.@.=.9.0.t.t.f.d.x.m.S.J.R.R.T.T.T.T.Y.F.S.m.x.f.i.0.9.9.-.*.@.O.O.O.O.O.O.O.O.O.O.O.O.O.O.O.O.O.O.O.O.O.O.@.*.*.=.=.=.=.6.w.w.w.w.w.0.q.i.a.d.k.d.d.d.a.a.a.a.a.a.a.s.s.s.s.s.s.y.u.:.@.o.[ ` ' ' ' :.u.v.D.A.s.:.&.o.o.o.[ ' ' +.t.V.D.S.D.N.m.n.n.n.d.d.d.d.k.k.k.k.k.k.k.d.d.d.d.d.d.d.d.d.d.d.l.d.i.i.5.6.#.#.#.#.#.@.' ' $.",
"V V V V V V V V V V V C D D L L F I / ] X.O.:.u.:.E M m l n n n v v n n n n n n n n M M M M M M M M V V V V S S S S D S F E ~ / ` } { +.o.o.O.O.@.@.@.@.@.@.@.@.@.-.-.9.9.0.u.t.i.i.s.s.c.c.x.m.m.m.m.m.m.x.x.x.d.s.f.i.t.0.9.0.9.9.9.9.9.9.9.9.t.p.p.i.f.i.i.i.f.d.d.d.x.x.x.x.V.V.V.m.m.m.C.S.F.F.F.K.E.E.W.Q.`._.].].].].].].].].^.W.W.R.R.Z.S.S.B.V.V.d.f.i.i.i.i.i.i.i.i.i.p.i.i.i.i.f.s.d.d.d.d.d.x.x.x.x.n.n.x.x.x.x.c.m.m.m.m.M.C.C.F.G.Y.E.Q.Q.W._._._.W.W.W.Q.Q.Q.Q.Q.E.R.J.J.S.S.S.S.S.S.C.C.M.M.M.M.C.C.S.S.S.S.S.S.G.F.E.R.W.'.'.'.{..X.XXXXX#X#X%XXXOXXX.X{.[.].].~.W.W.W.W.W.W.W.W.W.W._.].].].].].].].].].].{.{..X.XXX%X1X4XyXgXjXkXvXvXvXvXvXkXxXxXaXrX9X8X5X4X5X5X5X5X4X4X4X7X8X8X0X0X0X0XeXeXeXeXyXtXsXaXdXhXjXvXvXMXCXCXAXAXAXAXZXCXCXmXvXvXkXjXjXjXfXdXdXgXgXgXgXgXgXgXgXsXgXgXgXfXjXjXjXjXkXkXkXkXkXkXkXjXjXjXjXjXhXdXdXdXfXfXdXdXdXdXdXdXfXfXfXfXhXhXjXjXjXjXjXjXjXjXjXjXjXjXkXkXkXvXvXvXvXvXvXvXvXvXvXvXvXvXvXkXjXjXjXjXjXjXjXjXjXxXxXxXjXjXjXjXfXfXfXfXjXjXjXjXjXjXjXjXjXjXjXjXjXjXjXjXjXjXjXjXjXjXjXjXjXjXjXjXfXhXfXhXdXdXhXhXjXjXjXjXjXjXjXjXjXjXkXjXjXjXjXjXjXjXjXjXjXjXfXgXfXdXsXtXtXrXeXeX4X2X3X3X3X1X=X&X&XOXOX+X+X.X{.|.|.{.|.}.].].].].]._._.`.`.`.`.`.`.`.`.`.`._._.].].[.{..X.XXXOX%X*X*X*X*X-X-X*X*X*X%X#XoX^.T.Z.m.f.i.t.7.6.6.#.#.#.@.@.@.@.O.O.O.O.O.O.O.O.O.O.O.O.O.O.O.O.O.O.O.O.O.@.@.@.#.9.0.t.t.f.d.x.n.S.J.R.R.T.T.T.T.Y.F.S.m.x.f.i.0.9.9.=.@.@.O.O.O.O.O.O.O.O.O.O.O.O.O.O.O.O.O.O.O.O.O.@.@.*.*.=.=.=.=.6.w.w.w.w.w.0.q.r.a.d.d.d.d.d.a.a.a.a.a.a.a.f.i.a.i.i.i.a.s.s.u.-.@.X.[ ' ' +.:.:.u.5.#.X.[ o.>.:.:.-.@.+.X.X.#.c.D.D.S.m.n.x.d.d.d.d.k.k.k.k.k.d.k.d.d.d.d.d.d.a.a.a.p.a.a.p.7.6.6.#.@.O.O.O.O.O.o.+.+.",
"m m V V V V V V V V C S D D L L F P / ] X.O.:.u.:.E M m k k n n v v k k k k n n n n M M M M M M M M V V V V V S S S D D F F ~ / / } } { +.o.O.O.O.O.@.@.@.@.@.@.@.=.-.-.9.9.9.t.u.s.s.s.s.x.x.x.m.m.m.n.n.x.x.x.d.s.f.i.t.0.0.0.9.9.9.9.9.9.6.9.0.p.i.i.i.i.i.i.i.f.d.d.x.x.x.n.V.V.V.n.m.m.M.C.C.C.G.J.F.J.E.E.W._.].].].].~.].~.~.~.W.W.W.R.R.G.S.S.B.V.x.s.i.i.i.i.i.i.i.i.i.i.i.i.i.i.i.f.f.s.d.d.d.x.x.x.x.x.x.x.x.n.x.x.n.n.n.m.m.C.C.Z.F.J.R.Q.Q.W.W.W.W.`.`._.W.W.W.Q.Q.Q.E.J.J.H.H.H.H.S.S.C.S.C.C.C.C.S.S.S.S.S.S.J.J.G.F.E.T.W.'.'.'.{..XXXXXXXXXXXXXXXXXXX.X[.[.].].].W.W.W.T.W.W.W.W.W.W.W.W.W.].].].].].].].].{.{..X.XXX%X1X4XyXdXjXkXkXkXvXvXkXlXjXxXaX9X7X7X5X4X4X5X4X4X4X4X5X5X5X5X8X8XeXeXeXeXeXeXrXrXsXdXdXhXjXvXbXCXCXCXZXZXZXZXZXCXCXMXvXvXkXkXxXxXhXdXdXdXgXgXgXgXdXdXgXgXgXgXgXfXjXjXkXkXkXkXkXkXkXkXkXjXjXjXjXhXhXhXhXhXfXfXfXfXfXfXfXfXfXfXfXfXdXdXhXhXjXhXjXjXjXjXhXhXjXjXkXkXkXkXvXvXvXvXvXvXvXvXvXvXvXvXkXkXjXjXjXjXjXjXjXjXxXxXxXxXfXfXfXfXjXjXjXjXjXjXjXjXjXjXjXjXjXjXjXjXjXjXjXjXjXjXjXjXjXjXjXjXjXjXjXjXhXhXhXhXhXhXhXhXjXjXjXjXjXjXkXjXjXjXkXkXkXjXkXjXjXjXjXjXjXjXfXdXgXgXsXrXrXrXyXwX4X2X2X3X1X=X=X&X%XOX+X+X+X.X{.{.|.{.{.{.].].].].].]._._._._._._._._.`.`._._.].}.{.[..X.XXXXX%X%X-X*X-X-X1X1X-X*X%XOX+XoX^.Q.Z.m.s.i.0.0.6.6.#.#.#.#.*.@.@.@.O.O.O.O.O.O.O.O.O.O.O.O.O.O.O.O.O.O.O.O.@.@.*.-.9.9.0.t.f.d.n.N.C.G.Y.R.T.T.T.T.Y.Y.C.C.n.d.i.0.7.9.=.#.@.@.O.O.O.O.O.O.O.O.O.O.O.O.O.O.O.O.O.O.O.O.@.@.*.*.=.=.=.=.=.=.w.w.w.0.0.q.r.i.a.d.d.d.d.a.d.a.a.a.a.a.a.p.p.p.p.p.a.a.a.s.h.y.-.@.O.X.X.X.+.X.+.+.] ` [ +.v.D.D.D.t.X.E W ' -.v.v.m.x.x.d.d.k.k.k.k.k.k.k.k.k.k.k.d.d.d.a.d.d.d.d.i.i.r.7.6.=.@.O.O.o.o.o.o.[ [ } ",
"m m m m V V V V V V C S D D L D F P / ] X.O.:.u.+.F M m k k n v v v k k k k n n n n M M M M M M M M V V V V V V S S D D F F ~ / / ] } { +.o.O.O.O.O.O.O.O.O.@.@.@.*.-.-.-.9.9.9.9.t.s.s.s.x.x.x.n.m.n.n.x.x.x.x.d.f.f.i.t.t.0.0.9.9.9.9.-.#.#.6.0.t.p.i.i.i.i.i.i.f.d.d.x.x.x.n.x.x.n.n.m.m.m.m.M.M.C.G.G.G.K.E.E.W._.].].].].].~.~.~.~.W.W.R.Y.G.C.C.B.V.n.d.f.i.i.i.i.i.i.i.i.i.p.i.i.i.i.f.f.s.s.d.d.x.x.x.x.x.x.x.x.x.x.n.n.n.n.m.m.C.C.C.F.F.R.Q.Q.Q.Q.W.Q.`.`._.Q.W.W.E.E.R.E.K.F.J.H.J.H.S.S.S.S.C.S.S.S.S.S.S.Z.Z.Z.J.J.F.K.E.T.W.'.'.[..X.XXXXXXXXXXXXXXXXX.X.X[.].].].W.W.W.W.T.W.W.W.W.W.W.W.W.W.].].].].].].].].{.{..X.XXX%X1X4XyXgXjXkXkXkXkXkXlXkXxXgXaX0X7X8X5X2X6X2X4X4X4X4X4X4X4X4X8X8XeXeXeXeXeXeXrXrXsXaXdXhXkXvXbXCXCXZXZXZXDXZXZXZXCXMXMXvXnXkXxXxXjXdXdXdXdXgXgXgXdXdXgXgXgXgXgXfXjXjXkXkXkXkXkXkXkXkXkXjXjXjXjXhXhXhXhXhXfXfXfXfXfXfXfXfXfXfXfXfXdXdXhXhXjXhXjXjXjXjXhXhXjXjXkXkXkXkXvXvXvXvXvXvXvXvXbXbXvXvXvXkXjXjXjXjXjXjXjXjXxXxXxXxXjXfXfXjXjXjXjXjXjXjXjXjXjXjXjXjXjXjXjXjXjXjXjXjXjXjXjXjXjXjXjXjXjXjXjXjXhXhXhXhXhXhXhXhXjXhXkXkXkXkXkXkXjXjXkXkXkXjXkXjXjXjXjXjXjXjXfXdXsXgXsXrXrXyXyX4X4X2X2X3X-X=X-X&X%XOX+X+X+X.X{.{.|.|.{.{.].].].].].]._._._._._._._._._._._.].}.{.{..X+XXXXX%X-X-X-X-X1X1X1X1X-X-X&XOXoX}.~.R.A.c.s.i.0.0.7.6.#.#.#.#.*.@.@.@.O.O.O.O.O.O.O.O.O.O.O.O.O.O.O.O.O.O.O.O.@.@.@.-.9.9.0.t.f.d.n.N.C.J.Y.R.T.T.T.T.Y.Y.C.C.n.d.i.0.5.6.9.=.@.@.O.O.O.O.O.O.O.O.O.O.O.O.O.O.O.O.O.O.O.O.@.@.*.*.=.=.=.=.=.=.w.w.w.w.0.q.r.i.a.a.d.d.g.a.d.a.a.a.a.a.a.p.p.p.e.e.p.p.p.a.g.s.s.y.u.-.+.X.' ' ' ' ] ` [ +.v.D.Q.Q.V.9.X.' ' ' X.-.s.x.V.d.j.k.k.k.a.a.a.d.k.k.d.d.d.j.d.a.d.a.a.d.d.i.p.0.9.=.@.O.O.o.o.o.{ [ [ } ",
"m m m m m B V V V V C S D D D D L ~ / ] X.O.:.u.+.S M m k k k v v v n k n n n n n n m M M M M M M M V V V V V V V S S S F F ~ ~ / ] [ [ [ o.O.O.O.O.O.O.O.O.O.O.@.@.=.=.-.-.9.9.9.t.t.s.f.s.d.x.n.n.n.n.n.n.n.x.f.f.s.t.i.t.t.9.9.9.9.9.9.#.#.6.0.t.p.i.i.i.i.i.i.i.f.d.d.d.x.x.x.x.n.n.n.m.N.m.M.M.C.C.C.G.F.F.E.E.W._._._._.].W._._._.W.W.W.R.F.G.C.M.M.m.x.d.f.f.f.f.i.i.a.a.i.i.i.i.f.f.d.d.d.d.d.d.x.x.x.x.x.x.x.x.x.x.n.n.n.n.m.m.C.C.C.C.G.J.E.R.Q.Q.Q.Q.`._._.Q.Q.E.E.E.E.E.E.K.J.J.J.J.J.J.H.H.G.H.H.H.J.J.J.J.J.J.R.J.J.E.T.W._.'.'.{..X.XXXXXXXXXXXXXXXXX.X.X[.].].].W.W.W.W.W.W.W.W.W.W.W._.W.W.].].].].].].].].{.{..X.XXX%X1X4XrXgXjXkXkXkXkXkXkXjXjXaXrX0X7X8X5X2X2X2X2X2X2X4X4X4X4X4XwX8XeXeXeXeXeXeXrXrXaXdXdXjXkXvXbXCXZXZXZXDXDXDXDXZXAXCXMXbXvXvXkXkXjXhXfXdXdXgXaXaXdXdXgXgXgXsXgXfXjXjXjXjXkXkXkXkXkXkXkXkXjXkXjXjXhXjXjXjXfXfXfXfXfXfXdXfXxXxXxXxXfXjXjXjXjXjXjXjXjXjXjXjXjXjXkXkXkXkXvXvXvXvXvXvXvXvXvXvXvXvXvXkXkXkXjXjXjXjXjXjXjXjXjXjXjXjXjXjXjXjXjXjXjXjXjXjXjXjXjXjXjXjXjXjXjXkXjXjXjXjXjXjXjXjXjXjXjXjXjXjXjXjXjXjXjXjXjXkXjXjXkXkXkXkXkXkXkXkXkXkXkXkXkXjXjXjXjXjXjXfXfXdXsXsXtXrXrXyXyX4X4X2X2X2X-X=X=X&X%XOX+X+X+X.X{.{.{.{.{.{.}.}.}.].].].].].].].].]._._._._.].}.{.{.{..XOXOX%X-X-X-X-X-X2X2X2X2X2X-X&XOX.X[.Q.R.C.x.s.t.0.0.7.6.#.#.#.@.@.@.@.@.@.@.@.@.O.O.O.O.O.O.O.O.O.O.@.@.@.@.@.@.@.@.*.-.9.9.t.i.d.d.n.n.C.G.Y.R.T.T.T.T.Y.Y.J.C.N.d.a.i.0.7.9.=.=.@.@.O.O.O.O.O.O.O.O.O.O.O.O.O.O.O.O.O.@.@.@.@.*.*.=.=.=.=.=.6.w.w.w.w.0.0.r.i.a.a.d.d.g.g.d.d.a.a.a.a.a.p.p.p.p.p.p.p.a.a.s.g.s.s.v.s.u.#.' ' E ' ' ' [ O.c.c.D.K.D.u.#.X.[ ' ' ' X.#.t.d.j.j.j.k.d.d.d.d.d.d.d.d.d.d.d.d.d.d.d.d.d.f.i.t.9.#.@.O.O.o.o.o.o.[ [ } ",
"m m m m m B B B B V C C D D D D L ~ / ] X.O.:.u.+.A M k k k f f v v n n n n n n n n m M M M M M M M V V V V V V V S S S S F ~ ( / ] } } [ X.O.O.O.O.O.O.O.O.O.O.O.@.*.=.-.-.-.9.9.9.t.t.s.f.s.x.x.x.n.n.x.x.n.x.x.s.s.t.i.t.t.0.9.9.9.=.=.#.#.6.w.t.p.i.i.i.i.i.i.i.i.f.d.d.d.d.x.x.x.n.x.n.n.m.m.N.M.M.M.C.G.G.J.R.E.W.W._._._.W._._._.W.W.W.W.Y.G.C.C.M.m.n.d.f.d.s.f.i.i.a.a.i.i.i.f.f.f.d.d.d.d.d.d.d.x.x.x.x.x.x.x.x.x.n.n.n.n.m.m.C.C.C.H.S.G.J.J.R.E.Q.Q.Q.`.W.Q.Q.Q.E.E.E.E.E.E.J.J.J.J.J.J.J.J.G.F.F.J.J.J.J.R.R.R.R.R.E.E.W._._.'.'.{..X.XXXXXXXXXXXXXXX.X.X{.[.].].].W.W.W.W.W.T.W.W.W.W._._.W.W.].]._.]._.].].[.{.{..X.XXX%X1X4XrXgXjXkXkXkXkXkXjXjXfXaXrX7X7X5X5X6X2X2X2X2X2X2X5X4X5X4X5XwX8XeXeXeXeXeXrXrXaXdXxXhXvXbXbXCXZXZXDXDXDXDXDXDXZXCXCXbXvXvXkXkXjXjXfXdXdXgXgXgXdXdXdXgXgXsXgXfXjXjXjXjXkXkXkXkXkXkXkXkXjXkXjXjXjXjXjXjXhXfXfXfXfXfXfXdXxXxXxXxXfXjXjXjXjXjXjXjXjXjXjXjXjXjXkXkXkXkXvXvXvXvXvXvXvXvXvXvXvXvXvXkXkXkXkXjXjXjXjXjXjXjXjXjXjXjXjXjXjXjXjXjXjXjXjXjXjXjXjXjXjXjXjXjXjXjXjXjXjXjXjXjXjXjXjXjXjXjXjXjXjXjXjXjXjXjXkXkXjXjXkXkXkXkXkXkXkXkXkXkXkXkXkXjXjXjXjXjXjXfXgXdXsXsXtXrXrXyXyX4X2X2X2X3X=X=X-X&X%XOX+X+X+X.X.X{.{.{.{.{.}.}.].].].].].].].].].]._.].].].|.}.{.{..X+XOX%X-X=X-X-X-X2X2X2X1X-X=X-X&XXX.X].Q.R.A.x.f.t.0.0.6.6.#.#.#.#.@.@.@.@.@.@.@.@.O.O.O.O.O.O.O.O.O.O.@.@.@.@.@.@.@.@.*.-.9.9.t.i.d.d.n.n.C.G.Y.R.T.T.T.T.Y.Y.J.C.N.d.a.i.0.9.9.=.#.@.@.O.O.O.O.O.O.O.O.O.O.O.O.O.O.O.O.O.@.@.@.@.*.*.=.=.=.=.=.6.w.w.w.w.w.0.r.i.a.a.d.d.g.g.a.a.a.a.a.a.a.p.p.p.p.p.p.p.a.a.s.s.g.s.v.v.v.s.i.#.+.' ' ' ' +.5.u.f.c.s.#.X.X.X.o.X.' X.X.+.#.5.f.x.x.x.d.d.d.d.d.d.d.d.d.d.d.d.d.d.d.d.f.i.t.9.#.@.O.O.O.o.o.o.[ [ { ",
"m m m m m m m m m V V C F D D L P ~ / ] X.@.:.u.+.A M k k k k f v v n n n n n n n n m m M M M M M M V B V V V V V S S S S F F ~ ( ` } } [ X.o.O.O.O.O.O.O.O.O.O.O.@.*.*.-.;.-.9.9.9.9.u.i.s.s.d.x.x.x.n.x.x.x.x.x.f.f.s.t.t.t.0.9.9.9.=.=.#.#.#.w.t.t.p.p.p.p.p.i.i.i.f.d.d.d.d.x.x.x.x.x.x.x.x.n.m.m.m.M.C.C.C.J.R.E.W.W.W.W.W.W.W.W.W.W.W.W.W.R.Y.F.C.C.M.m.x.d.d.d.d.f.f.f.s.f.s.f.f.s.s.s.d.d.d.x.d.d.d.x.x.x.x.x.x.x.x.x.n.n.n.m.M.C.C.C.S.S.H.G.J.J.K.E.E.Q.Q.Q.Q.Q.E.E.E.E.E.E.E.E.E.E.E.J.F.F.F.F.F.F.J.R.R.R.R.R.R.R.R.K.W.W._.'.].[..X.X.X.XXXXXXXXXXXXX.X.X[.[.].~.W.W.Q.W.W.W.W.W.W.W.W.W.W.W.W._._._.~._._.].[.}.{..X.XXX%X1X4XrXgXjXkXkXkXkXkXjXjXdXaXrX7X5X5X5X1X1X2X6X6X6X6X3X2X2X4X5X5X5X8XeXeXeXeXtXtXgXgXdXjXvXbXBXZXZXDXDXDXFXFXFXHXZXZXCXCXbXvXvXkXkXjXjXfXfXdXdXdXdXdXdXgXsXsXgXfXjXjXjXjXkXkXvXvXkXkXkXkXkXkXkXkXjXjXjXjXjXjXfXfXjXjXjXjXjXjXjXjXjXjXjXjXjXjXjXjXjXjXjXjXkXkXjXkXkXkXvXvXvXvXvXvXvXvXvXvXvXvXvXvXkXkXkXkXkXjXkXkXjXjXjXjXjXjXjXjXjXjXjXjXjXjXjXjXjXjXjXjXjXjXjXjXkXkXkXkXkXkXkXjXjXjXkXkXjXjXjXjXjXjXjXjXjXjXkXkXkXkXkXkXkXkXkXvXvXvXvXvXkXkXkXkXjXjXjXjXjXfXfXdXgXsXtXrXrXyXeX4X2X3X2X3X=X=X-X&X%XOX+X+X+X.X.X{.{.{.{.{.{.{.{.].].].].].].].].]._.].].|.|.|.{..X.XXX%X&X-X3X1X3X2X2X2X1X1X-X=X%X&X+X[.].Q.Z.m.x.s.0.0.0.6.6.#.#.#.#.@.@.@.@.@.@.@.@.@.O.O.O.O.O.O.O.O.O.@.@.@.@.@.@.@.@.=.-.9.9.t.i.d.n.n.M.C.G.Y.R.T.T.T.T.Y.Y.J.S.n.d.a.i.0.5.9.9.#.@.@.O.O.O.O.O.O.O.O.O.O.O.O.O.O.O.O.O.@.@.@.@.*.*.=.=.=.=.;.;.w.w.w.w.w.0.r.p.a.a.d.d.g.g.g.a.a.a.a.a.a.p.p.p.p.p.p.p.a.i.i.a.a.s.s.s.s.s.v.v.s.9.+.X.' X.5.5.u.u.#.X.' [ o.*.u.s.9.@.X.X.+.#.t.c.x.x.x.x.x.x.g.d.g.d.d.d.d.d.d.d.d.f.i.p.9.=.@.@.O.O.o.o.o.X.[ { ",
"m m m m m m m m m B Z C F F D L P ^ / ] X.@.:.:.$.A m k k j f v f f n k n n n n n n m m M M M M M M V B V V V V V S S S S F | ~ ~ / ] } [ [ X.X.O.O.O.O.O.O.O.O.O.@.*.*.*.;.;.-.9.9.9.t.t.s.f.s.d.d.x.x.x.x.x.x.x.s.f.s.t.t.t.0.0.9.9.=.#.#.#.#.9.t.t.p.t.i.p.p.i.i.i.i.f.f.d.d.d.x.x.x.x.x.x.x.x.x.x.m.M.C.C.C.S.J.E.E.W.W.W.W.W.W.W.W.W.W.W.W.W.R.F.G.C.M.m.n.x.d.d.d.s.f.f.s.f.s.f.f.s.s.s.d.d.d.x.d.d.d.x.x.x.x.x.x.x.x.x.x.n.N.m.M.C.C.C.C.S.S.C.H.C.H.J.K.E.Q.Q.Q.E.K.R.E.E.E.E.R.E.E.E.E.Y.Y.Y.Y.Y.Y.Y.R.R.R.E.E.Q.Q.Q.Q.E.Q.W._.].[.{..X.X.X.XXXXXXXXXXXXX.X.X[.[.].].W.W.Q.W.W.T.T.W.W.W.W.W.W.W.W._._.~.~._.].[.[.}..X.XXXOX*X1X4XrXgXjXkXkXkXkXkXjXfXgXtXrX7X5X5X3X1X1X1X6X6X6X6X3X3X3X2X5X5X4X5XeXeXeXeXtXrXgXgXdXjXvXbXBXZXDXDXDXFXFXFXFXFXHXZXZXCXbXbXvXkXkXjXjXjXfXdXdXdXdXdXdXgXdXsXgXfXjXjXjXkXkXkXvXkXkXkXkXkXkXkXkXkXjXjXjXjXjXjXfXfXjXjXjXjXjXjXjXjXjXjXjXjXjXjXjXjXjXjXjXjXkXkXjXkXkXkXvXvXvXvXvXvXvXvXvXvXvXvXvXvXvXkXkXkXkXkXkXkXkXjXjXjXxXxXjXjXjXjXjXjXjXjXjXjXjXjXjXjXjXjXjXjXkXkXkXkXkXkXkXkXjXjXkXkXjXjXjXjXjXjXjXjXjXkXkXkXkXkXkXkXkXkXkXvXvXvXvXvXkXkXkXkXjXjXjXjXjXfXfXdXgXsXtXrXrXyXeX4X3X3X2X3X=X=X=X&X%XOXOX+X+X.X.X{.{.{.{.{.{.{.{.{.].].].].].].].].].].|.|.|.|.{..X.XXX%X&X=X3X3X3X2X2X2X1X1X*X*X%XXXoX[.].Q.Z.m.c.s.0.7.0.6.6.#.#.#.#.@.@.@.@.@.@.@.@.@.O.O.O.O.O.O.O.O.O.@.@.@.@.@.@.@.@.=.-.9.9.t.i.d.n.n.M.C.G.Y.R.T.T.T.T.Y.R.J.S.n.j.a.i.r.5.9.9.#.@.@.O.O.O.O.O.O.O.O.O.O.O.O.O.O.O.O.O.@.@.@.@.*.*.=.=.=.=.;.;.6.w.w.6.w.0.r.p.a.a.d.d.a.a.g.a.a.a.a.a.a.p.p.p.p.p.p.p.a.a.i.i.i.i.d.d.d.d.d.g.v.v.v.0.@.' +.X.' ' ' ' ` ` [ -.s.V.V.v.-.X.' X.+.-.s.v.v.v.v.x.d.d.g.g.g.d.d.a.a.d.d.d.f.i.w.=.=.@.O.O.o.o.o.X.[ { ",
"m m m m B B m m m B V D F F D L P ( / [ X.@.:.:.$.A n k k j f v f f k k k n n n n n m m M M M M M M B B V V V V V S S S F F 2.( ~ / ] ] [ [ X.o.O.O.O.O.O.O.O.O.O.O.@.*.*.*.;.-.-.-.9.9.t.i.s.s.d.d.x.x.x.x.x.x.d.d.f.s.i.t.t.t.9.9.9.=.=.=.#.6.9.t.t.p.t.t.p.p.i.i.i.i.s.s.d.d.d.d.x.x.x.x.x.x.x.x.x.x.m.M.B.C.S.J.R.E.W.W.W.W.W.W.W.W.W.W.W.W.W.W.E.F.G.C.M.m.x.x.d.d.d.d.s.f.f.f.f.f.s.s.d.d.x.x.x.x.x.x.x.x.x.x.x.x.x.x.x.x.n.N.m.M.B.M.M.M.M.M.C.C.S.S.C.J.J.K.E.E.R.J.J.J.E.E.E.E.R.R.E.E.E.E.E.E.E.E.E.E.E.W.W.W.Q.Q.Q.E.W.Q.`.].].[.{..X.X.X.XXXXXXXXXXXXX.X.X[.[.].].W.W.Q.W.W.T.W.W.W.W.W.W.W._._._._.~.~._.].[.[.{..X.XOX%X*X1X4XrXsXjXkXkXkXkXkXjXfXgXtXrX7X5X5X3X1X1X1X1X1X1X1X2X2X3X2X5X5X4X4X8XeXeXeXyXtXgXxXhXkXvXbXBXZXDXDXFXFXFXFXFXFXDXDXZXZXBXbXvXvXkXjXjXjXfXdXdXdXdXdXdXgXdXsXgXfXjXjXjXkXkXkXvXvXvXvXkXkXjXjXjXjXjXjXjXjXjXjXfXfXjXjXjXjXjXjXjXjXjXjXjXjXjXjXjXjXjXjXkXkXkXkXjXkXkXkXvXvXvXvXvXvXvXvXvXvXvXvXvXvXvXkXkXkXkXkXkXkXkXkXkXkXxXxXxXjXjXjXjXjXjXjXjXjXjXjXjXjXjXjXkXkXkXkXkXkXkXkXkXkXkXkXkXkXkXkXkXkXkXkXkXkXkXkXkXkXkXkXvXvXkXkXkXkXvXvXvXvXkXkXkXkXjXjXjXjXjXfXfXsXsXsXtXrXrXeXeX4X5X3X3X3X3X=X=X&X%XOXOX+X+X.X.X.X{.{.{.{.{.{.{.{.}.}.}.}.].].].].].].].|.|.}.{.{..XOX&X-X-X3X3X2X2X2X2X2X1X*X*X%XXX.X[.W.R.D.m.d.s.0.7.0.6.6.6.#.=.#.=.@.@.@.@.@.@.@.@.@.O.O.O.@.@.@.@.@.@.@.@.@.@.@.@.*.=.-.9.t.t.i.d.n.n.M.C.F.Y.R.T.T.T.T.T.R.J.S.N.j.d.i.i.0.9.9.-.*.@.@.@.O.O.O.O.O.O.O.O.O.O.O.O.O.O.O.@.@.@.@.*.*.=.=.=.=.=.;.6.w.w.6.w.0.0.i.a.a.a.a.a.a.d.a.a.a.a.a.a.a.p.p.p.p.p.p.p.p.a.a.p.p.a.a.a.a.d.d.d.d.v.x.t.#.+.' W W ' ` ` ` X.u.x.m.V.V.v.@.[ ' ' ' ' $.u.v.v.v.v.v.v.g.g.d.d.d.d.a.d.d.d.d.0.=.=.@.O.O.O.o.o.X.[ { ",
"m m m m B m m m m V V D F F D L P ( / [ X.@.:.:.+.A v f j j v f k k l z k v n n m m m m m M M M M M V V V V C C C S S S ( 1.U.( ~ / ` ] [ [ X.o.O.O.O.O.O.O.O.O.O.O.@.@.@.*.;.;.;.-.9.9.t.t.s.s.d.x.x.x.x.x.x.x.d.d.f.f.i.t.t.0.0.9.9.=.=.=.#.6.9.t.t.t.t.t.p.p.i.i.i.i.s.s.f.f.d.d.x.d.d.x.x.x.x.x.x.x.x.n.M.m.S.J.J.R.W.W.W.W.W.W.W.W.W.W.W.W.W.W.W.E.G.C.M.N.x.x.d.d.d.d.s.f.f.f.f.f.s.s.d.x.x.x.x.x.x.x.x.x.x.x.x.x.n.n.n.n.N.m.m.M.B.S.M.M.B.M.M.M.C.C.C.C.G.F.F.F.J.J.J.J.J.R.E.E.R.R.E.E.E.E.E.E.E.R.W.W.W.W.W.W.W.W.Q.Q.Q.`.`.].].[.{..X.X.X.X.X+X+XOXXX.X.X.X[.[.].].~.W.Q.W.W.T.T.W.W.W.W.W.W._._._._._.~._.].[.[..X.X.XOX%X*X1X4XrXgXjXkXkXjXkXjXjXfXgXtX0X7X5X3X3X1X=X=X1X1X1X1X2X2X3X2X5X5X5X4X8XeXeXeXyXtXdXxXhXkXvXbXBXZXDXDXFXFXFXFXFXFXDXDXZXZXCXbXbXvXkXkXjXjXfXdXdXdXdXdXdXgXdXsXgXfXjXjXjXkXkXkXvXvXvXvXkXkXkXjXjXjXjXjXjXjXjXjXjXfXjXjXjXjXjXjXjXjXjXjXjXjXjXjXjXjXkXkXkXkXkXkXjXjXkXkXvXvXvXvXvXvXvXvXvXvXvXvXvXvXvXvXkXkXkXkXkXhXxXxXxXxXpXxXxXxXkXjXxXjXjXjXjXjXjXjXjXjXjXjXkXkXkXkXkXkXkXkXkXkXkXkXkXkXkXkXkXkXkXkXkXkXkXkXkXkXkXkXvXvXkXkXkXkXvXvXvXvXkXkXkXkXjXjXjXjXjXfXgXsXsXtXuXrXrXeXeX4X5X3X3X3X=X=X=X&X%XOXOX+X+X.X+X.X.X{.{.{.{.{.{.{.}.}.}.].].].].].].].|.|.}.}.{..X.XOX&X-X3X3X2X2X2X2X2X2X1X*X*X%XXX.X[.~.R.D.m.s.i.0.7.0.6.6.6.#.=.#.=.@.@.@.@.@.@.@.@.@.O.O.O.@.@.@.@.@.@.@.@.@.@.@.@.*.=.-.9.t.t.i.d.n.n.M.C.F.Y.R.T.T.T.T.T.R.J.S.N.j.d.i.i.0.9.9.-.*.@.@.@.O.O.O.O.O.O.O.O.O.O.O.O.O.O.O.@.@.@.@.*.*.=.=.=.=.=.;.;.6.6.6.w.0.0.p.a.a.a.a.a.a.d.a.a.a.a.a.a.a.p.p.p.p.p.p.p.p.a.a.p.p.a.a.a.a.d.d.d.d.d.x.x.s.f.9.+.' ' ` ` ' O.u.c.f.f.f.u.O.X.[ [ [ ' ' ' ' #.s.v.v.x.x.x.d.d.d.d.d.d.d.d.d.q.;.=.@.O.O.O.o.o.X.[ { ",
"m m m m m m m m m V V S F F D L P ( / [ +.@.:.:.:.A v N H N v v Z B Z H H N l B B m m M N M C C S S V C C C L L D L ^ / ' b.1.E ~ / ` ] ] [ [ X.o.o.o.o.O.O.O.O.O.O.O.%.@.*.*.;.;.-.9.9.9.t.t.i.s.d.x.x.x.x.x.d.d.s.s.f.s.i.t.t.w.9.9.9.#.#.#.6.6.0.0.0.p.p.p.p.p.p.p.i.i.i.d.d.d.d.d.d.d.d.d.d.x.x.v.x.x.x.x.m.D.S.Z.R.R.W.W.W.~.~.~.~.W.W.W.W.W.Q.Q.E.J.G.C.M.n.n.x.x.d.d.s.s.s.s.s.s.s.d.x.x.x.x.x.x.x.x.x.n.m.m.n.n.m.m.m.m.m.m.m.M.M.M.M.M.M.M.M.M.M.C.S.C.C.C.G.F.J.J.R.J.J.R.E.E.E.E.E.E.R.R.R.E.W.W.W.T.W.W.W.W.W.W.W.W.W.`.].].].[..X.X.X.X.XXX+X+X.X.X.X.X.X[.[.].].~.W.Q.W.W.W.W.R.W.W.W.W.W.W.W.W.W.W.W._.].].[..X.X.XOX%X*X1X4XyXrXgXjXjXjXjXjXfXgXsXyX7X5X5X3X1X=X=X=X1X1X=X=X2X2X2X2X5X5X5X5X8X8X8XeXyXsXdXxXhXvXvXbXCXZXDXDXFXGXGXGXGXGXFXDXDXZXZXBXbXvXkXjXjXjXfXfXxXxXdXxXgXgXdXgXgXfXjXjXjXkXkXkXvXvXkXkXkXkXkXkXkXkXjXkXjXjXjXjXjXjXxXxXjXjXjXjXjXjXjXjXjXjXjXjXjXjXkXkXkXkXkXkXkXkXkXkXkXkXkXkXvXvXvXvXvXvXvXvXvXvXvXmXmXkXkXkXlXpXpXpXpXpXpXpXpXxXxXhXhXhXjXjXjXjXjXjXjXjXjXjXjXjXkXkXkXjXjXjXkXkXkXkXkXkXkXkXkXkXkXkXkXkXkXkXkXkXvXvXmXmXvXvXvXvXvXvXvXvXkXkXkXjXjXjXjXjXjXfXgXsXsXtXtXtXyXeXeX4X5X3X3X-X=X-X&X&X&XOXOX+X+X.X+X+X.X.X{.{.{.{.{.{.{.{.|.|.].].|.|.].|.[.{.{.{..X.XOX&X-X-X3X2X2X2X2X2X2X2X2X=X*X#XXXoX].W.R.S.m.s.y.0.7.9.6.6.6.#.#.#.=.@.@.@.@.@.@.@.@.@.@.@.@.@.O.O.@.@.@.@.@.@.@.@.@.*.=.-.9.t.t.i.d.n.n.N.C.G.Y.R.T.T.T.T.W.E.J.C.M.n.d.a.i.0.9.9.-.=.@.@.@.@.@.O.O.O.O.O.O.O.O.O.O.O.O.O.@.@.@.@.@.*.*.=.=.=.=.=.6.=.6.6.w.0.q.r.a.a.a.a.a.a.a.a.a.a.a.a.a.a.a.a.a.p.a.a.a.p.i.i.a.a.a.a.a.a.a.d.d.d.d.d.x.x.v.x.u.-.+.X.' ' +.v.Q.K.f.5.#.X.[ { o.+.O.O.' E X.#.u.c.m.m.m.m.f.f.f.f.f.d.n.x.h.;.;.@.O.O.O.o.o.[ [ { ",
"m m m m m m m m m V V S F F D L P ( / [ +.&.:.:.u.E A N N n n M C K Z H J H Z m V V V B Z G S S S S S D L L U U I ^ / ` u.^.U.| E ~ / ] ] [ [ X.X.o.o.o.O.O.O.O.O.O.O.O.@.@.*.*.;.-.-.9.9.0.t.i.s.s.d.x.x.x.x.d.d.s.s.s.s.t.t.t.0.w.9.9.6.#.#.6.6.0.0.0.t.t.p.p.p.p.p.p.i.i.s.d.d.d.d.d.d.d.d.f.s.s.s.x.x.x.x.x.m.A.S.Z.Y.Y.T.W.W.W.~.~.W.W.W.W.W.Q.Q.E.J.F.C.M.m.N.n.x.d.x.x.d.s.d.d.d.d.d.d.x.x.x.x.x.x.x.x.x.x.x.n.m.m.m.m.m.m.m.m.M.M.M.M.M.M.M.M.M.M.M.C.C.C.C.G.G.J.J.J.R.R.R.E.E.E.E.E.E.R.R.E.T.T.W.W.W.W.W.W.W.W.W.W._.W._.].].[.{..X.X.X.X.X+X+X+X+X.X.X.X{.[.[.].^.~.W.Q.W.W.W.W.R.W.W.W.W.Q.W.W.W.W.W.W.].].[.[..X.X.XOX%X*X1X4XyXrXsXgXfXfXfXgXgXgXtXrX7X5X5X3X=X=X=X=X1X1X=X=X2X2X2X2X5X5X5X5X8X8X8XeXyXsXdXxXhXkXbXBXZXDXDXFXGXGXGXGXGXGXFXFXFXDXZXCXbXvXvXjXjXjXjXfXxXxXdXgXgXdXdXgXgXfXjXjXjXkXkXkXvXvXkXkXkXkXkXkXkXkXjXkXjXjXjXjXjXjXxXxXjXjXjXjXjXjXjXjXjXjXjXjXjXjXkXkXkXkXkXkXkXkXkXkXkXkXkXkXvXvXvXvXvXvXvXvXvXvXvXvXvXlXpXpXpXlXkXkXkXkXzXkXxXpXpXxXjXhXhXjXjXjXjXjXjXjXjXjXjXkXkXkXkXjXjXjXkXkXkXkXkXkXkXkXkXkXkXkXkXkXkXkXkXvXvXvXmXmXvXvXvXvXvXvXvXmXkXkXkXjXjXjXjXjXjXfXgXsXsXtXtXyXeXeXeX4X5X3X3X-X=X-X&X&X&XOXOX+X+X.X+X+X.X.X{.{.{.{.{.{.{.{.|.|.].].|.|.|.|.{.{.{..X+XOX&X&X-X3X2X2X2X2X2X2X2X2X2X=X%XXX.XoX~.W.R.S.m.s.y.0.7.9.6.9.9.#.#.#.=.@.@.@.@.@.@.@.@.@.@.@.@.@.O.O.@.@.@.@.@.@.@.@.@.*.=.-.0.t.t.i.d.n.n.N.C.G.Y.R.T.T.T.T.W.E.J.C.N.n.d.d.i.t.0.0.9.-.*.*.@.@.@.O.O.O.O.O.O.O.O.O.O.O.O.O.@.@.@.@.@.*.*.=.=.=.=.=.=.=.6.6.w.0.q.r.a.a.a.a.a.a.a.a.a.a.a.a.a.a.a.a.a.p.a.a.a.p.i.i.a.a.a.a.a.a.a.d.d.d.d.d.x.x.x.v.v.v.s.:.+.X.' ' u.D.b.:.X.[ ` [ +.:.v.v.u.@.' [ [ :.u.c.c.c.x.d.f.f.f.d.n.n.g.w.;.*.O.O.O.o.o.[ [ { ",
"m m m m m m m m m V V G F F D L P ( / [ +.&.;.u.:.:.v A Q A A S L C Z H A A A F F S G Z U U F F F F F L U U U U ^ / ' ' :.b.(.1.E ~ / ` ` [ [ [ X.o.o.o.O.O.O.O.O.O.O.O.O.*.*.*.*.=.-.9.9.5.0.t.i.i.s.d.x.x.x.x.d.d.s.d.f.i.y.y.0.0.9.9.9.9.6.6.9.0.0.t.t.t.t.t.p.i.p.p.i.i.f.f.s.s.d.d.f.f.f.f.s.s.s.s.d.d.d.d.x.N.m.S.Z.Z.Y.Y.T.W.~.].W.W.W.W.W.Q.Q.Q.K.J.G.M.M.B.m.x.x.x.x.x.x.x.d.d.x.x.x.x.x.x.x.x.x.x.n.x.m.m.m.m.m.m.m.m.m.m.M.M.M.M.M.M.M.M.M.M.M.M.M.C.C.C.G.G.G.J.J.J.J.J.K.E.Y.R.E.E.E.E.W.W.W.W.W.W.W.W.W.W.~.].].].].].}.}.}.}.oX.XXXXX+X+X+X+X.X.X.X.X[.[.[.].^.~.W.Q.W.W.W.T.W.W.W.W.Q.Q.W.W._._.W.W.].].[.[.{..X+XOX%X*X1X4XeXrXaXaXaXaXaXaXrXrXrX7X4X4X2X1X=X=X=X*X=X=X=X=X=X1X2X2X3X3X5X5X8X8X8XeXyXsXdXxXhXvXbXBXZXDXFXFXGXLXLXLXGXFXFXFXFXDXZXZXbXbXvXkXjXjXjXfXjXfXfXdXdXdXdXgXgXfXjXjXjXkXkXkXvXvXvXvXvXvXvXvXvXkXjXkXjXjXjXjXjXjXfXfXjXjXjXjXjXjXjXjXjXjXjXjXjXjXjXkXjXjXkXkXkXkXkXkXkXkXkXkXvXvXvXvXvXvXvXvXvXvXmXNXkXpXpXvXmXvXkXkXkXkXkXzXzXzXhXpXpXhXjXhXjXjXjXjXjXjXjXjXkXkXkXkXjXjXjXjXkXkXkXkXkXkXkXkXkXkXkXvXvXvXvXvXvXmXvXvXvXvXvXvXmXmXmXmXmXvXkXkXkXjXjXhXjXjXjXfXgXsXuXtXtXyXyXyXeX4X5X3X3X-X-X-X&X&X&X%XOXOX+X+X+X+X.X.X.X{.{.{.{.{.{.{.{.{.{.{.{.{.{.{.{.{.oX+X&X&X&X-X1X3X3X2X2X2X2X2X2X2X2X=X%XXX.X[.].W.R.C.x.s.y.0.7.9.6.9.9.=.=.=.=.=.#.@.@.@.@.@.@.@.@.@.@.@.O.O.@.@.@.@.@.@.@.@.@.*.=.-.0.t.t.i.d.n.n.N.C.G.Y.R.T.T.T.T.W.E.F.C.N.n.d.d.f.i.t.0.9.-.;.;.*.@.@.@.@.@.@.@.@.@.O.O.O.O.O.O.@.@.@.@.@.*.*.=.=.=.=.=.=.=.=.6.w.w.q.r.p.a.a.a.a.a.a.a.a.a.d.d.a.a.a.a.a.a.a.a.p.p.p.p.a.a.p.p.a.a.a.a.d.d.d.d.d.x.x.x.v.m.c.c.c.-.+.' ' ' [ [ ] / / [ >.:.s.V.V.v.+.} ) / [ $.:.u.s.g.d.a.d.x.N.M.v.u.-.*.*.%.O.o.o.[ [ [ ",
"m m m m M M M m m V V G D F D L P ( / [ X.@.-.:.u.:.b ,X6X1.A M I B V ,.qXU.1.U.1.| E G I ~ E E E E P I I I U I ( ` ' ' :.1.$.` ~ ~ / / ` [ [ [ X.X.o.o.o.o.o.O.O.O.O.O.O.O.*.*.@.*.-.-.9.9.5.5.5.i.i.f.x.x.x.x.d.s.s.s.f.f.y.y.q.0.w.9.9.9.6.6.9.0.0.t.t.t.t.t.p.p.p.p.i.i.s.f.f.f.s.f.f.s.s.s.s.s.s.s.f.f.d.d.d.x.m.M.S.D.Z.Y.Y.T.W.~.W.W.W.Q.Q.Q.Q.E.R.K.G.C.C.M.M.m.n.x.x.x.x.x.x.x.x.x.x.x.x.x.x.x.x.x.n.n.m.m.V.V.V.V.M.m.M.M.M.M.M.M.M.M.M.M.M.M.M.M.M.M.C.C.C.C.C.C.G.F.J.J.J.J.J.Y.R.E.E.E.W.W.W.W.W.W.W.W._.].].].].].].[.{.}.oX.X+X.XXXXX+X+X+X+X.X.X.X.X[.[.[.].^.~.W.Q.W.W.W.W.W.W.W.W.Q.Q.W.W._._.W.W.].].[.[.{..XOX%X%X=X1X4XeXyXrXrXaXaXrXrXrXrXyX7X4X4X2X=X=X=X-X*X=X=X=X=X-X=X2X2X3X3X4X4X5X8X8XeXyXsXdXhXlXvXbXBXZXDXFXFXLXLXLXLXGXFXFXFXFXDXDXZXCXMXvXvXkXjXjXjXjXfXfXdXdXdXdXgXgXfXjXjXjXkXkXvXvXvXvXvXvXvXvXvXvXvXkXkXjXjXjXjXjXjXfXfXjXjXjXjXjXjXjXjXjXjXjXjXjXkXjXjXjXjXjXjXkXkXkXkXkXkXkXkXvXvXvXvXvXvXvXvXvXvXnXpXpXvXvXvXmXmXmXvXvXkXkXkXzXzXjXhXxXpXpXhXjXjXjXjXjXjXkXjXkXkXkXkXjXjXjXjXkXkXkXkXkXkXkXkXkXkXvXvXvXvXvXvXvXvXvXvXvXvXmXmXmXmXmXmXmXvXkXkXkXjXjXjXjXjXjXgXgXsXuXtXyXyXyXyXeX4X5X3X3X-X-X-X&X&X&X%XOX+XOX+X+X+X+X.X.X{.{.{.{.{.{.{.{.{.{.{.{.{.{.{.{..X+X&X&X&X-X=X6X3X3X2X2X2X2X2X2X2X2X=X%XXXoX[.~.W.J.C.x.s.y.q.w.9.9.6.9.=.=.#.=.=.#.@.@.@.@.@.@.@.@.@.@.O.@.O.@.@.@.@.@.@.@.@.@.*.=.-.0.t.t.i.d.n.N.N.C.G.Y.R.T.T.T.T.W.E.F.C.N.n.d.d.d.i.t.0.9.-.-.;.;.@.@.@.@.@.@.@.@.@.O.O.O.O.O.O.@.@.@.@.@.*.*.=.=.=.=.=.=.=.=.6.w.w.0.q.p.a.a.i.a.a.a.a.a.a.d.d.a.a.a.a.a.a.a.a.p.p.p.p.a.a.p.p.a.a.a.a.d.d.d.d.d.d.x.x.x.n.n.n.x.c.s.u.O.' ` ] ) / / { :.b.5.a.v.b.>.....P P / ' O.9.g.g.d.d.m.m.D.v.u.-.*.*.%.O.o.o.[ [ [ ",
"m m n n m m m m m V V D G D D D P ( / ] +.&.-.:.u.:.A iX$X<.v M L V M U.0X,Xz.$Xb.:.6X$X:.:.$.E E A A E ~ ~ P F E ~ / ~ ( 2.../ ~ / / ` ` ] [ [ X.X.o.o.o.o.o.o.o.o.O.O.O.O.O.*.@.@.=.-.9.9.5.5.t.t.i.f.d.x.x.x.x.x.d.d.d.f.i.y.t.0.9.9.6.6.6.6.7.0.0.t.p.p.t.t.p.p.p.p.i.i.i.i.f.f.s.s.s.i.i.i.i.i.i.i.s.i.s.f.d.d.n.V.D.C.Z.Z.Y.Y.W.W.W.W.Q.Q.Q.Q.Q.R.R.R.J.S.S.C.M.m.m.m.x.x.x.x.x.x.x.x.x.x.x.c.c.m.m.m.m.m.m.m.m.m.V.m.m.m.M.M.M.M.M.M.M.M.M.M.M.M.M.M.m.m.M.M.C.C.C.C.G.G.J.J.J.J.J.J.E.E.Q.Q.Q.Q.Q.W.W.W.].].].].].[.[.[.[.{..X.X.X.X.X+XXXOX+X+X+X+X.X.X.X.X[.[.[.[.^.~.W.W.W.W.W.W.W.W.W.W.W.W.W.W.Q.`.Q.W.].].[.[..X.XXX%X%X=X2X4X4XeXrXrXrXrXrXyXyXeX4X4X5X2X1X=X=X-X=X=X*X*X=X=X-X=X=X=X2X2X5X5X5X5X8XeXyXsXdXhXhXvXbXCXZXDXDXFXGXLXLXLXGXGXGXFXFXFXDXZXCXMXbXvXkXjXjXjXjXjXfXxXgXgXdXgXfXfXjXjXjXkXkXvXvXvXvXvXvXvXvXvXvXkXkXjXjXjXjXjXjXjXjXjXjXjXjXjXjXjXjXjXjXjXkXkXkXjXkXkXkXkXjXjXjXjXkXkXkXkXkXkXkXkXvXvXvXvXvXvXbXvXlXpXkXmXmXvXvXvXvXkXlXlXlXlXkXkXzXkXkXpXpXlXxXxXjXjXjXjXkXkXkXkXkXjXjXjXkXkXkXkXkXkXkXkXkXvXvXvXvXvXvXvXmXmXmXmXmXmXmXmXmXmXmXmXmXmXmXvXkXkXkXjXjXjXjXjXfXgXgXsXsXtXeXeXeXyXeX4X4X2X3X-X-X-X&X&X&X%X&XOXOX+X+X+X+X+X.X.X.X.X.X.X.X{.{.{.{.{.{.{.{.{..X.X+X&X&X=X=X6X5X5X5X4X5X5X2X2X2X2X2X*X#XXXoX[.W.R.J.B.x.s.y.q.0.9.9.9.9.=.=.=.#.#.=.#.@.@.@.@.@.@.@.@.@.@.@.@.@.@.@.@.@.@.@.@.*.=.=.9.w.y.t.i.d.n.N.m.C.J.Y.R.T.T.T.T.T.R.J.C.M.n.j.d.d.i.t.w.9.-.-.-.=.*.@.@.@.@.@.@.@.@.O.@.@.*.@.@.@.@.@.@.*.*.=.=.=.=.=.=.6.6.=.6.w.w.0.q.p.p.a.a.a.a.a.a.a.a.d.a.a.a.a.a.a.a.a.p.p.p.p.p.p.p.p.p.a.a.a.a.a.a.d.d.d.x.x.x.x.n.x.n.n.x.v.v.c.u.#.X.] ) / { b./.V.5.#.:.$.| ^ ^ / ) ` ' X.' @.0.i.v.A.D.&Xb.#.;.*.%.%.&.o.{ { { ",
"m m n n m m m m M V V D G D D D P ( / ] X.+.-.:.h.$.Q dX6Xz.E C C G A ,XqX(.).3Xb.' 3Xz.$.u.c.^.oX/.b.:.:.+.[ ' E A A E F E ~ ~ ^ / / ` ` ] [ [ { o.o.o.o.o.o.o.o.o.O.O.O.O.O.O.*.@.*.#.#.9.9.5.t.t.t.s.s.d.x.x.x.x.d.x.d.s.s.y.t.0.0.9.6.6.6.6.7.0.0.t.p.p.p.p.p.p.p.p.i.i.i.i.s.s.s.s.i.i.i.i.i.i.i.i.i.i.p.a.f.g.x.V.V.D.C.Z.Z.Y.R.W.W.W.W.W.Q.Q.Q.R.R.R.K.G.C.C.C.A.m.m.c.x.x.x.x.x.x.x.x.x.x.c.c.m.v.m.m.m.m.m.m.m.m.m.m.m.M.M.M.M.M.M.M.M.M.M.M.M.M.M.m.m.M.M.M.C.C.C.G.C.J.J.J.J.J.J.R.E.E.Q.E.Q.Q.W._._.].].].[.[.[.[.{..X.X.X.X.X.X+XOXXXXXOX+X+X+X.X.X.X.X[.[.[.[.^.~.W.W.W.W.W.W.W.W.W.W.W.W.W.W.W.`.Q.W.].].[.[..X.XXX%X*X=X2X4X4XeXrXyXyXrXyXyXeX4X4X4X2X2X=X-X=X=X=X=X*X*X=X-X-X-X-X=X2X2X2X4X5X5X8X8XtXsXdXhXjXvXbXZXZXDXFXFXGXLXLXLXGXGXGXGXFXFXDXZXZXCXbXvXvXkXjXjXjXjXfXxXxXgXdXgXfXfXjXjXkXkXvXvXvXvXvXvXvXvXvXvXvXvXvXkXjXjXjXjXjXjXjXjXjXjXjXjXjXjXjXjXjXjXkXkXkXkXkXkXkXkXjXjXjXjXkXkXkXkXkXkXvXkXvXvXvXvXvXvXbXnXlXvXmXmXMXbXlXpXpXpXxXlXxXpXpXlXkXkXzXkXxXpXlXxXjXjXjXjXkXkXkXkXkXkXjXjXkXkXkXkXkXkXkXkXvXvXvXvXvXvXvXvXmXmXmXmXmXmXmXmXmXmXmXmXmXmXmXvXkXkXkXkXjXjXjXjXfXgXgXgXsXtXyXeXeXeX8X4X4X2X3X-X-X-X-X&X&X%X&X%XOXOX+X+X+X+X.X.X.X.X.X.X.X.X{.{.{.{.{.{.{..X.X.X+X&X&X=X1X3X5X5X4X4X5X5X2X2X2X2X-X%XXX.X[.].W.R.J.M.x.s.t.q.0.9.9.9.9.=.=.=.=.#.=.#.@.@.@.@.@.@.@.@.@.@.@.@.@.@.@.@.@.@.@.@.*.=.=.9.w.y.t.s.d.n.N.m.C.J.Y.R.T.T.T.T.W.R.J.C.M.n.n.d.d.i.y.w.9.-.-.-.=.@.@.@.@.@.@.@.@.@.O.O.@.@.@.@.@.@.@.@.*.*.=.=.=.=.=.=.6.6.=.6.w.w.7.q.e.p.p.i.a.a.a.a.a.a.a.a.a.a.a.a.a.a.a.p.p.p.p.p.p.p.p.p.a.a.a.a.a.a.d.d.d.d.n.x.x.x.x.x.n.x.n.n.c.x.c.:.&.{ ` ' ' /.}.Q.b.$.| ( ( _ ] o.%.*.X.' E X.#.u.A.^.&Xc.#.;.*.%.%.o.o.{ { { ",
"m m m n m m m m M V V D D F D L I ^ ) ] X.+.-.:.>.' b iXzX6X1.B l Z N ).iXiX(.8XoX[.tX).z.z.).+X}.S.f.f.u.s.v.D.R.Q./.z.1.<.$.' ~ ~ / ` ` ] [ [ { { X.X.o.o.o.o.o.o.o.o.O.+.O.%.@.@.@.#.#.9.9.9.9.t.t.i.s.s.d.d.x.x.d.d.g.s.s.i.i.t.0.0.9.9.9.9.7.0.0.i.p.p.p.p.p.p.p.p.i.i.i.i.a.a.s.p.i.i.i.i.p.i.i.i.i.i.p.a.a.g.g.x.V.M.D.C.Z.F.R.W.W.E.E.E.Q.Q.Q.R.R.E.E.J.C.C.C.S.D.m.m.c.c.x.x.x.x.x.x.x.m.m.m.m.m.m.m.m.m.m.m.m.M.M.M.M.M.M.m.m.M.M.B.M.M.M.M.M.M.M.M.m.M.M.M.M.C.C.S.S.H.H.J.J.J.J.E.E.E.Q.Q.Q.W.W.].].].].[.[.{..X.X.X.X+X+XOXOX+XOXOXOXOXOX+X+X+X.X.X.X{.[.[.].].].~.W.W.W.W.W.W.W.W.W.W.W.W.W.W.Q.Q.Q._.].].[.{..X.XOX&X-X=X2X4XwXeXyXyXyXyXeXeXeX4X4X2X2X2X-X-X&X&X&X&X%X*X-X-X-X-X-X-X2X2X3X5X5X5X8X8XtXsXdXhXkXvXbXZXDXDXFXFXGXLXLXLXGXGXGXGXFXFXDXDXZXCXbXvXvXkXjXjXjXjXjXjXxXgXfXfXfXfXjXjXkXkXvXvXvXvXvXvXvXvXvXvXvXvXvXkXkXjXjXjXjXjXjXjXjXjXjXjXjXjXjXjXjXjXkXkXkXkXkXkXkXkXkXkXkXkXkXjXkXkXkXkXvXvXvXvXvXvXvXvXvXlXnXMXbXmXvXpXpXlXlXlXpXpXpXlXpXpXpXhXkXkXlXpXlXhXjXjXjXjXjXjXkXkXkXkXkXkXkXkXkXkXkXkXkXkXvXvXvXvXvXvXvXvXvXvXmXmXmXmXmXmXMXMXMXmXmXmXmXvXkXkXkXkXjXjXjXfXfXfXgXsXtXtXyXeXyX7X8X4X5X2X3X-X-X-X-X&X%X%X%X%XOXOX+X+X+X+X+X.X.X.X.X.X.X.X.X.X.X.X.X.X.X.X+X+XXX&X=X3X3X5X5X5X5X4X4X4X2X2X2X3X-X%XXX.X[.~.W.J.J.B.x.s.t.q.0.9.9.9.9.9.=.=.=.#.=.=.=.=.@.@.@.@.@.@.@.@.@.@.@.@.@.@.*.*.*.*.*.*.=.6.0.0.t.i.d.n.N.m.C.J.Y.R.T.T.T.W.W.R.F.C.M.n.n.d.d.i.t.t.w.9.-.-.=.@.@.@.@.@.@.@.@.@.O.O.O.O.O.@.@.@.@.@.*.*.=.=.=.=.=.=.6.6.6.6.w.w.7.q.e.e.p.e.a.a.a.a.a.a.a.a.a.a.a.a.a.a.a.p.p.p.p.p.p.p.p.p.a.a.a.a.a.a.d.d.k.j.j.n.n.j.d.d.n.n.n.n.N.n.x.x.s.-.X.E ' W :.:.:.' E ~ ( X.O.=.w.h.:.[ E E ' $.<.(.=Xz.-.;.*.%.%.&.o.o.{ { ",
"m m m n m m m m m V V D F F D L I ^ ) ] X.O.-.:.$.E b 4.,X).| B Z Z H b 3.,X).<.oXz.1XdX6XoX3X-X:X`.G.A.f.f.x.c.Y.T.(.(.$X$X(.U.E ~ / / ` ] [ [ [ [ [ [ X.X.o.o.o.o.o.o.o.O.O.O.O.@.@.#.#.#.9.9.9.0.t.t.i.s.s.d.x.x.d.d.d.s.s.s.i.i.0.0.9.9.9.9.7.0.0.i.p.p.p.p.p.p.t.t.i.i.i.i.i.i.p.i.i.i.i.i.p.t.i.i.i.i.p.p.p.g.g.x.x.m.M.C.C.Z.R.R.Y.Y.E.E.R.E.R.R.R.E.E.J.J.Z.C.S.S.m.m.m.c.x.x.x.x.x.x.x.m.m.m.m.m.m.m.m.m.m.m.m.M.M.M.M.m.m.m.M.M.M.B.m.m.m.m.m.m.m.m.m.m.m.m.m.M.M.C.C.C.S.J.G.J.J.K.E.E.Q.Q.Q.W.W.].].].].[.{.{..X.X.X.XXXOXOXOXOXOXOXOXOXOX+X+X+X.X.X.X{.[.[.].[.].~.W.W.W.W.W.W.W.W.W.W.W.W.W.W.Q.Q.Q._.].].[.{..X.XOX&X-X=X2X4XeXeXyXyXeX7X4XwX4X4X2X2X2X=X*X%X%X%X%X%X%X%X%X%X*X*X-X-X-X2X3X5X5X5X8X8XtXsXdXjXkXvXBXZXDXDXFXFXGXLXLXLXJXGXGXGXFXFXDXDXZXCXbXvXvXkXkXjXjXjXjXjXxXgXfXfXfXfXjXjXkXkXkXvXvXvXvXvXvXvXvXvXvXvXvXkXkXjXjXjXjXjXjXjXjXjXjXjXjXjXjXjXjXjXkXkXkXkXkXkXkXkXkXkXkXkXkXkXkXkXkXkXvXvXvXvXvXvXvXvXlXnXvXmXmXnXlXnXpXpXlXlXnXvXkXlXpXpXpXpXpXkXkXpXpXlXjXjXjXjXjXjXkXkXkXkXkXjXkXkXkXkXkXkXkXvXvXvXvXvXvXvXvXvXvXvXmXmXmXMXMXMXbXbXbXmXvXmXmXvXkXkXkXjXjXjXfXfXfXgXgXsXtXtXeXyXyXeXeX4X5X2X3X-X-X-X-X%X%X%X%X%XOXOXOX+X+X+X+X.X.X.X.X.X.X.X.X.X.X.X.X.X.X.XXXXX#X=X3X3X3X4X5X5X4X4X4X4X2X2X2X2X*X%XXXoX[.W.E.J.H.B.x.i.t.w.0.9.9.9.9.6.=.=.=.#.=.=.=.=.@.@.@.@.@.@.@.@.@.@.@.@.@.@.*.*.*.*.*.@.=.9.0.0.t.i.d.n.N.m.C.J.Y.R.T.T.T.W.W.R.F.C.M.n.n.d.d.i.t.t.0.9.-.-.=.@.@.@.@.@.@.@.@.@.O.O.O.O.O.O.@.@.@.@.*.*.=.=.=.=.=.=.=.=.6.6.w.w.7.q.e.e.e.e.a.a.a.a.a.a.a.a.a.a.a.a.a.a.a.p.p.p.p.p.p.p.p.p.a.a.a.a.a.a.d.d.k.k.j.j.j.j.j.j.j.j.n.n.n.n.n.x.d.s.i.u.+.' E ' ' ' E ' $.+.6.r.g.g.v.+.' / / ' E <.$Xb.#.-.;.%.%.&.o.o.o.{ ",
"m m n n m m m m m M V S F F D L P ^ / ] X.O.-.:.$.A d d b b M B B Z N N N v N n n A W W | 1.(.6XuXuX3X-X&X$X^.!.!.).(.$X(.(./.z.$.E / / / ] ] [ [ [ [ [ [ [ o.o.o.o.o.o.o.o.O.O.O.@.@.@.#.#.-.9.9.0.t.y.y.s.s.s.d.d.d.g.g.d.d.f.i.i.t.0.9.w.w.9.9.0.0.t.p.p.t.0.p.p.p.p.t.t.p.p.p.p.p.p.i.t.t.t.i.p.p.p.p.p.t.t.p.s.g.g.x.x.m.m.m.C.Z.J.J.Y.Y.Y.Y.Y.R.R.R.R.R.R.R.G.G.Z.C.A.m.c.m.c.m.m.c.c.c.c.c.c.m.m.m.m.m.m.m.m.m.m.M.M.M.M.m.m.m.m.m.m.m.m.V.m.m.m.m.m.n.n.m.m.m.m.m.m.M.M.C.C.G.G.G.G.F.F.R.E.Q.Q._.W.].].].].{.{..X.X.XOXXXOXOX%X%X%X%X%XOXOXOXOX+XXX.X.X.X.X[.[.[.[.].].].W.W.W.W.W.T.T.E.E.E.E.W.W.W.W.`._.].].[..X.XXX&X&X-X=X2X4XeXyXyXeXeX4X4X2X2X2X2X2X2X=X*X%X%X%X&X%X%X%X%X&X%X%X*X*X-X2X2X5X5X5X8XeXtXsXdXjXkXbXBXZXDXDXFXGXGXLXLXLXJXJXGXGXGXFXDXDXZXCXBXbXvXvXkXjXjXjXjXjXjXxXfXfXfXjXjXjXkXkXvXvXvXvXvXvXvXbXmXmXmXvXvXkXkXkXkXjXjXjXjXjXjXjXjXjXjXjXjXjXjXjXkXkXjXjXkXkXkXkXkXkXjXjXkXkXkXkXkXkXkXkXvXvXvXvXvXvXpXvXMXMXnXlXlXSXpXnXvXvXmXmXmXvXkXpXpXpXpXkXvXlXpXxXjXjXjXjXjXjXkXkXkXkXkXkXkXkXkXkXkXkXvXvXvXvXmXmXvXvXMXMXmXmXMXMXMXMXMXMXbXbXbXMXvXmXmXvXkXkXkXjXjXfXfXfXfXfXdXdXsXtXeXeXyXyXeX4X4X2X2X-X-X-X-X%X%X%X&X%X%XOXOXOXOXOX+X+X+X.X.X.X.X.X.X.X.X.X+XXXOXOX%X%X%X=X6X3X5X5X5X8X4X4XwX4X2X2X2X-X%XOX.X[.].W.Y.G.S.M.x.i.t.w.w.9.9.6.9.=.=.=.=.#.=.=.=.=.*.@.*.*.@.@.@.@.@.@.@.@.@.@.*.*.=.=.#.#.=.9.0.0.r.i.f.j.n.n.C.G.J.Y.T.W.W.W.W.R.F.C.M.N.n.d.d.i.t.t.u.9.-.=.=.@.@.@.@.@.@.@.@.@.*.*.%.%.@.@.@.@.*.*.*.*.=.=.=.=.=.=.=.=.6.6.w.w.0.q.e.e.e.e.a.a.a.a.a.a.a.a.a.a.a.a.a.a.a.a.a.p.e.e.p.p.p.p.p.p.a.a.a.a.a.d.d.d.j.j.j.j.k.k.k.j.j.j.j.j.n.n.n.V.v.v.x.u.O.[ ' E ' E ' :.v.f.t.u.:.$.' ~ ~ / E E W W +.+.%.%.%.&.o.o.o.{ ",
"m m n n m m m m m M V S F F D L P ^ / ] X.O.-.:.$.M d d N N m m N B B B B B B B l B D G M E ,.<.<.).).! z.).(.6XsXfXfXtX8X6X(.U.W ( ( ] ] ` ] [ [ [ [ [ [ [ X.X.o.o.o.o.o.o.O.O.O.@.@.@.@.-.-.-.9.9.0.y.y.p.s.s.s.d.d.d.g.d.d.d.i.i.i.0.9.w.w.9.w.0.0.t.p.t.t.0.p.p.t.t.0.0.p.p.i.i.p.i.t.t.t.t.p.t.p.p.t.t.t.t.y.p.s.d.d.x.x.x.m.A.C.S.G.J.F.F.F.F.R.R.R.R.R.R.R.J.J.Z.C.A.m.c.m.m.m.c.c.c.m.m.m.m.m.m.m.m.m.m.m.m.M.M.B.B.M.M.M.M.m.m.m.m.m.m.m.m.m.m.N.n.n.n.n.n.m.N.m.m.M.M.C.C.S.G.G.G.F.F.Y.E.Q.Q._._.].].].[.{..X.X.XXXOXXXXX%X%X%X%X%X%X%XOXOXOXOXXX.X.X.X.X{.[.[.[.].].].W.W.W.W.W.T.T.E.E.E.E.E.E.W.W.`._.].].[..X.XXX%X=X=X=X2X4X7XyXyXeXeX4X2X2X3X3X2X2X=X*X%X%X%X%X#X#X%X%X%X%X%X%X%X*X=X2X2X5X5X5X8XeXtXsXdXhXkXvXBXZXDXDXFXGXLXLXLXLXJXJXGXGXGXGXFXDXAXCXCXbXbXvXkXkXjXjXjXjXjXxXfXfXfXjXjXjXkXkXvXkXvXvXmXmXbXbXmXmXmXvXvXkXkXkXkXjXjXjXjXjXjXjXjXjXjXjXjXjXjXjXkXkXkXjXkXkXkXkXkXkXjXjXkXkXkXkXkXkXkXkXvXvXvXvXvXlXlXbXMXMXnXSXlXpXMXMXbXbXvXnXvXmXmXvXlXpXpXlXkXkXpXpXhXjXjXjXjXjXkXkXkXkXkXkXkXkXkXkXkXkXvXvXvXvXmXmXvXvXMXMXmXmXMXmXMXMXMXMXbXbXbXbXbXvXmXkXkXkXjXjXjXfXfXfXfXfXdXdXsXtXeXeXyXyXeX4X4X2X2X-X-X-X-X%X%X%X&X%X%XOXOXOXOXOX+X+X+X.X+X.X.X.X.X.X.X.XOXOX%X%X%X%X*X=X3X5X5X5X8X8X4X4XwX4X2X2X2X-X%X+X.X[._.Q.F.G.S.m.d.i.0.0.w.9.6.6.9.=.=.=.=.#.=.=.=.=.@.@.*.*.@.@.@.@.@.@.@.@.@.@.*.*.=.=.#.#.=.9.0.t.r.i.i.d.n.n.M.C.F.Y.T.T.W.W.E.R.J.C.M.N.n.d.d.i.t.t.t.9.-.=.=.@.@.@.@.@.@.@.@.@.*.*.%.%.@.@.@.@.*.*.*.*.=.=.=.=.=.=.=.=.6.6.w.w.0.q.e.e.e.e.p.a.a.a.a.a.a.a.a.a.a.a.a.a.a.a.a.a.e.e.p.e.p.p.a.p.a.a.a.a.a.a.d.d.d.k.j.j.k.k.k.j.d.d.d.d.d.d.n.x.x.x.v.v.h.-.O.X.' E ' O.D.K.v.u.:.+.` / ~ ` ' E W E ' [ { { &.&.o.{ [ [ ",
"m m n n m l m m m M V S F F L L ~ ^ ` [ X.O.-.:.$.A f f v N n n l N m B m m m m m m M M M S S S W | | W A A A A E E <.U.(.0XdXiXU.W ( / / ` ] [ [ [ [ [ [ [ X.X.o.o.o.o.o.o.O.O.O.O.@.@.@.*.-.-.9.9.w.w.y.y.p.g.s.s.s.s.d.d.d.d.f.i.i.0.0.w.w.w.w.0.0.t.p.p.0.0.p.p.t.t.0.0.p.p.p.p.p.p.p.t.t.t.p.p.t.t.t.y.t.t.y.y.i.f.s.s.x.x.x.m.S.S.C.Z.J.J.J.F.R.R.E.R.R.R.R.R.J.J.S.S.A.m.m.m.m.m.m.m.m.m.M.m.m.m.m.m.m.m.M.M.M.M.M.M.M.M.M.M.m.m.m.m.m.m.m.m.m.m.N.N.n.n.n.n.N.N.N.m.M.M.M.C.S.G.J.G.G.F.F.E.Q._._.].].].].[.{..X.X.XXXOXOX%X%X%X%X%X%X%X%XOXOXOXOXXXXX.X.X.X.X{.[.[.].].].]._._.W.W.W.W.W.W.W.W.W.W.W.W.`._.].].[..X.XXX%X-X=X2X2X5XeXeXeXeXeX4XwX3X3X3X-X*X*X*X%X%X%X%XOXOX%X%X%X%X%X%X%X*X=X2X2X5X5X5X8XeXtXsXdXhXkXvXbXCXDXDXFXGXLXLXJXJXJXJXGXGXGXGXFXDXZXZXBXbXbXvXvXkXjXjXjXjXjXjXjXjXjXjXjXjXkXkXkXkXvXmXmXMXbXbXMXMXmXmXvXvXvXkXkXkXkXkXjXjXjXjXjXjXjXjXjXjXjXjXkXkXjXjXkXkXkXkXkXjXjXjXkXkXkXkXkXkXvXvXvXvXvXmXvXpXnXMXMXMXpXlXpXnXvXMXnXnXlXlXlXnXvXNXmXpXpXpXlXvXxXpXhXjXkXkXjXjXkXkXkXkXkXkXkXkXkXkXkXkXvXvXvXvXmXmXmXmXMXMXmXmXmXmXMXMXMXMXbXbXbXbXbXmXmXkXkXkXjXjXfXfXfXfXfXfXdXdXsXtXeXeXyXyXeX4X4X2X2X-X-X-X-X-X-X-X&X%X&X%X%X%XOXOXOX+X+X+X+X+X+X+X+X+X+XOXOX%X%X%X*X*X=X3X6X5X5X8X8X8X8X8X4X4X2X2X-X-X%X.X{.].W.E.F.J.S.m.d.i.t.0.w.9.6.6.6.6.=.=.=.=.=.=.=.=.=.=.*.*.*.*.@.@.@.@.*.*.*.*.*.*.=.=.=.=.=.9.9.0.5.r.i.f.f.n.N.A.G.Y.Y.T.W.W.E.R.J.C.N.n.n.j.f.i.i.t.0.w.-.=.=.@.@.@.@.@.@.@.@.@.*.*.*.*.@.@.@.@.*.*.*.*.=.*.=.=.=.=.#.#.6.6.w.0.0.q.e.e.e.e.a.a.a.a.a.a.d.d.d.a.a.a.a.a.a.a.a.a.e.e.e.e.a.a.a.a.a.a.a.a.a.a.a.d.d.d.k.k.d.d.j.j.d.d.d.d.d.d.d.g.g.g.g.g.s.s.y.-.O.' ' ' #.b.b.b.} } _ ^ ) [ $.+.$.' ' ` / ] } } } ] ] ] ",
"m n n n k l m m m V V C G F L L ~ ^ ` [ X.O.-.:.$.A f f f f k k z l l N m m m m m m n m m M M M M V G V V V V V F S A A b W W A A E ( / / ` ] ] [ [ [ [ [ [ [ X.[ [ X.o.o.o.o.X.O.O.@.@.@.*.-.-.-.-.9.w.y.y.p.s.s.s.s.s.s.s.s.d.d.i.i.t.0.w.w.9.7.0.0.p.p.p.0.0.0.0.t.t.t.0.p.t.p.p.t.t.t.q.t.t.0.0.0.0.0.q.q.q.y.y.y.i.f.s.s.d.x.m.M.B.S.C.J.G.G.G.R.Y.R.R.R.Y.R.R.J.J.Z.S.S.A.A.m.m.M.M.M.V.m.M.M.M.D.D.A.C.m.M.M.M.M.M.M.M.M.M.M.m.m.m.m.m.m.m.m.m.m.N.N.n.n.n.n.N.N.N.N.B.M.M.M.C.C.G.G.G.G.J.E.Q.`._.].].].].[.{..X.XXXXXOXOX%X%X%X%X%X%X%X%XOXOXOXOXXX.X.X.X.X.X.X{.[.].].].].]._.W.W.W.W.W.W.W.W.W.W.W.W.`._.].].[..X.XXX%X-X=X2X2X4X7XeXeXwX5X4XwX3X-X-X=X*X*X%X%X%X%X%XOXOX%X%X%X%X&X%X%X%X-X=X2X2X5X5X5X8X9XsXdXhXkXvXbXZXDXDXFXGXGXLXJXJXJXJXGXGXGXGXFXDXZXZXBXbXbXbXvXkXkXkXjXjXjXjXjXjXjXjXjXjXkXkXvXkXmXmXMXMXbXbXMXMXMXbXvXvXvXvXkXkXkXkXkXjXjXjXjXkXkXjXjXjXjXjXkXkXjXjXkXkXkXkXkXkXjXjXkXkXkXkXkXkXvXvXvXvXvXmXnXpXbXMXMXMXpXlXSXbXmXnXpXlXlXnXnXlXpXmXMXvXpXpXlXvXlXpXhXkXkXkXjXjXkXkXkXkXkXkXkXkXkXkXkXkXvXvXvXvXmXvXmXMXMXbXMXMXMXMXMXMXMXCXbXbXbXMXvXmXmXzXkXkXjXjXfXfXfXfXfXdXdXdXsXtXeXeXyXyXeX4X4X2X2X2X-X-X-X-X-X-X-X%X&X%X%X%X%XOXOX+XOXOXOX+XXXXX+XOXOXOX%X%X%X*X*X*X1X3X5X5X8X8X8X8X8X8X4X4X2X2X-X-X%X.X{.].W.E.J.H.S.m.d.i.t.0.w.9.6.6.6.6.=.=.=.=.=.=.=.=.=.=.*.*.*.*.@.@.@.@.@.@.*.*.*.*.=.=.=.=.=.9.9.0.0.r.i.i.f.n.N.A.Z.Y.Y.T.Y.R.R.R.J.C.N.n.n.f.d.i.i.0.0.w.-.=.=.@.*.@.@.@.@.@.@.@.*.*.*.*.@.@.@.@.*.*.*.*.=.=.=.=.=.=.#.#.6.6.0.0.0.q.e.e.e.e.p.a.a.a.a.a.d.d.a.a.a.a.a.a.a.a.a.a.e.e.e.e.a.a.a.a.a.a.a.a.a.a.a.a.d.d.d.k.d.d.j.d.d.d.d.d.d.d.d.d.g.s.s.s.s.s.s.y.9.#.+.' X.X.[ +.] _ _ _ ) +.:.-.#.+.X.` / / / ] ] ` ] ] ",
"n n n n n k n n m M V S D D P L I ^ / ] X.O.-.:.$.S v f f f f f k k k f n n n n n n n n n n n n m m m m m m M M M V S A A A G G F ~ ( / / / ] ] ] ] [ [ [ [ [ [ [ [ o.o.X.o.o.o.o.O.O.@.@.#.-.-.-.-.9.9.0.y.t.p.s.s.s.s.s.s.f.s.d.i.i.t.0.0.0.0.7.0.0.i.p.p.p.t.0.0.0.t.p.p.p.p.t.t.t.q.q.q.q.q.q.q.q.0.0.q.q.q.y.t.y.i.i.s.f.d.x.x.m.V.S.S.S.C.F.F.R.R.R.R.R.R.R.R.Y.J.J.Z.S.C.C.C.M.m.m.m.M.m.D.D.D.D.S.S.C.C.M.M.M.M.M.M.M.M.B.m.V.m.m.m.m.m.n.n.n.n.n.n.n.n.n.n.n.n.N.N.M.M.B.M.M.C.C.C.C.C.F.R.Q.`._._.].].[.[..X.X.XXXOXOX%X%X%X%X%X%X%X%X%X&X%X%XOXXXXXXX.X.X.X.X[.[.[.[.].].].].W.W.W.W.W.W.W.W.W.W.`._._.].].[.{..X.XOX%X-X-X3X5X4X7X7XeXwXwXwXwX3X-X-X*X*X%X%X%X%X&X&X%X%XOXOXOXOX%X%X%X%X*X=X2X6X5X5X5X8X0XtXdXhXkXvXBXZXDXDXFXGXGXLXJXJXLXLXLXLXGXGXGXFXDXZXCXBXBXbXvXvXkXkXjXjXjXjXjXjXjXjXjXjXkXkXvXvXvXvXmXvXmXMXMXMXCXMXmXvXmXvXkXkXkXkXkXkXkXkXjXjXjXjXjXjXjXjXkXkXkXkXkXkXkXkXkXkXkXkXkXkXkXkXkXkXvXkXvXvXvXmXvXpXmXMXMXMXpXlXlXMXMXlXpXnXlXnXlXlXpXnXmXmXlXpXlXvXvXxXlXkXkXkXkXkXkXkXkXkXkXkXkXkXkXkXkXvXvXvXvXvXvXmXMXMXMXMXMXMXMXMXMXCXCXCXBXCXbXMXmXmXmXzXkXkXjXjXfXfXfXfXfXdXdXdXsXtXtXeXyXyXeXwXwXwXwX2X-X-X-X-X-X-X-X%X&X%X%X%X%X&X%X%XOXOXOXOXOXOXOXOXOXOX%X%X*X*X=X=X1X2X5X5X8X8X0X0XyXeX5X4X3X3X-X-XOX.X{.].Q.E.J.H.S.M.f.i.t.0.9.6.6.6.6.6.6.=.=.=.=.=.=.=.=.=.*.*.*.*.@.@.*.*.*.*.*.*.=.=.=.=.=.=.=.9.w.7.0.r.i.i.f.n.N.C.C.Y.Y.Y.R.Y.R.J.J.C.M.n.n.f.d.i.i.t.q.w.=.=.=.#.*.*.*.*.*.*.*.*.*.*.*.*.@.@.*.*.*.*.=.=.=.=.=.=.=.=.6.6.6.6.7.7.q.q.e.e.e.e.p.p.a.a.a.a.a.a.a.a.d.d.a.a.a.i.i.a.i.i.i.i.a.a.a.a.a.a.a.a.a.a.a.a.a.a.d.d.d.d.d.d.d.d.d.d.g.d.g.s.s.p.p.p.p.p.p.p.p.t.9.@.#.$.' ` / ^ ^ I ) >.u.u.-.O.+.] / ^ ~ / / / ) ) ",
"n n n n k k n n m M V V D D P L I ^ / ] X.O.-.:.$.S f f g g f f f f f f f f v v v v v k n k k k l l m m m m M M M M V V V C D D P ~ ( / / / ` ] ] ] [ [ [ [ [ [ [ [ [ o.[ X.X.X.o.O.O.@.@.@.-.-.-.=.-.9.9.0.0.t.s.s.p.a.i.p.s.f.f.i.i.t.7.0.0.0.7.0.0.t.p.p.p.t.0.0.t.t.p.p.p.t.t.q.q.0.q.q.q.q.0.0.0.0.w.w.0.0.t.y.y.y.i.i.f.f.s.x.V.V.B.S.S.C.Z.Z.J.J.R.R.R.R.R.R.Y.J.J.Z.J.C.S.C.C.M.M.m.B.B.A.C.C.C.S.C.C.C.M.M.M.M.M.M.M.M.m.m.m.m.m.m.m.m.n.n.n.n.n.n.n.n.n.n.n.n.N.N.m.m.M.M.M.M.C.C.C.C.G.J.E.Q.Q.W.].].[.[..X.X.XXXOXOX%X%X%X%X%X%X%X%X&X%X%X%XOXXXXX.X.X X.X.X.X[.[.[.].].].].].W._.W.W.W.W.W.W.W.W._._.].].[.{..X.XOX%X-X=X3X5X4X7X7X4X4X5XwXwX3X-X*X*X%X%X%X%X%XXXXX%X%XOXOXOXOX%X%X%X%X*X*X1X6X6X6X5X8X0X9XaXhXhXvXbXCXDXDXFXGXGXLXJXJXLXLXJXJXGXGXGXFXDXZXZXBXBXbXbXvXvXkXjXjXjXjXjXjXjXjXjXjXkXkXvXvXmXmXmXbXbXMXCXCXCXbXMXbXvXvXvXkXkXkXkXkXkXkXjXjXjXjXjXjXjXjXkXkXjXjXkXkXkXkXkXkXkXkXkXkXkXkXkXkXkXkXvXvXvXmXvXpXvXMXMXbXpXlXlXMXMXnXlXnXpXpXpXlXnXpXlXbXlXpXpXvXvXxXlXkXkXkXkXkXkXkXkXkXkXkXkXkXkXkXvXvXvXvXvXbXmXMXMXMXMXMXMXMXMXMXCXCXCXCXBXCXbXMXmXmXmXkXkXkXjXjXfXfXsXsXfXdXdXdXsXtXyXeXyXyXeXwXwXwX2X2X-X-X-X-X-X-X-X%X&X%X%X%X%X%X%X&XOXOXOXOXOXOX%X%X%X%X%X%X=X=X=X1X2X5X5XeX8X8X0X0XyXeX5X5X3X3X-X%XOX.X{.].Q.E.J.H.S.M.f.i.t.0.9.9.6.6.6.6.6.=.=.=.=.=.=.=.=.=.*.*.*.*.@.@.*.*.*.*.*.*.=.=.=.=.=.=.=.9.w.7.0.r.i.i.f.n.m.C.C.Y.Y.Y.Y.Y.J.J.J.S.M.n.n.j.d.i.i.t.0.0.=.=.=.#.*.*.*.*.*.*.*.*.*.*.*.*.@.@.*.*.*.*.=.=.=.=.=.=.=.=.6.6.6.6.7.7.q.q.e.e.e.e.a.a.a.a.a.a.a.a.a.a.d.d.a.a.a.a.i.i.a.i.i.i.a.a.a.p.a.a.a.a.i.i.a.a.a.a.a.a.d.d.d.d.d.d.d.d.d.d.d.s.a.p.a.a.a.p.p.p.p.p.p.t.u.#.+.' ~ / / / } >.v.v.h.-.{ / ^ ~ ^ / / ) ) ) ",
"n n n n k k k k m m V V D D P L I ^ / ] X.+.-.;.' S n f g g f f d f d d f f f f v v v v k k k k l n n n n n m m M M V V C C C D P ~ ( / / / ` ] ] ] ] ] [ [ [ [ [ [ [ [ [ [ X.X.X.o.O.O.@.*.*.=.=.-.-.-.9.9.0.q.y.y.p.p.p.p.s.s.f.i.i.t.7.w.0.0.9.0.0.0.i.i.i.p.p.i.t.t.p.p.p.t.t.q.q.0.0.0.0.0.w.w.w.w.0.0.0.0.0.0.t.y.t.t.i.f.s.x.V.m.M.B.S.C.Z.Z.J.J.R.R.R.R.R.R.R.R.J.J.J.J.S.C.C.S.C.C.C.C.C.C.S.S.C.C.C.C.M.M.M.M.M.M.M.M.m.m.m.m.m.m.m.m.m.n.n.n.n.n.n.n.n.n.n.n.n.n.N.N.m.B.M.M.C.C.C.C.G.J.E.Q.Q.W.~.].[.[..X.X.XXXOXOX%X%X%X&X%X%X%X%X&X%X%X%X%XXXXXXX X X X.X.X.X{.[.].].].].].].].W._._._._.`.`._._._.].].[.[..X.XXX%X-X=X3X5X4X7X7X4X4X5XwX3X3X-X*X%X%X%X%X#X#XXXXXXXXXXXXXOXOX%X%X%X%X*X*X=X6X6X6X5X5X8X9XaXhXhXvXbXCXZXDXFXGXGXLXJXJXJXLXJXJXGXLXGXFXDXZXZXCXBXbXbXvXvXkXjXjXjXjXjXjXjXjXkXkXkXkXvXvXvXvXMXbXMXMXCXCXCXCXMXmXmXvXvXvXvXkXkXkXkXkXjXjXkXkXjXjXjXjXjXjXjXjXkXkXkXkXkXkXkXkXkXkXkXkXkXkXkXkXkXkXvXvXvXpXnXMXMXbXpXlXlXMXMXnXlXnXlXvXvXpXlXlXvXmXlXpXpXvXvXpXxXkXkXkXkXkXkXkXkXkXkXkXkXkXkXvXvXvXvXvXbXbXmXMXMXMXMXMXMXMXMXMXCXCXCXBXBXCXbXmXmXmXmXkXkXkXjXjXfXfXsXsXfXsXdXdXsXtXyXeXyXyXeXeXwXwXwXwX3X-X-X-X-X-X-X-X-X-X-X-X&X&X&X&X%X%X%X%X&X&X%X%X&X&X&X-X=X=X2X2X2X5XwXeXeXeXeXeXeXeX5X5X3X2X-X%XOX.X{.].`.E.J.H.H.B.n.f.t.0.w.9.6.6.6.6.6.6.6.6.=.=.=.=.=.=.=.=.=.=.*.*.=.=.=.=.*.*.=.=.=.=.=.=.=.9.0.0.0.i.i.f.f.n.m.C.C.Z.Y.Y.Y.Y.J.J.J.C.M.N.n.n.d.i.i.i.0.0.6.=.=.=.=.=.=.=.*.*.*.*.*.*.*.*.*.*.*.*.*.*.=.=.=.=.=.=.6.6.6.6.6.6.0.0.q.q.e.e.p.p.a.a.a.a.a.a.a.a.a.a.d.d.a.a.a.a.a.a.a.a.a.a.a.e.e.e.a.a.a.a.i.i.a.a.a.a.a.a.d.d.d.d.d.d.d.d.d.d.d.a.a.p.p.p.p.p.p.p.e.e.e.p.t.t.u.#.X.' ' ' ` +.h.g.h.*.[ / ~ ^ ^ / / ] ] ] ",
"n n n n k k k k m m V V D D L L I ^ / ] X.+.*.;.' S n f g g d d d d d d d d v v v f v f k k z z l n n n n n m M M M M V C C C D P ~ ^ / / / / ` ] ] ] ] [ [ [ [ [ [ [ [ [ [ X.X.X.X.O.O.@.@.@.-.=.=.=.=.-.9.9.q.y.y.p.p.p.p.s.s.s.i.i.t.7.w.w.w.9.0.0.0.i.i.i.p.p.t.t.t.p.p.p.t.t.q.q.0.0.0.0.0.w.w.w.w.0.0.0.0.0.0.0.t.t.t.i.i.s.d.x.V.m.M.S.S.S.Z.J.J.R.Q.R.R.R.R.R.Y.J.J.J.J.G.S.S.C.C.C.C.C.C.C.S.S.C.C.C.C.M.M.M.M.M.M.M.M.m.m.m.n.n.n.m.m.m.n.n.x.n.n.n.n.n.n.n.n.n.n.N.m.M.B.M.M.C.C.S.C.G.J.E.Q.Q.W._.].].{..X.X.XXXOXOX%X%X%X&X%X%X%X%X&X&X%X%X&XXX X X X XXX.X.X{.[.[.].].].].].].].].W._._._._.`._._._.].].[.{..X.XXX%X-X=X3X5X4X5X7X4X5X5X5X3X-X-X%X%X%X%X#X#X#XXXXXXXXXXXXXOX&X%X%X%X%X*X*X=X1X3X6X5X5X8X9XiXhXhXvXbXCXZXDXFXGXGXLXJXJXJXLXJXJXLXLXGXFXDXZXZXCXBXbXbXvXvXkXjXjXjXjXjXjXjXkXjXkXkXkXkXvXvXvXMXbXbXCXCXCXCXCXbXMXMXvXvXvXvXvXkXkXkXkXjXjXjXkXjXjXjXjXjXjXjXjXkXkXkXkXjXjXkXkXkXkXkXkXkXkXkXkXvXvXvXvXvXpXlXMXMXbXpXlXlXMXMXnXlXpXpXnXvXlXpXpXvXmXlXpXpXvXkXpXxXkXkXkXkXkXkXkXkXkXkXkXkXkXkXvXvXvXvXvXbXbXmXMXMXMXMXMXMXMXMXMXCXCXCXCXBXCXbXmXvXmXmXkXkXkXjXjXfXfXsXsXfXsXdXdXsXtXyXeXyXyXyXeXwXwXwXwX3X-X-X-X-X-X-X-X-X-X-X-X&X&X&X&X%X%X%X%X&X&X%X%X&X&X-X-X-X2X2X2X2X5XeXeXeXeXeXeXeXeX5X4X2X-X*X%XOX.X{.].`.E.J.H.H.B.n.f.i.0.w.9.6.6.6.6.6.6.6.6.=.=.=.=.=.=.=.=.=.=.*.*.=.=.=.=.=.=.=.=.=.=.=.=.=.9.0.0.0.i.i.a.f.n.m.C.C.F.Y.Y.Y.Y.F.J.J.C.M.N.n.n.f.i.i.t.0.0.9.=.=.=.=.=.=.=.*.*.*.*.*.*.*.*.*.*.*.*.*.*.=.=.=.=.=.=.6.6.6.6.6.6.0.0.q.q.e.e.p.p.a.a.a.a.a.d.a.a.a.a.d.d.a.a.a.a.a.a.a.a.a.a.a.p.e.e.a.a.a.a.i.i.a.a.a.a.a.a.d.d.d.d.d.d.d.a.d.d.d.a.p.p.p.p.p.p.e.e.e.e.e.r.0.t.i.i.u.#.+.X.' ' X.O.O.X.` / ~ ^ / / ] ] ] ] ",
"k k k k k k k k n m V V S D P L ~ ^ / ] [ +.*.+.' S n f d d d d d d d d d d d d v v v f f k k k z k n n n n m m M M M M V C S F I ^ ~ / / / / ` ] ] ] ] [ [ [ [ [ [ [ [ [ [ X.X.X.X.O.O.O.@.@.@.*.=.-.-.-.9.9.0.t.t.t.i.i.p.s.s.s.a.i.t.0.0.w.w.9.7.q.0.0.0.q.q.p.p.t.t.t.t.t.q.q.0.0.0.0.0.w.w.0.0.9.9.9.9.9.9.0.0.0.0.t.t.i.i.f.s.x.x.n.m.M.S.S.Z.Z.Z.R.R.E.E.R.R.R.R.R.J.J.J.F.G.G.C.C.C.C.C.C.C.C.C.C.C.C.C.C.M.M.M.M.M.m.m.m.m.m.m.m.m.m.m.m.x.n.n.n.x.n.x.n.n.n.n.n.n.N.N.m.N.M.M.C.C.C.C.S.J.E.Q.Q.W._.].].[..X.X.X+XOX%X%X%X&X&X&X&X&X&X%X%X%X#XXX X X X X XXX.X.X.X{.[.}.].].].].].].]._._._.].W.W._._._.].].].{. X XOX%X*X=X2X3X5X5X5X5X5X5X3X3X-X-X%X%X%X%X#XXXXXXXXXXXXXXXXX%X%X%X%X%X%X%X*X1X2X3X3X5X5X8X0XaXhXhXvXbXCXZXDXHXGXGXJXJXJXJXJXLXLXLXLXGXFXDXDXZXCXBXBXbXvXvXkXkXjXjXjXjXjXjXjXkXkXkXkXkXmXmXmXMXMXMXCXCXCXCXCXMXbXMXvXvXvXvXvXvXkXkXkXkXkXkXkXkXkXkXkXkXkXkXkXkXkXkXkXkXkXkXkXkXkXkXkXkXkXkXkXkXkXvXmXvXpXlXbXMXbXlXlXlXnXMXnXlXpXpXnXvXlXpXlXnXmXlXpXpXmXlXpXxXlXkXkXkXkXkXkXkXkXkXkXvXvXvXvXvXvXvXbXMXmXMXMXMXMXCXCXCXCXCXCXCXCXCXCXCXCXMXmXvXmXvXkXkXkXjXjXfXsXsXsXsXsXsXsXsXtXtXyXyXyXeXeXwXwX2X2XwX3X3X-X-X-X-X-X-X-X-X&X&X&X&X&X&X&X&X&X%X%X&X&X%X%X-X-X2X2X4X4X5X8XeXeXeXeXyXyXeXeX4X2X2X-X*X%XOX.X{.].Q.E.J.H.H.M.n.f.i.0.w.6.6.6.6.6.6.6.6.6.=.=.=.=.=.=.=.=.=.=.=.=.=.=.=.=.=.=.=.=.=.=.=.=.=.9.0.t.i.i.i.a.d.n.m.m.C.G.F.Y.Y.Y.F.G.J.C.M.N.n.n.d.f.i.t.0.w.6.=.=.=.=.=.=.*.*.*.*.*.*.*.*.*.*.@.*.*.=.=.=.=.=.=.=.=.6.6.6.6.6.6.7.0.8.q.r.e.e.e.a.a.a.a.a.a.d.d.d.d.d.d.d.d.d.d.a.a.a.a.a.a.i.i.i.a.a.a.i.i.a.a.i.i.a.a.a.a.a.a.a.a.d.d.d.d.d.a.a.p.p.p.p.p.e.e.e.e.e.e.e.r.r.r.i.i.y.t.9.-.O.X.' ' ' ` / ^ ~ / / ` ] ] ] ] ",
"k k k k k k k k n m V V S D P L ~ ^ / ] X.+.*.&.' S n f d d d d d d d d d d d d d f f f f f k k k k n n n n N m N M M M V C D F ^ ^ ^ / / / / / ` ] ] ] ] ] [ [ [ [ [ [ [ [ [ [ X.o.o.O.O.O.@.@.@.*.#.-.-.-.9.0.0.t.t.t.i.i.p.p.p.i.p.0.0.0.w.w.9.7.q.0.0.0.q.q.p.p.t.t.t.t.t.q.q.0.0.0.0.0.w.w.0.0.9.9.9.9.w.w.0.0.0.0.t.t.t.t.s.f.s.d.x.x.m.m.A.S.Z.Z.J.Q.Q.E.R.R.R.R.E.R.K.F.F.F.F.G.G.C.C.C.C.C.C.C.C.C.C.C.C.M.M.M.M.M.m.m.m.m.m.m.m.m.m.m.n.x.n.x.n.x.x.x.n.n.n.n.n.n.N.N.m.m.M.M.M.C.S.S.S.J.E.Q.Q.W._.].].[..X.X.XOXXX%X%X%X&X&X&X&X&X&X%X%X%X X!. X-X=XXX'.'..X.X.X.X[.}.[.[.].].].].]._._._._.W.W._._._.].].].{. X XXX%X*X=X3X3X5X5X5X5X5X5X5X3X=X%X%X%X%X%X#XXXXXXXXXXXXXXXXX%X%X%X%X%X%X%X*X=X2X3X3X3X5X8X0XiXdXlXvXbXCXZXDXHXGXGXJXJXJXJXJXLXLXLXLXGXFXDXDXZXZXBXBXbXvXvXkXkXhXjXjXjXjXjXjXkXkXkXkXkXmXmXvXbXMXbXCXCXCXCXCXCXbXbXbXbXvXvXvXkXkXkXkXkXkXkXkXkXkXkXkXkXkXkXkXkXkXkXkXkXkXkXkXkXkXkXkXkXkXkXkXkXkXvXmXvXlXlXvXMXMXnXSXlXlXnXnXnXSXnXnXnXpXpXlXnXvXlXpXpXmXlXpXlXkXkXkXkXkXkXkXkXkXkXkXvXkXvXvXvXvXvXbXMXmXMXMXMXMXCXCXCXCXCXCXCXCXCXCXCXCXMXmXvXvXvXkXkXkXjXjXfXsXsXsXsXsXsXsXsXtXyXyXyXyXeXeXwXwX4X2X3X3X3X-X3X-X-X-X-X-X-X-X&X&X&X&X&X&X&X&X%X%X&X&X-X%X-X-X2X2X5X5X5XeXeXeXeXeXyXyXeXeX4X2X2X=X*X%XOX.X{.].Q.E.J.H.H.M.n.f.i.0.7.6.6.6.6.6.6.6.6.6.=.=.=.=.=.=.=.=.=.=.=.=.=.=.=.=.=.=.=.=.=.=.=.=.=.9.0.t.i.i.i.a.d.n.N.m.C.Z.F.Y.Y.Y.F.Z.Z.C.M.N.n.n.d.f.i.t.0.w.6.=.=.#.=.=.=.=.*.*.*.*.*.*.*.*.@.@.=.=.=.=.=.=.=.=.=.=.6.6.6.6.6.6.7.7.8.q.r.e.e.e.a.a.a.a.a.a.d.d.d.d.d.d.d.d.d.d.a.a.a.a.a.a.i.i.i.a.a.a.i.i.a.a.i.i.a.a.a.i.a.a.a.a.a.a.a.a.a.a.a.p.p.p.p.p.e.e.e.e.e.e.e.r.r.q.q.q.0.0.0.y.u.-.*.X.` ` / / / / / ` ] ] ] ] ",
"k k k k k k k k n m M V S D P L ~ ^ / [ X.+.*.+.' S n f d d d d d d d d d d d d f f f f f f v n n n n n n n n n N M M M M V D L ~ ^ ^ / / / / / ` ] ] ] ] ] [ [ [ [ [ [ [ [ [ [ X.o.X.O.O.O.@.@.@.@.#.#.-.-.-.9.w.q.q.y.y.y.p.p.p.i.t.0.0.0.0.w.9.7.0.q.0.0.q.q.p.p.p.p.t.q.t.q.q.0.0.0.0.w.w.w.9.9.9.9.9.9.9.9.0.0.0.0.0.t.t.t.i.s.f.s.d.x.x.x.m.D.S.Z.Z.R.Q.E.R.R.R.R.E.E.E.K.F.F.F.G.F.G.F.Z.Z.Z.Z.C.C.C.C.C.C.C.M.M.M.M.m.m.m.m.m.n.m.n.n.n.x.x.x.x.x.x.x.x.n.n.n.n.n.n.n.n.N.N.M.M.M.M.B.B.S.J.K.Q.Q.W.W.~.].[..X.X+XOXXX%X%X%X&X&X&X&X&X%X%X%XXX X#X&X%X%X%XXX X.X.XoXoX[.}.[.[.[.].[.].].].].].].].].].].].].].{.{. XXXOX%X-X=X3X3X5X5X5X5X5X5X5X3X-X%X%X%X%X%XXXXXXXXXXXXXXXXXXX#X%X%X%X%X%X%X*X=X2X3X3X3X5X8X0XiXdXlXvXbXCXZXDXHXGXGXJXJXJXJXJXLXLXLXLXGXFXDXDXZXZXBXBXbXvXvXkXkXkXjXjXjXjXjXjXkXkXkXkXkXvXvXvXbXbXbXCXCXCXCXCXCXCXCXbXbXvXvXvXvXkXkXkXkXkXkXkXkXkXkXkXkXkXkXkXkXkXkXkXkXkXkXkXkXkXkXkXkXkXkXkXkXkXvXmXvXlXpXnXMXCXCXnXlXpXpXnXnXnXnXlXlXpXpXnXvXnXpXpXpXvXpXpXlXkXkXkXkXkXkXkXkXkXkXkXkXkXvXvXmXmXmXmXmXmXMXMXMXMXCXCXCXCXCXCXCXCXCXCXCXCXMXmXvXmXvXkXkXkXjXjXfXsXsXsXsXsXsXsXsXtXtXyXrXrXeXeXeXwXwXwXwXwX3X3X3X-X-X-X-X-X-X-X-X-X&X&X&X&X&X&X&X&X-X-X-X-X-X3X2X4X4X4X5XeXeXeXtXtXtXtXeXeX4X2X2X=X*X%XOX.X].].Q.E.J.H.H.B.n.d.i.t.0.6.w.6.6.6.6.6.6.6.6.=.=.=.=.=.=.=.=.=.=.=.=.=.=.=.=.=.=.=.=.=.=.=.6.w.0.t.i.i.i.a.d.n.N.m.A.Z.Z.F.Y.F.F.Z.Z.C.M.N.N.n.d.d.i.i.q.w.w.6.6.=.=.=.=.=.*.*.=.*.*.*.*.*.*.*.=.=.=.=.=.=.=.=.6.6.6.6.6.6.6.6.q.q.q.q.e.e.e.e.a.a.a.a.a.a.d.d.d.d.d.d.d.d.d.d.d.d.a.a.a.a.a.a.a.a.a.a.a.a.a.a.a.i.a.i.i.i.a.a.a.a.a.a.a.a.a.i.p.p.p.p.p.p.e.e.e.e.e.e.e.e.r.q.q.q.q.q.0.0.y.y.h.;.&.[ / / / / ` ] ] ] ] ] ",
"k f f f k k k k n m M V S D P L ~ ^ / [ X.+.@.+.` S n f d p p d d d d d d d d d f f f f f f v v f f n n n n n n n M M M M V D P ^ ^ ^ ^ / / / / ` ` ` ` ] ] ] ] [ ] [ [ [ [ [ [ [ X.X.X.O.O.O.O.@.@.@.@.*.-.-.9.9.0.w.0.y.t.t.t.p.t.0.0.0.0.0.w.9.7.q.q.0.0.q.q.0.0.0.0.t.q.q.q.q.0.0.0.0.w.w.w.9.9.9.9.9.9.9.9.w.w.0.0.9.t.t.t.i.i.s.f.f.s.x.x.x.m.D.S.S.J.R.E.E.R.R.R.E.E.E.R.E.E.Y.F.F.F.F.F.F.G.Z.Z.C.C.C.C.C.C.M.M.M.M.m.m.m.n.m.n.n.n.n.n.x.x.x.x.x.x.x.x.d.x.x.n.n.x.n.n.N.N.B.M.M.M.M.M.S.J.K.E.Q.Q.W.W.].].{..X+XOXXX%X%X%X%X&X%X%X%X%X%X#X XXX%X#X X X X%XXX X.X.X.X{.}.}.[.[.[.[.].].].].].].].].].]._.].].{.{. XXXOX%X*X=X2X3X5X5X5X5X5X5X3X3X%X%X%X%XOXOXXXXXXXXXXXXXXXXXXX#X#X%X%X%X%X%X*X-X-X3X3X3X5X8X0XiXdXhXkXbXCXZXDXHXFXGXLXLXLXJXJXJXJXLXLXGXFXDXDXZXZXBXBXbXbXvXvXkXkXjXjXjXjXjXjXkXkXlXkXkXvXvXvXbXbXBXCXCXCXCXCXCXCXCXBXbXbXvXvXvXkXkXkXkXkXkXkXkXkXkXkXkXkXkXkXxXkXkXkXkXkXkXkXkXkXkXkXkXkXkXkXkXvXvXvXvXkXlXnXbXCXCXnXlXSXlXlXlXnXlXpXpXpXlXvXmXlXpXlXlXlXpXpXlXkXkXkXkXkXkXkXkXkXkXkXkXkXvXvXmXmXmXmXmXMXMXMXMXCXCXCXCXCXCXCXCXCXCXCXCXMXMXmXvXvXkXkXkXjXjXjXfXsXsXsXsXsXsXsXsXtXtXyXrXyXeXeXeXwXwXwXwXwX3X2X3X-X-X-X-X-X-X-X-X-X&X&X&X&X&X&X&X&X-X-X-X-X-X3X5X4XwX8X8XeXtXtXtXtXtXtXtXeX4X2X1X=X*X%XOX.X[.].Q.E.J.H.H.B.n.f.i.t.0.6.w.6.6.6.6.6.6.6.6.=.=.=.=.=.=.=.=.=.=.=.=.=.=.=.=.=.=.=.=.=.=.=.6.w.0.t.i.i.i.a.d.n.N.m.A.C.F.F.F.F.Z.C.C.C.M.N.N.n.x.d.i.i.q.w.w.6.6.=.=.=.=.=.*.=.=.=.=.=.*.*.*.=.=.=.=.=.=.=.=.=.6.6.6.6.6.6.6.6.q.q.q.q.e.e.e.e.a.a.a.a.a.a.d.d.d.d.d.d.d.d.d.d.j.d.d.a.a.a.a.a.a.a.a.a.a.a.a.a.a.a.a.i.i.i.a.i.a.a.i.i.a.i.i.i.p.p.e.e.p.p.e.e.e.e.e.e.e.e.r.q.q.q.q.q.q.q.q.y.y.h.:.>.+.[ ` ` ` ` ` ] ] ] ",
"f f f k f f k k n m V V S F P I ~ ( / ] [ +.@.+.` S n f p p d d d d d d d d d d f f f f f f f f f f n n n n n n n M M m M V F P ^ ^ ^ ^ ^ / / / / ` ` ` ` ` ` ` ] ] [ [ [ [ [ [ [ X.X.X.O.O.O.O.O.@.@.@.-.-.-.-.9.9.0.q.y.t.t.t.t.t.0.0.0.0.0.w.9.7.q.q.q.q.t.q.t.i.i.i.q.q.q.0.0.0.0.0.w.w.w.w.w.w.0.9.9.9.9.9.9.9.w.w.9.0.t.t.t.i.i.s.s.f.s.x.x.m.B.S.S.Z.J.R.E.J.E.E.E.W.W.T.T.R.R.R.R.R.R.R.Y.F.F.F.Z.C.C.C.C.C.M.M.M.m.m.m.n.n.n.n.n.x.x.x.x.x.x.x.x.x.x.x.x.x.x.x.x.x.n.n.n.N.V.V.M.M.M.M.S.H.K.Q.Q.Q.W.W.].].{.oX.XXX%X%X%X%X%X%X%X%X%X%X%X#X XXX#X X!.!. X%XXX X.X.X.X.X}.}.oX[.[.[.[.].].].].].].].].].].].].{.{. XXXOX%X*X=X3X3X5X5X5X5X4X2X3X-X%X%X%XXXXXXXXXXXXXXXXXXXXXXXXXXX#X%X%X%X%X&X-X-X=X1X3X3X5X8X0XiXdXhXkXbXCXZXDXDXFXGXLXLXJXJXJXJXLXJXLXLXFXFXDXDXZXZXBXbXbXbXvXkXkXkXjXxXxXkXkXkXkXlXkXkXvXvXvXbXbXCXCXZXZXZXZXCXCXCXCXCXbXMXvXvXkXkXkXkXkXkXkXkXkXkXkXkXkXkXkXhXkXkXlXxXlXlXlXlXkXkXkXkXkXkXkXvXkXkXvXvXkXlXnXnXbXBXnXnXnXnXpXpXlXlXpXpXlXvXbXvXpXpXlXkXpXpXlXkXkXkXkXkXkXkXkXkXkXvXvXvXvXvXvXvXvXbXbXMXMXCXCXCXCXCXCXCXCXCXCXCXCXCXCXCXMXMXMXvXvXkXkXjXjXjXfXfXdXdXdXsXsXsXsXtXtXtXtXyXyXeXeXeXwXwXwXwXwXwX3X3X3X-X-X-X-X-X-X-X-X-X=X-X-X&X&X-X-X-X-X-X-X3X3X5X4X8X8X0XtXtXtXtXtXtXtXtXeX4X2X1X=X%X%XOX.X{.].Q.E.J.H.H.M.n.f.i.i.0.0.0.6.6.6.6.6.6.6.6.6.6.6.=.=.=.=.=.=.=.=.=.=.=.=.=.=.=.=.=.=.w.w.9.w.q.t.i.i.i.d.d.n.n.m.C.C.Z.F.F.F.G.C.C.C.M.m.N.n.x.f.i.p.q.q.6.6.6.=.=.=.=.=.=.=.=.=.*.*.=.=.=.=.=.=.=.=.=.=.=.6.6.6.6.6.6.6.6.8.q.q.q.e.e.e.a.a.a.a.a.a.d.d.d.d.d.d.d.d.n.n.n.n.j.j.d.d.a.a.a.a.a.a.a.a.a.a.a.a.a.a.i.i.i.i.a.a.a.a.p.p.p.p.p.p.p.p.e.e.e.p.e.e.e.e.e.e.e.r.q.q.q.q.0.0.q.7.0.q.y.g.h.u.;.o.[ ] ` ` ` ` ` ` ",
"f f f f f f k k n m V V S F P I ~ ( / ] [ +.@.o.' S n f p p p p d d d d d d d d f f f f f f f f f f k n n n n n n n n m m C F U ^ ^ ^ ^ ^ ^ / / / / ` ` ` ` ` ` ] ] ] ] [ [ [ [ [ [ X.X.X.O.O.O.O.O.@.@.@.-.-.-.=.9.0.w.y.t.y.y.t.t.t.0.0.0.0.w.9.7.q.q.q.q.t.q.0.0.0.0.q.q.q.0.0.0.0.0.w.w.w.w.w.w.0.9.9.9.9.9.9.9.9.9.w.0.0.t.t.t.i.i.s.s.s.d.x.m.M.S.S.C.J.J.E.E.E.E.W.W.W.W.W.W.W.W.W.W.W.W.T.R.Y.F.G.G.G.C.C.C.M.M.M.m.m.m.n.n.n.n.x.x.x.x.x.x.x.x.x.x.x.x.d.d.x.x.d.d.n.n.n.N.N.N.M.m.M.M.B.H.K.E.Q.Q.Q.W.~.].[..X.XXXXX%X%X%X%X%X%X%X#X%X%X#X X X#X@X!. X X%X%X X X.X.XoXoX[.[.[.[.].[.].].].[.].].].].].].].|.{.{..XXXOX%X*X=X3X3X5X5X4X4X6X1X1X-X%X%XOXXXXXXXXXXXXXXXXXXXXXXXXXXXXX%X%X%X%X&X-X-X=X3X3X3X4X8X0XsXdXhXkXvXCXZXZXDXFXGXLXLXJXJXJXLXJXJXLXLXFXFXDXDXZXZXBXBXbXbXvXvXkXkXkXlXxXjXkXkXkXlXkXkXvXvXvXbXbXCXCXZXZXZXZXZXZXZXCXBXbXbXvXvXvXkXkXkXkXkXkXkXkXkXkXkXkXkXkXkXkXlXpXpXpXpXpXxXkXkXkXkXkXkXkXkXkXvXvXvXvXvXlXSXnXBXCXCXMXnXlXpXlXlXlXlXbXMXnXlXpXlXkXlXpXlXkXkXkXkXkXkXkXkXkXkXkXvXvXvXvXvXvXvXvXbXbXMXMXCXCXCXCXCXCXCXCXCXCXCXCXCXCXCXMXMXmXvXkXkXkXjXjXjXfXfXdXdXdXsXsXsXsXtXtXtXtXyXyXeXeXeXwXwXwXwXwX3X3X3X3X-X-X-X-X-X-X-X-X-X-X-X-X&X&X-X-X-X-X-X-X3X3X4X4X8X0X0XtXtXtXtXtXtXtXyXeX4X2X-X=X%X%XOX.X].].Q.E.K.H.H.M.n.f.i.i.0.0.6.6.6.6.6.6.6.6.6.6.6.6.=.=.=.=.=.=.=.=.=.=.=.=.=.=.=.=.=.=.w.w.9.w.q.t.i.i.i.a.d.d.n.m.C.A.Z.Z.G.G.C.C.C.C.M.m.N.m.x.f.f.p.q.w.6.6.6.=.=.=.=.=.=.=.=.=.*.*.=.=.=.=.=.=.=.=.=.=.=.6.6.6.6.6.6.6.6.8.q.q.q.r.e.e.a.a.a.a.a.a.d.d.d.d.d.d.d.d.n.n.n.n.j.j.j.d.d.a.d.d.a.a.a.a.a.a.a.a.a.a.i.i.i.i.a.a.a.a.p.p.p.p.p.p.p.p.e.e.e.e.e.e.e.e.e.e.e.r.q.q.q.q.0.0.q.7.0.q.p.g.h.u.;.&.o.o.{ ] ` ` / / ",
"f f f f f f f k n m M V S F P I ~ ^ / ] [ +.@.+./ S n f p p p p p p d d d d d d d d d f f f f f f f v v v v n n n n m n m C L U ^ ^ ^ ^ ^ ^ / / / / ` ` ` ` ` ` ] ] ] ] [ [ [ [ [ [ X.X.X.O.O.O.O.O.@.@.@.-.*.#.=.-.9.w.q.q.q.y.t.t.t.0.t.0.0.0.w.0.q.q.t.t.q.q.p.p.i.i.t.q.q.0.0.0.0.0.w.w.w.w.w.w.w.9.9.9.9.9.9.9.9.9.9.0.0.0.t.y.y.y.y.s.f.s.x.n.V.B.S.C.C.G.F.E.E.E.W.W.'.'.].].].].].].].~._.W.T.R.Y.F.G.C.C.M.B.M.S.M.m.m.m.m.n.n.x.x.x.x.x.x.x.x.x.d.d.d.d.d.d.d.d.d.n.n.n.N.N.N.B.B.B.M.B.H.J.E.Q.Q.Q.W.~.].[.{..XXXXX%XOX%X%X%X%X%X%X%X%X%X XXX#X X X X X%X#X X.X.XoXoX.X.X.X.X{.{.{.{.{.{.{.{.{.[.}.}.}.}.{.{..X+XOX%X%X*X=X3X3X5X5X4X5X6X1X-X-X%X%XOXOXXXXXXX.X.X.X.XXXXXXXXXXX#X%X%X%X&X&X-X-X=X3X3X3X4X7X9XaXdXhXkXvXMXZXZXDXFXGXJXJXJXJXJXLXJXJXJXLXFXFXDXDXZXZXBXBXbXbXvXvXkXkXkXkXkXkXkXkXkXlXkXkXmXvXvXbXCXCXCXZXZXZXZXZXZXZXCXCXCXMXMXvXvXvXkXkXkXkXkXkXkXkXkXkXkXkXkXmXlXxXlXvXmXvXvXkXlXkXkXvXvXkXkXkXvXvXvXvXvXvXnXnXnXnXbXbXMXCXCXMXmXmXMXbXMXvXlXlXlXlXlXpXlXvXkXlXlXkXkXkXkXkXkXkXkXvXkXvXvXvXvXmXmXMXbXMXMXCXCXCXCXCXCXCXCXCXCXCXCXCXCXCXMXmXmXmXkXkXkXjXjXjXfXfXdXgXgXsXsXsXsXtXtXtXtXtXtXyXeXeXwXwXwXwXwX3X3X3X3X3X3X-X-X-X-X-X-X-X-X-X-X-X-X-X-X-X-X-X3X3X5X5X8X8X0X9XyXtXtXtXtXtXtXyXeX4X2X-X*X%XOX+X.X[.].Q.E.K.H.H.M.n.f.i.i.0.0.0.0.7.6.6.6.6.6.6.6.6.6.6.=.=.=.=.=.=.=.=.=.=.=.=.=.6.6.6.6.6.6.6.w.q.t.i.i.i.a.d.d.d.n.M.A.Z.Z.G.G.C.C.C.C.M.m.m.m.x.x.s.p.t.q.w.6.6.6.=.=.=.=.=.=.=.=.=.=.=.=.=.=.=.=.=.=.6.6.6.6.6.6.6.6.6.6.7.8.q.q.r.e.e.p.a.a.a.a.a.a.d.d.d.d.d.d.n.n.n.n.n.n.n.n.j.j.k.d.k.k.k.k.a.a.a.a.a.a.a.a.d.a.a.a.a.a.a.a.p.p.p.p.p.p.p.p.e.e.e.e.e.e.e.e.e.e.e.r.q.q.q.q.0.0.q.7.8.q.e.h.h.9.;.%.O.&.+.+.[ ] ` / ",
"f f f f f f f k n m M V S D P I ~ ^ / ] X.+.O.X./ S n f d p d p p p d d d d d d d d d d f f f f f f v v v v n n n n m m m V U U ^ ~ ^ ^ ^ ^ / / / / ` ` ` ` ` ` ] ] ] ] ] ] [ [ [ [ [ X.X.X.O.O.O.O.O.@.@.@.@.#.=.=.9.9.0.w.0.y.t.t.t.t.t.0.0.0.w.0.q.q.t.t.t.t.p.p.t.t.t.q.q.0.0.0.0.0.w.w.w.w.9.9.9.9.9.9.9.9.9.9.9.9.9.9.w.9.0.t.y.y.y.i.s.f.d.x.m.M.M.C.C.Z.F.F.E.E.W.W.'.'.'.[.[.[.[.[.[.[.[.].].].W.E.F.C.C.M.M.M.B.M.m.m.m.m.n.x.x.x.x.x.x.x.x.x.d.d.d.d.d.d.d.d.d.d.n.n.n.N.N.N.V.V.B.M.M.S.H.K.E.E.E.W.W.].].{..X.XXXXXXX%XXX%X%X%X#X#X%X%X XXX#X@X X X X%X#X X.XXX.XoX.X.X.X.X{.{.{.{.{.[.{.{.{.[.{.}.{.{.{.{..X+XOX%X*X*X=X3X2X2X2X6X6X1X=X=X*X%XOXOX.X.XXXXX.X.X.X.XXXXXXXXXXXXX%X%X%X&X&X-X-X=X-X3X3X4X7XrXrXdXhXkXvXMXCXZXDXFXGXJXJXJXJXJXJXLXJXJXLXFXFXDXZXZXZXCXBXbXbXvXvXkXkXkXlXlXxXkXjXkXkXkXkXmXvXvXbXCXCXZXZXZXZXZXZXZXZXZXCXCXMXMXvXvXvXkXkXkXkXkXkXkXkXkXkXkXkXkXkXpXlXlXlXkXlXkXkXxXlXkXvXvXkXkXkXvXnXnXvXvXvXvXbXnXnXnXnXnXbXbXMXMXMXMXvXnXlXlXlXlXpXlXlXvXmXlXlXlXkXkXkXkXkXkXkXkXkXkXvXvXmXvXvXvXMXbXbXbXCXCXCXCXCXCXCXCXCXCXCXCXCXCXMXMXmXmXmXkXkXkXjXjXjXfXdXgXgXsXtXtXtXtXtXtXtXtXtXtXyXyXeXwXwXwXwXwX3X3X3X3X3X3X-X-X-X-X-X-X-X-X-X-X-X-X-X-X-X-X-X3X3X5X5X8X0X0X9XyXtXtXtXtXtXtXtXyX4X2X-X*X%XOX+X.X{.].Q.E.K.H.H.B.n.f.i.i.0.0.0.0.7.6.6.6.6.6.6.6.6.6.6.=.=.=.=.=.=.=.=.=.=.=.=.=.6.6.6.6.6.6.6.w.q.t.i.i.i.d.d.d.f.n.N.M.A.Z.G.Z.C.C.C.C.M.m.m.m.x.x.s.p.t.q.w.6.6.6.=.=.=.=.=.=.=.=.=.=.=.=.=.=.=.=.=.=.6.6.6.6.6.6.6.6.6.6.7.8.q.q.r.e.e.p.a.a.a.a.a.a.d.d.d.d.d.d.n.n.n.n.n.n.n.n.j.j.j.j.j.k.k.k.d.d.d.a.a.a.a.a.a.a.a.a.p.a.a.a.p.p.p.p.p.p.p.e.e.e.e.e.e.e.e.e.e.r.r.q.q.q.q.q.0.0.8.7.8.q.q.q.y.w.;.*.O.%.%.+.o.[ [ ] ",
"f f f f f f f k n m V C D D L I ~ ^ ] [ X.+.O.X.~ A n f d p p p p p a a a a d d d d d d d f f f f f f f v v n v n n m m B B D U ~ ~ ~ ~ ^ ^ / / / / ` ` ` ` ` ` ] ] ] ] ] ] [ [ [ [ [ [ X.X.O.O.O.O.O.O.@.@.@.@.=.-.9.9.w.0.q.t.q.q.q.q.0.0.q.0.w.q.y.y.t.t.p.p.p.p.p.p.t.t.q.q.q.q.q.0.w.w.6.9.9.9.9.9.9.9.9.9.9.9.6.9.9.9.9.w.0.t.y.y.y.i.s.s.s.x.V.m.B.M.M.C.G.F.R.W.~.].[.[.{..X.X.XXXXXXXXX.X.X.X.X[._.Y.F.C.M.M.M.B.M.M.m.m.m.m.c.x.x.x.x.x.x.x.x.x.x.x.x.d.x.x.x.x.x.n.n.n.N.N.m.M.M.M.M.M.S.H.J.J.R.R.R.T.~.].[..X.X.XXXXXXX#X#XXXXX#XXXXXOX X X#X@X X X X%X#X X XXXXXXX.X.X.X.X{.{.{.{.{.{..X.X{.{.{.{.{.{.{..X.XOXOX*X*X=X-X2X2X2X2X2X2X=X=X-X%XOXOX.X.X.X.X.X.X.X.X.X.X.XXXXXXXXX%X%X%X%X&X-X-X=X1X6X5X5X7X0XrXgXfXjXvXMXCXZXHXFXGXJXLXJXJXJXJXJXJXJXLXFXFXDXZXZXZXCXBXbXbXvXvXkXkXkXxXxXxXjXkXkXlXkXkXvXmXMXMXCXCXZXZXZXZXZXDXDXZXZXCXCXCXbXvXvXvXkXkXkXkXkXkXkXkXkXkXkXkXvXlXpXlXlXlXlXpXkXnXpXlXvXmXvXvXvXnXnXvXvXvXvXbXbXbXbXnXnXSXnXnXnXnXnXnXnXnXlXlXnXnXkXlXlXkXkXkXlXlXlXkXkXkXkXkXkXkXkXvXvXmXmXmXMXMXMXMXMXMXMXCXCXCXCXZXCXCXCXCXCXCXCXCXCXMXMXmXmXkXkXzXjXjXjXjXfXdXgXaXaXsXtXtXtXyXyXtXtXtXtXtXeXeXwXwXwXwXwX2X2X2X-X-X3X2X2X-X-X-X-X-X-X-X-X-X-X-X-X-X-X3X3X3XwXeXyXeXeXyXyXtXtXtXtXsXtXtXeX4X2X-X*X%XOX+X.X].].`.E.K.J.H.B.M.d.f.i.0.0.0.w.7.6.6.6.6.6.6.6.6.6.6.6.6.6.=.=.=.=.=.=.=.=.6.6.6.6.6.6.6.6.6.w.q.t.i.i.i.a.d.d.f.n.N.M.C.C.Z.Z.C.C.C.C.C.M.m.m.x.d.f.p.p.q.w.w.6.6.6.6.6.=.=.=.=.=.=.=.=.=.=.=.=.=.6.6.6.6.6.6.6.6.6.6.6.7.7.q.q.q.e.e.p.p.a.a.a.a.a.a.a.a.d.d.k.l.n.n.n.n.n.n.n.n.n.n.n.n.j.j.j.j.d.d.d.d.d.d.d.d.d.d.a.a.a.a.a.a.p.p.p.p.p.e.e.e.e.e.e.e.e.e.e.e.q.q.q.q.q.q.8.8.7.7.7.7.8.8.q.q.w.w.6.=.*.%.O.%.o.+.[ [ ",
"f f f f f f k k n m V C D D L I ~ ^ ] [ X.+.O.[ E A n f d p p p p p a a a a d d d d d d d d f d f f v v f f v v n n n m B C T ( ~ I ~ ~ ~ ^ / / / / / / ` ` ` ` ` ` ] ] ] ] [ [ [ [ [ [ X.X.X.O.O.O.O.O.O.@.@.@.@.=.-.9.9.w.0.q.q.q.q.q.0.q.q.0.w.q.y.y.t.p.p.p.p.p.p.p.t.t.q.q.q.q.q.0.w.w.6.6.9.9.9.9.9.9.9.9.9.9.6.6.9.9.w.0.0.0.t.y.y.y.s.s.s.d.n.N.M.M.M.C.G.F.E.W.~.[..X.X.XXXXX#X#X$X*X*X*X*X%X%XXX.X].T.F.C.A.A.S.M.M.m.m.m.m.c.x.x.x.x.x.x.x.x.x.x.x.x.d.d.x.x.x.x.n.n.n.n.N.m.M.M.M.M.M.M.C.J.J.R.R.Y.T.W.].[.{..X.X XXXXXXXXXXXXXXXXXXXXX X X#X@X X X X%X#X X XXXXXXX.X.X.X.X.X{.{.{.{..X.X.X.X.X.X{.{.{..X+XOXOX%X*X*X=X-X2X3X3X5X3X3X3X3X-X%XOXOX.X.X.X.X.X.X.X.X.X.X.X.XXXXXXXXX%X%X%X%X-X1X3X3X5X5X4X7X0XaXaXfXjXvXmXCXZXHXFXGXLXJXJXJXJXJXJXJXJXLXGXFXHXDXZXZXZXCXbXbXvXvXvXkXkXkXkXkXkXkXkXlXkXvXvXvXMXMXCXCXZXZXZXZXZXZXZXDXZXZXCXCXMXmXvXvXvXvXkXvXvXvXvXvXvXkXkXkXkXlXpXlXlXpXlXpXvXvXpXkXvXmXvXvXvXvXvXvXvXvXvXvXvXbXbXbXnXlXpXpXpXlXlXlXlXnXlXvXvXvXnXvXkXkXkXkXlXlXkXkXkXmXmXmXmXkXkXvXvXmXmXMXMXMXMXCXCXCXCXCXCXCXCXZXCXCXCXCXCXCXCXbXMXbXbXvXmXkXzXzXjXjXjXfXgXgXsXgXsXsXsXsXsXtXyXyXyXtXtXtXeXeXwXwXwXwXwX2X2X2X-X3X3X2X-X-X-X-X-X-X-X-X-X-X-X-X-X-X3X3X3XwX4XeXyXeXeXyXyXtXtXtXtXsXtXtXeX4X2X-X%X%XOX+X.X].].`.E.K.K.H.B.B.n.d.p.0.0.0.w.7.6.6.6.6.6.6.6.6.6.6.6.6.6.=.=.=.=.=.=.=.=.6.6.6.6.6.6.6.6.6.0.0.q.p.p.i.a.d.d.f.n.n.M.C.G.Z.Z.C.C.S.C.C.M.m.m.x.d.f.p.p.q.w.w.w.9.6.6.6.=.=.=.=.=.=.=.#.#.=.=.=.=.6.6.6.6.6.6.6.6.6.6.7.7.7.0.q.e.e.e.p.p.a.a.a.a.a.a.a.a.d.d.d.l.n.n.n.n.n.n.n.n.n.n.n.n.j.j.j.j.j.j.k.d.d.d.d.d.d.d.a.a.a.a.a.a.p.p.p.p.p.e.e.e.e.e.e.e.e.e.e.0.q.q.q.q.q.q.8.8.8.8.8.8.7.7.8.8.w.w.6.=.*.*.O.O.O.o.[ [ ",
"f f f f f f k k m M V C D F P I ~ / ] [ X.+.+.[ E M v f d p p p p p a a a a d d d d d d d d d f f f v v v f v v v n n m B j ,.( ~ ~ ~ ~ ~ ^ ^ / / / / / ` ` ` ` ` ` ] ] ] ] [ [ [ [ [ [ [ X.o.o.O.+.O.O.O.@.@.@.*.=.-.9.9.w.0.t.q.q.q.q.0.q.0.0.w.q.y.y.p.i.i.i.p.p.a.p.p.t.t.q.0.0.0.0.w.w.9.9.9.9.9.9.9.9.9.9.9.6.6.6.w.w.9.w.9.0.t.y.y.i.i.s.s.d.x.N.m.M.C.C.G.F.E.W.].{.+XXXXX%X*X*X1X1X6X6X2X2X2X2X=X%X.X}.T.F.Z.A.C.m.M.m.m.m.V.x.x.x.x.x.x.x.d.d.d.d.d.d.d.d.x.x.x.x.n.n.n.n.m.M.M.M.M.M.M.M.C.H.J.R.R.R.W.W.].[.{..X X X.X.X.X.X X X X X.XXX X X#X@X X X X%X%X XXXXXXXXXXXXXXXXX.X.X.X.X.X.X.X.X.X.X.X.X.X.X+XOXOXOX%X*X*X1X1X2X2X2X2X2X2X-X=X*X*X%XOX.X.X.X.X.X.X.X.X.X.X.X.XXXXXXX#X#XXXXX%X*X*X1X6X6X6XqX7X9XaXaXxXjXkXMXCXZXHXFXGXLXJXJXKXJXJXJXJXLXLXFXFXDXZXZXZXCXBXbXbXvXvXnXkXlXkXxXjXkXkXxXlXlXkXvXmXMXMXCXCXZXZXZXZXZXZXZXZXZXZXCXCXMXMXvXvXvXkXkXkXkXkXkXkXkXkXkXkXkXlXpXnXlXlXlXpXvXvXpXlXlXkXkXvXvXnXnXnXnXnXnXvXnXvXbXbXMXbXbXnXnXnXnXnXnXnXbXbXvXvXvXvXvXvXvXvXvXkXkXvXvXkXkXvXvXkXvXvXnXmXvXMXMXMXbXbXbXCXCXCXCXCXCXCXCXCXCXCXCXCXCXbXMXbXMXvXmXkXzXzXjXjXjXfXgXaXaXaXaXsXsXtXtXtXtXtXyXyXyXtXeXeXwXwXwXwXwX2X2X3X2X2X2X-X-X-X-X-X-X-X-X-X-X-X-X3X3X3X3X3X3XwX5XeXyXeXeXyXyXtXtXtXtXtXtXtXeX4X2X-X%X%XOX+X.X{.].`.Q.E.K.K.H.B.N.d.p.e.q.w.w.w.7.6.6.6.6.6.6.6.6.6.6.6.6.6.6.6.=.9.6.6.6.6.6.6.6.6.6.6.6.6.0.q.q.p.p.i.a.d.d.f.n.n.M.C.C.Z.C.C.C.S.C.C.M.m.m.n.x.d.s.p.y.q.w.w.6.6.6.6.9.6.=.=.=.=.=.=.=.=.=.=.=.6.6.6.6.6.6.6.6.7.7.7.7.7.0.q.q.e.e.p.a.a.a.a.a.a.a.d.d.d.d.j.l.n.n.V.V.V.n.n.n.V.V.n.n.n.n.n.n.j.j.j.j.j.d.d.d.d.d.d.d.a.a.a.a.p.p.p.p.e.e.e.e.e.e.e.e.e.e.e.0.q.q.q.q.q.0.8.8.8.8.8.8.8.8.8.w.w.w.6.=.=.*.@.O.O.O.o.[ ",
"f f f f f f k k m M V V D F P P ~ / ] [ X.+.+.[ E M v g i p p p p p a a a a d d d d d d d d d d f f v v f f v v v n n m m T ,XS E E ~ ~ ~ ^ ^ ^ ~ / / / / / ` ` ` ` ] ] ] ] ] [ ' ' [ [ [ X.X.o.o.o.O.O.O.O.@.@.*.*.;.=.-.9.0.0.0.0.q.q.0.0.0.0.w.0.q.p.i.i.i.i.i.a.p.p.p.t.t.q.0.0.0.0.w.w.9.9.9.9.9.9.9.9.9.9.9.9.6.6.9.9.9.9.9.0.t.t.y.y.y.s.s.s.d.n.m.M.M.C.G.F.R.W.]..X.X%X*X=X6X5X4X0X8X7X7XyXrX7XqX1X&X+X].W.Y.Z.C.C.m.m.V.m.V.x.x.x.x.x.x.x.d.d.d.d.d.d.d.d.x.x.x.x.n.n.n.N.M.M.M.M.M.M.M.M.C.H.J.R.R.R.W.W.].].{..X.X X'.'. X X X X X X X X X X#X@X X X X%X%X XXX#XXXXXXXXXXXOXXXXX X X X X X X X X X.X+X+X+XOX%X%X%X*X*X1X6X1X1X@X*X*X*X@X@X@X@XXXXX X.X.X.X.X.X.X.X.X.X.X.XXXXX#X#X#XXX X@X@X@X$X1X1XqXqXqX0XaXgXjXxXkXmXCXZXHXFXGXLXJXJXJXJXJXJXLXFXPXPXVXVXVXVXSXSXnXbXMXMXvXlXlXlXxXpXpXpXxXxXlXlXkXvXmXMXCXCXZXZXZXZXZXZXZXZXZXZXZXCXCXbXvXmXmXkXpXpXpXpXxXxXlXlXlXlXvXkXlXpXnXlXlXlXpXvXvXpXpXlXpXpXlXlXlXpXlXpXlXlXlXlXnXvXbXbXbXbXbXSXpXlXlXlXlXnXvXvXvXvXvXvXvXvXvXvXvXlXlXlXlXlXlXlXlXlXnXvXnXbXbXnXnXSXSXSXnXnXSXbXBXBXCXZXCXCXCXCXCXCXMXMXbXmXvXkXkXkXzXzXjXxXgXaXrXaXrXrX7X0X7X7X7XtXtXtXtXyXtXeXeXwXwXwXwXwX2X2X3X2X2X2X-X-X-X-X-X-X-X-X-X-X-X-X3X3X3X3X3X3XwX5XeXyXeXyXyXtXtXtXtXsXtXtXtXeX4X2X-X-X%X+X+X.X{.].`.`.E.K.K.H.H.N.d.p.p.q.0.w.w.7.6.6.6.6.6.6.6.6.6.6.6.6.6.6.6.=.9.9.6.6.6.6.6.6.6.6.6.6.6.0.q.q.p.p.i.a.d.d.f.n.n.M.C.C.H.C.C.C.S.C.C.M.m.m.n.x.d.s.a.t.q.w.w.6.6.6.6.9.6.=.=.=.=.=.=.=.=.=.=.=.6.6.6.6.6.6.6.6.7.7.7.7.7.0.q.q.e.e.p.a.a.a.a.a.a.a.d.d.d.d.j.j.n.n.V.V.V.n.N.N.V.V.n.n.n.n.n.n.j.j.j.j.j.d.d.d.d.d.d.d.a.a.a.a.a.p.p.p.e.e.r.r.e.e.e.e.e.e.r.0.0.0.q.q.q.q.8.8.8.8.8.8.8.8.8.8.w.8.6.=.=.*.@.O.O.O.o.X.",
"f f f f f f k k m M V V D P I P ~ / ] [ X.+.+.[ E M k g i p p p p p a a p p d d d d d d d d d d d d v v v f v v v n n m f 1.U.W E E P I ~ ~ ~ ^ ~ / / / / / ` ` / / ] ] ] ] ] ] ] [ [ [ [ [ X.o.o.o.o.O.+.O.O.*.*.;.;.=.=.9.0.0.t.t.0.0.0.t.q.0.7.0.0.p.i.f.d.d.f.s.s.p.p.i.t.y.t.0.0.w.w.w.9.9.6.6.6.9.=.=.-.=.6.6.=.=.9.9.9.9.9.w.0.y.y.y.y.i.i.f.d.x.N.m.M.C.C.F.R.Q.]..XXX%X1X4X8X9XiXiXsXdXgXgXdXdX9X4X6X&X.X[.T.Y.Z.A.m.N.m.n.n.x.x.x.x.x.x.x.d.d.d.d.d.d.x.x.x.x.x.x.n.n.n.m.m.m.M.M.M.M.M.C.C.J.J.J.R.W.W.~.].'.[.[. X'.!. X XXX X X X X X X X X$X@X X X X%X%X XXX#X#XXXXXXX%X&X%X X X X X XXX#X#X X XXXOXOXOXOX%X%X*X*X1X1X1X1X1X1X1X1X1X1X*X@X@XXX X X X.X.X.X.X.X.X.X.X.X.XXXXX#X#X@X X@X@X$X1X1XqX6XqXqXqXqXrXxXxXxXkXmXMXCXZXFXGXLXJXJXJXKXLXFXFXPXPXPXPXVXVXVXSXSXSXnXbXbXnXlXlXlXlXxXxXlXlXxXpXxXlXnXvXMXCXCXZXZXZXZXZXDXDXDXZXZXZXZXCXbXnXvXvXlXpXpXlXlXlXlXlXlXlXpXvXnXlXpXnXkXlXlXpXnXvXlXlXlXlXlXlXlXlXlXlXnXlXlXpXlXnXnXnXbXbXnXnXlXlXnXnXlXnXnXnXbXbXvXvXnXnXmXvXvXnXnXlXlXlXlXnXlXnXnXnXnXnXbXbXSXSXSXnXnXnXnXbXVXVXbXBXCXCXCXCXCXCXCXMXMXbXmXmXkXlXlXjXjXxXgXaXaXaXrXrXrXaX0XrX0X7XaXgXtXtXyXyXeXeXeXwXwXwXwXwX2X3X2X2X2X2X2X2X-X-X-X2X2X2X-X-X-X2X2XwXwX2X2XwXeXeXyXyXtXtXtXsXsXsXsXdXsXtXeXwX2X-X-X%XOX+X.X{.].`.`.E.K.K.H.H.N.d.i.p.e.q.q.q.7.7.6.6.6.6.6.6.6.9.9.6.6.6.6.6.6.6.6.6.6.6.6.6.6.6.6.6.6.6.0.q.q.p.p.i.a.d.d.d.n.n.M.C.S.S.S.S.S.S.S.C.M.M.m.n.x.d.s.s.p.q.w.w.w.6.6.6.6.6.6.=.6.=.=.=.=.=.=.6.6.6.6.6.6.6.6.7.7.7.7.7.6.7.0.q.q.e.e.e.a.a.a.a.a.d.d.d.d.d.d.j.j.n.N.V.V.V.M.N.N.N.N.N.V.n.n.n.n.j.j.j.j.j.j.j.d.d.d.d.d.a.a.a.a.a.a.a.a.e.e.e.r.e.e.r.r.0.r.r.q.q.0.q.0.0.7.7.7.7.7.7.7.8.8.8.8.8.w.w.=.=.=.*.O.O.O.O.X.",
"f f f f f f k k n M V V D L I P ~ / ] [ X.+.+.[ E M f a p p p p p p a a p p a a d d d d d d d d d d f d f f v v n n n n r 3.U.A E E P I ~ ~ ~ ~ ~ ~ / / / / ` ` / / ` ` ` ` ] ] ] ] [ [ ' [ X.X.o.o.o.o.O.+.O.*.*.;.*.*.#.9.9.7.0.0.0.0.t.t.0.0.0.0.i.i.d.d.d.d.d.s.s.s.p.p.t.t.t.0.0.7.w.w.9.9.6.6.6.9.=.=.-.-.=.=.=.=.9.9.9.9.9.w.0.0.y.y.y.y.i.i.d.d.n.N.M.M.C.F.R.W.]..XXX=X5X0XtXdXdXhXhXhXjXjXhXhXhXiX4X1X#X X!.Y.Z.C.m.m.N.n.x.x.x.x.x.x.x.x.d.d.d.d.d.d.x.x.x.x.x.x.n.n.n.m.m.m.M.M.M.M.M.C.C.J.J.R.E.W.W.~.'.~.!.!.'.'. X#X#X#X#X#X&X&X X X X X#X@X X X X%X%X XXX#X#X#XXXXX%X%X X X X-X3X=X*X*X=X*X@X X;X%X%X*X%X*X*X1X1X1XqXqX4X8XeX8X8X8X5X5X3X@X X X X X.X.X.X.X.X.X.X.X.XXX X@X@X@X@X*X6X5X8X8X8X9XsXsX0X0X0XcXpXlXkXvXMXCXZXHXGXLXJXJXJXKXKXPXPXFXJXLXFXDXZXZXVXZXBXnXSXpXpXlXmXmXmXkXkXkXkXmXlXpXpXlXvXMXCXCXZXZXZXZXZXZXDXDXZXZXZXZXCXCXMXnXlXlXvXvXmXvXvXvXvXvXkXpXpXvXnXpXkXkXlXlXlXnXvXvXvXvXvXvXvXvXvXbXbXbXmXMXnXlXnXnXnXMXbXnXpXbXMXvXvXmXnXnXnXbXbXbXvXvXvXMXnXpXpXSXnXCXMXnXnXMXCXCXbXbXnXnXSXSXBXZXZXZXZXZXCXZXZXSXSXBXCXCXCXCXCXCXMXMXMXmXmXmXzXkXxXpXpXxXjXfXxXxXdXfXfXfXgXdXiX0XaXfXsXtXyXeXeXwXwXwXwXwXwX2X3X2X2X2X2X2X2X2X-X-X-X2X2X-X2X-X2X2XwXwX2X4XwXeXeXyXtXtXtXtXsXsXsXsXdXsXtXyXwX2X-X-X&XOX+X.X{.].`.`.Q.K.K.H.H.N.d.p.e.e.e.q.q.7.7.6.6.6.6.6.6.6.9.9.6.9.6.6.6.6.6.6.6.6.6.6.6.6.6.6.6.6.6.0.q.q.p.p.i.a.d.d.d.n.N.M.C.S.S.S.S.S.S.S.M.M.M.m.n.x.d.d.s.i.t.w.w.w.6.6.6.6.6.6.6.6.=.=.=.=.=.=.6.6.6.6.6.6.6.6.7.7.7.7.6.6.7.0.q.q.e.e.e.a.a.a.a.a.d.d.d.d.d.d.j.n.n.N.V.N.M.M.M.M.N.N.N.N.n.n.j.n.j.j.n.j.j.j.j.d.d.d.d.d.a.a.a.a.a.a.a.a.e.e.e.r.e.e.r.r.r.r.q.q.0.0.q.0.0.7.7.7.7.7.7.7.8.8.8.w.w.h.w.6.=.=.*.*.O.%.O.o.",
"f f f f f f k k n m M V D P ^ P ~ / ] [ X.+.+.[ E M f a i i p p p p p p p p a a d d d d d d d d d d f f f d v v v n n n n G ,XU.E F P P P ~ ~ ~ ~ ~ / / / / / / / / ` ` ` ` ] ] ] ] ` ' [ [ [ X.X.X.o.o.O.+.O.O.*.*.*.@.#.6.6.7.0.0.q.q.y.0.0.0.0.i.i.d.j.j.j.d.d.g.g.g.s.s.i.p.t.0.7.7.w.9.9.9.9.9.6.9.=.=.6.6.=.=.=.=.6.9.9.9.9.9.0.0.t.y.y.y.i.f.d.d.x.N.m.M.C.Z.Y.T.^.oX%X3X8XtXdXjXhXhXhXlXlXlXvXvXhXhXiX4X1X#X X!.Y.C.A.N.n.n.n.x.x.x.x.x.x.x.d.d.d.d.d.d.x.x.x.x.x.x.n.n.n.m.m.m.M.M.M.M.M.C.C.J.J.R.E.W.~.~._.].!.!.!..XOX X!.!.!.!.'. XXX X!. X#X@X X X X%X%X XXX#X#XXX#XXXXX X X*X3X*X@X@X@X@X$X3X*X XXX*X*X%X*X*X1X1XqXqXeXtX5X1XqXqXqXqX@X@X$X-X*XXX X X.X.X.X.X.X.X.X.X.XXX#X!.!.*X3X3X*X@X@X@XqXqXqXqX0XaXiXpXpXxXlXvXMXCXZXDXGXLXLXLXJXLXPXPXFXJXLXFXPXVXSXSXSXVXZXCXnXSXnXmXvXlXpXpXpXpXpXlXkXkXlXlXnXnXCXCXZXZXZXZXDXDXDXDXZXZXZXZXCXbXnXlXnXmXvXlXpXpXxXxXpXlXlXpXpXnXkXpXkXkXlXlXnXlXpXpXlXlXlXlXpXpXlXlXlXlXlXnXbXlXlXvXbXbXbXlXpXbXvXlXlXnXnXnXnXbXbXbXvXvXbXbXlXpXSXCXCXSXlXSXSXSXSXnXbXCXCXSXSXZXZXVXSXSXSXSXSXSXVXZXCXnXbXCXCXCXMXMXMXMXMXmXmXmXzXjXxXxXxXjXgXaX0X0X0XcXcX0XaXfXjXiX0XaX9XtXyXeXeXeXwXwXwXwXwX2X3X2X2X2X2X2X2X2X-X-X2X2X2X2X-X-X3X3XwXwX5X5XwXeXeXyXtXtXtXtXsXsXsXsXgXsXtXyX5X2X-X&X&XOX+X.X{.]._.`.`.Q.K.K.H.N.d.a.p.e.e.e.q.q.7.7.7.7.6.6.6.6.6.6.9.6.6.6.6.6.6.6.6.6.6.6.6.6.6.6.6.6.6.0.q.q.t.p.i.i.d.d.d.n.N.m.M.S.S.S.S.S.S.S.M.M.M.B.N.n.d.d.s.i.p.q.q.w.6.w.w.6.6.6.6.6.6.6.6.6.=.=.6.6.6.6.6.6.6.6.6.6.7.7.6.6.7.0.q.q.e.e.p.a.a.d.d.d.d.d.j.j.j.j.n.n.N.V.B.B.V.V.M.M.N.N.N.N.n.V.n.n.n.n.n.l.j.j.j.j.j.d.d.d.a.a.a.a.a.p.a.p.e.e.e.e.e.e.e.r.e.r.r.q.q.q.q.0.q.7.7.7.7.6.6.6.7.7.7.6.6.h.h.w.=.=.=.@.@.%.O.O.",
"f f f f f f k k n m M V D P ~ P ~ / ] [ X.+.+.' E n f a i i i p p p p p p p a a d d d d d d d d d d f f f f v v v n n n n v ,.1.E F P P P ~ ~ ~ ~ ~ / / / / / / / / ` ` ` ` ] ] ] ] ' ' [ [ [ [ X.X.X.o.o.O.O.O.%.*.@.@.#.#.6.9.0.q.q.y.y.y.t.t.i.i.d.d.n.n.n.j.d.d.g.g.s.s.i.p.t.0.7.7.9.9.9.9.9.6.6.9.6.=.6.6.6.=.=.=.6.9.9.9.9.9.0.0.t.y.y.y.y.s.f.d.x.n.m.M.A.C.F.Y.~..X%X3XyXdXjXkXkXkXkXlXvXvXnXnXvXkXhXiX4X$X@X!.Y.Z.A.M.N.n.n.x.x.x.x.x.x.x.d.d.d.d.d.d.x.x.x.x.x.x.n.n.n.m.m.m.M.M.M.M.M.C.H.J.J.R.W.W.~.~._.T.!.oX.X'.'.!.!.!.'.'.!.'.XX X!. X@X@X X X X%X%X XXXXX#X&X%XXX@X#X=X1X@X@X@X@X*X@X@X3X3X@X@X*X*X;X*X1X@X4X8XqXqX1XqXqX1XqXqX1X@X@X@X@X@X%XXX X X X.X.X.X.X.X.X.X X!.$X=X%X#X@X@X@X1X1X6X6XqXqX0X0XiXhXxXpXxXnXbXCXZXDXFXLXLXLXJXPXPXLXLXPXPXPXDXFXDXZXVXSXSXSXnXnXnXlXxXlXlXhXhXhXxXpXpXlXlXlXlXlXbXCXCXZXZXZXDXDXDXDXZXZXZXZXBXnXSXbXnXlXkXkXkXkXkXkXlXlXkXvXpXlXlXpXkXlXlXnXlXlXlXlXlXlXlXlXlXlXlXnXnXnXnXpXmXvXlXnXbXbXnXpXnXnXnXlXlXlXvXnXnXbXbXbXvXmXnXpXpXnXnXlXlXnXnXnXnXbXbXbXSXSXSXZXZXSXSXVXVXVXZXZXVXVXVXVXBXBXbXnXCXCXbXbXbXmXmXmXmXlXxXxXxXxXxXpXaXaXgXgXaXgXaXaXrXrXiXiXdXsX9X9XyXeXeXwXwXwXwXwXwX2X3X2X2X2X2X2X2X2X-X-X2X2X2X2X-X3X3X2X2X2X5X5XwXeXeXyXtXtXtXtXsXsXsXsXgXsXtXyX5X2X-X&X%XOX+X.X{.]._.`.`.E.J.K.H.N.d.a.p.e.e.e.q.0.7.7.7.7.6.6.6.6.6.6.6.6.6.6.6.6.6.6.6.6.6.6.6.6.6.6.6.6.6.0.q.0.i.i.i.i.d.d.d.n.n.m.M.S.S.S.S.S.S.S.M.M.M.m.n.n.d.d.s.p.p.q.q.w.w.w.w.6.6.6.6.6.6.6.6.6.=.=.6.6.6.6.6.6.6.6.6.6.7.7.7.7.7.0.q.r.r.e.i.a.a.d.d.d.d.d.j.k.j.j.n.n.N.V.B.B.V.V.M.M.N.N.N.N.V.V.n.n.n.n.n.n.j.j.j.j.d.d.d.d.a.a.a.a.a.p.p.p.e.e.e.e.e.e.e.r.e.r.r.q.q.q.q.0.q.7.7.7.7.6.6.6.7.7.7.6.6.h.g.h.w.=.=.*.*.@.@.O.",
"f f f f f f f k n m V V D P U I ~ / ] [ X.o.+.' S n f a i p i i p p p p p p a a a a d d d d d d d d d f f f f f n n n n n M S F E F P P I ~ ~ ~ ~ ~ / / / / / / / / / / ` ` ] ] ] ] ] ] ' [ [ [ X.X.X.X.o.o.O.O.%.*.@.@.@.#.9.w.q.q.q.q.y.t.t.i.f.d.n.n.N.n.n.N.n.n.x.g.d.f.i.i.i.t.0.0.w.w.9.9.6.6.6.9.=.6.6.6.6.6.=.=.9.9.9.9.9.9.9.0.0.y.y.y.y.f.d.d.x.n.m.M.A.C.Z.R.W..X%X5XtXdXjXvXvXnXnXvXnXnXnXnXnXnXkXhX0XqX@X X~.Y.Z.M.m.N.m.n.x.x.x.x.x.x.d.d.d.d.d.d.x.x.x.x.x.x.m.m.m.m.m.m.M.M.M.M.B.S.C.G.J.R.Q.W.~.~._.T.!.+X[.!.!.!.!.!.'.!.!.!.XX X!. X$X@X!.'. X%X#X X XXX#X&X%X X X=X3X@X@X@X@X1X1X@X@X6XwX@X@X*X*X1X1X1X@X8X0X1X1X1X1X1X2X1X1X1X1X1X@X@X X XXXXX X X.X.X{.{..X.X.X X X1X*X X X@X@X@X1X1X1X6XqXqXqXqXaXhXjXxXpXlXnXBXZXDXFXLXLXLXLXPXPXLXFXPXPXPXFXDXFXZXVXSXSXSXSXnXlXpXpXkXhXhXlXlXlXlXxXxXlXnXnXSXnXCXBXZXZXZXZXZXDXDXDXZXZXZXVXSXnXMXlXlXlXkXnXlXlXlXlXlXnXmXpXlXlXpXnXlXlXvXlXlXlXlXlXlXlXlXlXlXlXnXnXvXnXpXMXnXnXvXbXbXnXlXnXnXSXnXnXnXbXlXnXbXMXbXbXMXnXpXnXnXnXlXSXbXbXbXbXbXbXBXVXSXSXVXVXSXSXVXZXVXZXZXZXZXBXSXVXZXBXSXbXBXbXbXMXvXvXvXkXlXpXxXxXgXaXaXgXxXgXgXgXgXgXgXaXiX0X0XdXaXtX7XyXeXeXwXwXwXwXwX2X2X2X2X3X3X2X2X2X2X-X-X2X2X2X2X3X3X3X3XwXwXwXwXwXeXeXyXtXtXtXtXsXsXsXsXsXsXtXeX4X2X-X&X%XOX+X.X{.]._.`.`.E.K.H.H.N.d.a.p.e.e.e.q.0.7.7.7.7.7.6.6.6.6.6.6.6.6.6.6.6.6.6.6.6.6.6.6.6.6.6.6.6.6.7.q.0.i.i.i.a.d.d.d.n.n.m.M.M.S.S.S.S.B.B.M.M.M.M.n.n.d.d.s.a.p.q.q.8.8.6.6.6.6.6.6.6.=.=.=.=.6.6.=.=.6.6.6.6.6.6.6.6.6.6.6.7.7.7.q.r.r.e.i.a.d.d.d.k.d.j.n.n.n.j.n.n.N.B.B.B.M.M.M.M.M.M.M.M.V.V.V.n.n.j.j.j.j.j.j.d.d.d.d.d.a.a.a.a.p.p.p.p.p.e.e.e.e.e.r.r.e.e.q.q.q.q.q.8.8.8.7.7.7.7.7.7.7.7.7.6.6.8.g.g.h.w.6.=.@.@.@.@.",
"f f f f f f f k n m M V D U U I ~ / ] [ X.o.+.' S n f a p p i i p p p p p p a a a a p d d d d d d d d f f f f f n n n n m M D F F F P P I ~ ~ ~ ~ ~ / / / / / / / / / / ` ` ] ] ] ] ] ] ' [ [ [ [ X.X.X.o.o.O.O.O.%.@.@.@.#.=.9.q.q.q.q.t.y.f.d.d.x.V.B.M.M.M.m.m.n.n.x.x.d.f.i.i.i.t.0.0.w.w.9.6.6.6.9.=.=.6.6.6.6.=.=.9.9.9.9.9.9.9.0.0.y.y.y.y.s.f.d.x.n.m.M.A.C.Z.R.W..X%X5XrXhXkXvXbXnXbXvXnXnXnXbXbXnXvXhXpX0X1X@X~.Y.Z.A.m.N.m.n.x.x.x.x.x.x.d.d.d.d.x.x.x.x.x.x.x.x.n.n.m.m.m.m.M.M.M.M.B.S.S.G.J.E.W.W.~.~.W.~.'.[.!.!.'.'.!.!.!.!.!. XXX X!. X#X@X!. X X%X#X X XXX#X%X%XXX@X*X@X@X@X1X1X@X@X@X1X5X6X@X@X1X*X2X1X@X4X4XqXqX1X4X4X1X@X@X@X1X1X1X@X@X X X X%X X X.X.X.X{..X.X X X$X*X X XXX@X@X@X@X@X@X@XqXqX0X0X0XaXxXhXxXlXnXBXVXDXFXLXLXLXPXPXPXPXPXFXLXPXVXSXSXVXVXZXZXbXnXlXlXlXlXpXpXpXpXpXpXhXkXlXlXlXMXnXnXBXZXZXZXZXZXZXDXDXDXZXZXZXBXnXnXnXlXlXlXlXlXpXpXpXlXlXnXlXpXnXlXpXnXlXlXnXlXlXpXpXpXpXpXpXpXpXpXpXlXlXpXpXMXlXlXvXbXbXvXlXnXnXSXnXnXnXnXlXnXbXMXbXbXnXnXnXMXSXlXnXbXnXSXSXSXSXSXVXBXBXVXSXSXVXZXSXSXSXSXSXVXZXBXBXBXBXVXSXSXbXMXbXMXvXvXmXlXxXxXkXjXpXaXgXgXaX0X0XaX0XcX0XaXdXaXcXiXaXsXqXyXeXeXwXwXwXwX2X2X-X2X2X3X3X2X2X2X2X-X-X2X2X2X2X3X3X3X3XwXwXwXwXwXeXeXyXtXtXtXtXsXsXsXsXsXsXtXeX4X2X=X&X%XOX+X.X{.]._.`.`.E.K.J.H.N.d.a.p.p.e.e.q.0.7.7.7.7.7.6.6.6.6.6.6.6.6.6.6.6.6.6.6.6.6.6.6.6.6.6.6.6.6.7.q.0.i.i.i.a.d.d.d.n.n.m.M.B.S.S.S.S.S.B.M.M.M.M.n.n.d.d.s.a.p.q.q.8.8.w.6.6.6.6.6.6.=.=.=.=.6.6.6.=.;.6.6.6.6.6.6.6.6.6.7.7.7.7.q.r.r.e.i.a.d.d.k.d.d.d.n.n.j.j.n.n.N.B.B.B.M.M.M.M.M.M.M.M.V.V.N.n.n.j.j.j.j.j.j.d.d.d.d.d.a.a.a.a.a.a.p.p.e.e.e.e.e.e.r.r.e.e.q.q.q.q.8.8.8.8.7.7.7.7.7.7.7.7.7.6.6.7.e.h.q.w.6.=.*.*.@.@.",
"f f f f f f f k n m M V D U ( I ^ / ] [ X.+.$.' M n f a i p i i p p p p p p a a p p p p d d d d d d f f f f v v v n n n m V D L P P P P P I ~ ~ ~ ~ ~ ~ ~ ~ / / / / / / ` ` ] ] ` ` ] ] ] [ [ [ [ [ X.X.o.o.o.O.O.O.@.@.@.#.9.w.q.y.y.y.y.f.d.x.n.m.B.S.C.C.C.M.M.m.N.n.n.n.f.f.i.i.i.0.q.q.w.9.9.6.6.9.=.=.=.=.6.6.6.9.9.9.9.9.9.9.9.0.0.y.y.y.s.s.d.d.x.n.m.M.C.C.C.Z.W.[.*X4XaXxXkXbXbXbXbXbXbXbXbXbXbXbXbXvXhXiXqX$X XT.F.A.m.m.m.m.x.x.x.x.x.x.d.d.d.d.x.x.x.x.x.x.x.x.m.m.n.m.m.m.M.M.M.M.M.S.C.G.J.E.W.W.~.'.T.[.oX!.!.!.'.!.!.!. XoXXXXX X'.!. X@X X!.!.'.XXXX X XXXXXXXXX@X*X;X@X*X1X*X@X@X6X6X5X1X@X@X*X1X2X1X1XqXyXqXqXqX4XqXqXqXqX1X1X1X1X1X@X@X X X X&X X X.X.X.X{..X.X X%X=X@X X XXXXX X@X*X6X6X6XqXqXqX0X0X0XaXhXxXpXnXVXVXPXFXGXLXLXPXPXPXPXPXFXPXPXPXPXPXVXVXSXSXbXbXnXlXlXlXxXlXlXlXlXlXxXlXkXlXpXbXnXnXVXZXZXZXZXZXZXZXZXDXZXZXVXVXBXbXlXnXlXlXpXlXlXlXnXvXmXnXpXlXvXlXpXlXlXlXnXlXlXlXnXnXnXvXnXvXvXvXvXbXvXnXMXMXnXnXMXMXbXnXlXnXnXnXnXnXnXvXlXnXbXMXMXMXnXnXCXCXSXSXbXbXnXbXBXBXBXVXSXVXZXZXVXVXZXZXSXSXVXVXVXSXSXVXZXCXnXSXCXbXnXbXbXmXvXvXvXlXlXkXkXxXxXhXxXaXaXgXxXfXfXxXaXcX0XiXiXqXaXdXqX9XeXeX5XwXwXwX2X2X2X2X2X3X3X2X2X2X2X2X2X2X2X2X2X3X2XwXwXwXwXwXwXeXeXtXtXtXtXtXtXtXtXtXtXsXsXtXeX4X2X=X&X%XOX+X.X{.|._._.`.E.K.K.K.B.d.a.a.e.p.e.e.q.q.0.0.7.7.6.6.6.6.6.6.6.6.6.6.6.6.6.6.6.6.6.6.6.6.6.6.6.6.7.q.0.i.i.i.a.d.d.d.n.n.n.M.B.S.S.S.S.S.B.M.M.M.M.n.n.j.d.d.a.p.e.q.w.8.w.6.6.6.6.6.6.=.=.6.6.6.6.6.6.;.;.6.6.6.6.6.6.7.7.7.7.7.7.q.r.e.e.a.a.d.k.k.j.j.n.n.n.n.n.n.n.B.B.B.B.M.M.M.M.B.B.B.B.M.M.V.n.n.j.j.j.j.j.j.d.d.d.d.d.a.a.d.a.a.p.p.p.e.e.e.e.e.e.r.r.e.e.q.q.q.q.8.7.8.8.8.7.7.7.6.6.6.6.6.6.6.6.w.w.w.;.=.*.*.*.*.*.",
"d d f f f f f k n m m V D I ( I ^ / ] [ X.+.$.' M n f g i p i i p p p p p p a a p p p p d d d d d d d d f f v v v v n k m V D P P L P P P P ~ ~ ~ ~ ~ ~ ~ / / / / / / / / ` ` ` ` ` ` ` ] [ [ [ [ [ [ X.X.o.o.O.O.O.@.@.@.#.9.0.y.y.y.y.s.x.x.x.m.M.S.H.H.G.C.M.M.M.m.N.n.n.n.f.f.i.i.p.q.q.w.w.9.9.6.9.=.=.=.=.6.6.6.=.9.9.9.9.9.9.9.0.0.t.y.y.s.s.d.d.x.n.m.M.C.C.C.Z.Y.[.%X4XrXxXkXbXbXbXbXbXbXbXbXbXbXbXbXvXjXaX7X1XXX!.Y.Z.m.m.m.m.x.x.x.x.x.x.d.d.d.d.x.x.x.x.x.x.x.x.m.m.n.m.m.m.M.M.C.M.M.S.C.G.J.E.W.W.W.T.~.[.[.!.~.!.!.!.[.!.!.!.!.!.!.!.!.!. X X!.!.'.XXXX X XXXXX X X*X3X@X@X1X*X@X6X5X5X1X1X1X@X1X2X2X2X;XqXyX7XqXqX7X1XqX7XqXqX1X1X1X4X1X@X@X;X X X-X X X X.X.X.X.X X X%X*X X%X X XXX#X#X=X1X6X6X1XqX7XqXqXrXaXpXxXpXlXVXVXPXDXGXGXPXPXPXPXGXLXPXPXPXFXDXPXVXVXVXBXSXnXMXnXpXpXkXlXlXlXlXkXlXxXlXlXpXnXMXbXSXBXZXZXZXZXZXZXZXZXZXZXSXVXBXnXnXMXlXlXlXlXnXnXlXlXlXlXpXvXnXlXpXlXlXlXnXlXkXvXnXnXnXnXnXnXnXnXnXnXvXnXlXlXnXbXMXMXMXbXlXnXnXlXnXnXnXvXSXnXbXMXMXMXnXnXCXnXnXbXbXbXbXbXVXVXBXBXVXVXVXVXDXDXVXVXVXZXZXVXVXZXZXBXbXCXSXnXZXCXnXnXmXmXmXvXkXpXkXkXpXpXxXhXpXpXxXhXgXgXfXjXxXaXiXaXaXcXaXsXqX7XeXeX5XwXwXwX2X2X2X3X3X3X3X2X2X2X2X2X2X2X2X2X2X3X2XwX3XwXwXwXwXeXeXtXtXtXtXtXtXtXtXtXtXsXsXtXeX5X2X=X&X%XOX+X.X{.|._._.`.E.K.K.K.M.n.a.a.e.p.e.e.q.q.0.0.7.7.6.6.6.6.6.6.6.6.6.6.6.6.6.6.6.6.6.6.6.6.6.6.6.6.7.q.0.i.i.i.a.d.d.d.n.n.n.M.B.S.S.S.S.S.B.M.M.M.M.n.n.j.d.d.a.p.e.q.w.8.w.6.6.6.6.6.6.=.=.6.6.6.6.6.=.;.;.6.6.6.6.6.6.7.7.7.7.7.7.q.r.e.e.a.a.d.k.k.j.j.j.n.n.n.n.n.N.V.B.B.B.M.M.M.M.B.B.B.B.M.V.V.n.n.j.j.j.j.j.j.d.d.d.d.d.d.d.d.a.a.p.p.p.e.e.e.e.e.e.r.r.e.e.e.q.q.q.8.7.8.8.8.7.8.6.6.6.6.6.6.6.6.=.=.=.=.=.=.*.*.*.*.*.",
"f f f f f f f k n n m V S P U P ~ / ] [ o.+.:.' S n k g p u i i i i i p p p p p p p d d d d d d d d d d f f f f v v n k l B D U L L P P P P ~ ~ ~ ~ ~ ~ ~ ~ / / / / / / / / ` ` ` ` ` ` ] ] [ [ [ [ X.[ X.o.o.o.O.O.O.@.@.#.9.q.y.y.y.s.d.x.m.m.M.S.J.K.J.F.G.G.G.C.S.M.M.N.n.n.f.f.i.i.q.q.w.w.w.9.6.9.6.6.=.=.6.6.6.=.;.6.6.6.9.w.w.0.0.q.t.t.i.s.d.d.d.n.N.M.M.C.S.Z.Y.[.#X4XrXjXvXbXBXBXbXbXbXbXBXBXbXbXbXbXkXdX9XqX#X!.T.Z.A.m.m.n.n.n.x.x.x.x.x.x.x.x.x.x.x.x.n.n.n.n.m.m.m.m.M.M.C.C.C.S.S.S.S.G.Y.R.W.W.T.Z.[.[.!.[.!.!.!..X[.!.!.!.T.T.!.!.!.!. X X!.!.!.XXXX X X#X#X X X3X3X@X@X*X@X6X5X5X1X1X1X1X1X2X4X4X2X@XqXsXqXqX0X7XqX7XrXqXqXqX1X4X2X@X@X*X;X X X-X X X X.X.XoX.X!.XX$X X XOX'. XXX%X#X@X$X*X@X1XqX0XcXqX0XgXpXxXkXpXbXVXPXDXFXPXVXPXPXPXLXFXPXFXFXFXDXVXSXVXZXBXSXnXbXnXpXkXlXlXpXpXlXlXlXkXpXlXlXlXMXBXSXBXZXZXZXZXZXZXZXZXDXZXSXBXBXnXnXMXnXnXnXlXlXlXlXlXlXlXlXnXnXlXpXnXlXlXnXlXnXvXlXlXlXnXlXlXlXnXlXlXpXlXlXSXnXbXMXMXCXbXlXnXnXnXnXnXnXnXSXnXbXbXCXbXSXSXBXSXbXBXSXSXSXSXSXSXVXVXVXVXSXVXDXHXVXVXDXVXVXVXSXBXZXZXSXBXSXnXCXCXSXnXMXvXvXkXkXpXzXkXpXxXxXxXxXhXhXgX0XaXxXjXgXaXgXaX0XqXaXtXqX7XeXeXwXwXwXwXwX2X2X2X2X3X3X2X2X2X2X2X2X2X2X3X2X3X3X2X2XwXwXwXeXeXeXtXtXsXsXsXsXsXsXtXsXsXsXtXeX5X3X-X&X&XOX+X.X{.].|._.`.`.E.K.K.M.n.d.g.a.e.e.e.q.q.0.0.7.7.6.6.6.6.6.6.6.6.6.6.6.6.6.6.6.6.6.6.6.6.6.6.6.6.7.0.r.i.i.i.a.d.d.d.n.n.N.M.S.B.B.S.B.S.B.M.M.M.M.n.n.d.d.d.a.p.p.q.w.w.6.6.6.6.6.6.6.6.6.6.6.=.=.=.6.6.6.6.6.6.6.6.6.6.6.6.6.8.q.e.e.r.e.a.a.k.k.j.j.n.n.n.n.N.N.M.M.B.M.B.B.B.M.M.B.M.M.M.B.B.B.N.n.n.n.j.j.j.j.j.d.d.d.d.d.a.a.a.a.a.p.e.e.e.e.e.e.e.e.e.e.e.e.e.q.q.q.q.8.8.8.8.8.6.6.6.6.w.6.6.6.6.6.=.=.6.=.;.=.=.w.w.w.",
"f f f f f f f k z m m V S P U P ~ / ] [ o.+.>./ M n f g i u u i i i p p p p p p p p d d d d d d d d d d f f f f v f k k k m D P P L P P P P P P ~ ~ ~ ~ ~ ~ / / / / / / / / / / / / ` ` ` ] ] [ [ [ [ [ [ X.o.o.o.O.O.@.@.#.9.q.p.s.s.s.c.m.m.C.S.S.K.E.E.E.K.F.J.J.J.C.C.M.N.n.n.d.f.i.t.q.w.w.w.9.6.9.6.6.=.=.6.6.6.=.;.6.6.6.9.w.w.w.0.q.t.t.i.s.d.d.d.n.N.m.M.C.S.Z.Y.[.XX2XrXxXkXbXBXBXBXBXbXbXBXBXbXbXbXbXvXjXaX7X$X X!.Y.A.m.m.n.n.n.x.x.x.x.x.x.x.x.x.x.x.x.n.n.n.n.m.m.m.m.M.M.C.C.C.S.S.S.H.G.Y.E.W.T.Y.Y.oX!.T.~.!.!..X.XT.!.!.T.T.T.~.T.T.!.oX^.!.!.!..XXX!. X#X#X X@X3X*X@X@X@X@X6X1X@X1X6X6X6X5X2X2X5X4X1X4XsXqX0X0XqX0X9X9XqXcXqX7X4X1X@X@X@X X;X-X%X X X XoX.X.X.X X#X#X X XXX XXX%XXX X@X@X@X@X@X@X7X7X0X0XgXpXpXvXlXnXBXVXDXFXPXSXPXPXPXLXPXLXLXPXPXFXFXVXSXVXSXSXnXnXnXpXvXlXlXlXlXlXlXlXvXpXpXnXpXbXbXSXBXZXZXZXZXZXZXZXZXDXZXSXBXBXnXbXnXnXnXnXlXlXlXlXnXnXvXvXnXnXlXpXnXlXlXkXpXnXvXpXlXnXvXvXvXvXvXvXnXnXnXnXbXbXbXbXbXMXbXlXnXnXnXnXnXnXbXSXnXbXBXCXbXSXSXbXSXVXBXSXZXSXSXSXSXVXVXVXZXSXSXDXZXVXVXDXSXVXVXVXVXBXBXVXSXVXbXbXCXSXlXvXmXmXkXlXpXkXxXpXxXpXpXjXjXpXcX0XiXxXgXaXgXgXiXqX0XgXtX7X7XeXeXwXwXwXwXwX2X2X2X2X3X3X2X2X2X2X2X2X2X2X3X3X3X3X2X2XwXwXwXeXeXtXtXtXsXsXsXsXsXsXtXsXsXtXyXeX5X3X-X&X&XOX+X.X{.].|.|.`.`.E.K.K.M.n.d.d.d.e.e.e.q.q.0.7.7.7.6.6.6.6.6.6.6.6.6.6.6.6.6.6.6.6.6.6.6.6.6.6.6.6.7.0.r.i.i.i.a.d.d.d.x.n.N.M.S.S.S.S.B.S.B.M.M.M.M.n.n.d.d.d.i.p.p.q.w.6.6.6.6.6.6.6.6.=.=.6.6.=.=.=.=.6.6.6.6.6.6.6.6.6.6.6.6.8.q.e.e.r.e.i.a.j.j.j.j.n.n.n.n.N.N.M.M.M.M.B.B.M.M.M.M.M.M.M.M.B.B.N.n.n.n.j.j.j.j.j.d.d.d.d.d.a.a.a.a.a.p.e.e.e.e.e.e.e.e.e.e.e.e.e.q.q.q.q.8.8.8.8.8.7.6.6.6.6.6.7.7.7.7.7.8.w.w.w.q.q.h.p.h.",
"f f f f f f f k z m m V S P ~ I ~ / ] [ o.+.:.( M n f a i u u u i i i i p p p p p d d d d d d d d d d d f f f f v f k k k m D P P L P P P P ~ ~ ~ ~ ~ ~ ~ ~ / / / / / / / / / / / / ` ` ` ] ] [ [ [ [ [ [ [ X.o.o.o.O.@.@.=.w.t.s.s.d.x.n.m.C.C.J.J.E.Q.`.T.E.E.E.E.J.J.G.M.M.n.n.n.d.f.p.y.q.w.w.w.9.6.6.6.6.6.=.w.6.6.9.w.6.6.w.w.w.w.q.t.t.i.p.s.d.d.x.n.V.B.S.S.S.Z.Y.[.XX*X7XgXjXvXBXBXBXBXBXBXBXBXBXBXBXbXvXkXfX0X1XXX!.Y.C.N.m.m.n.n.n.n.n.n.n.n.x.x.x.x.x.n.n.n.n.n.m.m.m.m.M.M.C.C.C.S.C.S.S.G.F.E.W.T.Y.!.oX!.T.T.T.[.oX!.Y.T.W.W.W.W.W.T.T.!.oX^.!.!.!..XXX X X#X#X X@X3X@X@X@X@X@X2X1X1X5X4X4X5X4X4X4XwX4X1X7XyXqXqX0X9XaX0X0XqXqX9X9X1X@X@X@X@X@X-X-X X X XXXXXXX.X X X=X@X X X'.OXOXXXXX@X@X*X*X*X@X@XqXtXaXcXaXpXpXmXnXSXSXVXDXFXPXPXGXPXPXPXPXLXLXVXFXGXFXDXVXSXSXnXSXnXnXlXvXxXlXlXlXlXlXpXvXpXpXvXpXnXnXSXBXZXZXZXZXZXZXZXZXDXZXSXCXSXnXCXSXnXnXlXlXnXvXvXvXvXvXvXvXvXlXpXnXlXlXkXpXnXnXpXlXvXbXbXMXMXmXMXnXnXnXnXbXnXbXbXbXMXbXlXnXnXSXnXnXnXbXSXSXbXBXCXBXSXbXSXSXVXVXVXZXSXVXZXVXZXZXSXZXVXVXZXZXVXZXZXSXZXDXZXVXSXVXZXSXBXBXnXCXSXlXnXmXmXkXpXxXxXxXxXxXpXxXjXgXaXpXiXxXgXiXaXgXiXiX0XgX0X7XrXeXeXeXwXwXwXwXwXwXwX2X2XwXwX2X2X2X2X3X3X3X3XwXwXwXwXwXwXwXwXeXeXeXtXtXtXsXsXsXsXtXsXtXtXtXtXyXeX5X3X-X&X&XOX+X.X{.|.|.`.`.`.E.K.K.B.n.k.g.a.e.e.e.r.q.q.q.7.7.6.7.7.6.6.6.6.6.6.6.6.6.6.6.6.6.6.6.6.6.6.6.6.6.7.0.0.i.i.i.a.d.d.d.n.N.m.M.S.S.S.S.S.S.B.M.M.M.M.n.n.j.d.d.i.p.p.e.w.6.6.6.6.6.6.6.6.=.=.=.=.=.=.=.=.6.6.6.6.6.6.6.6.6.6.6.6.8.8.q.r.e.i.a.a.j.j.n.n.n.n.n.N.N.N.B.B.M.B.B.B.B.B.B.B.B.B.M.M.B.B.M.n.n.j.j.j.j.j.k.d.d.d.d.d.a.a.a.a.a.p.p.e.e.e.e.e.e.e.e.e.q.q.q.q.q.q.q.8.8.7.7.7.7.7.7.7.7.7.8.r.e.a.d.d.d.d.d.g.g.g.a.p.",
"f f f f f f f k z m m M S P ~ I ~ / ] [ o.+.:.( M v f a i u u u p p i i p p p p p p d d d d d d d d d d f f f f v f f k n m D P L F F F P P ~ ~ ~ ~ ~ ~ ~ ~ / / / / / / / / / / / / / / ` ` ] [ [ [ [ [ [ [ [ X.X.o.O.@.@.#.w.t.f.d.x.x.m.A.C.G.F.E.Q.`.`._._.W.W.T.E.K.J.G.M.M.N.n.d.d.a.y.q.w.w.9.6.6.6.6.6.6.;.w.6.6.9.w.9.6.w.w.w.w.q.t.t.i.i.s.d.d.x.n.V.B.B.S.S.G.Y.].XX*X4XaXhXvXbXBXBXBXBXBXBXBXBXBXBXbXvXkXfXtX2XXX[.Y.C.m.m.m.n.n.n.n.n.n.n.n.x.x.x.x.n.n.n.n.n.n.m.m.m.m.M.M.C.C.C.S.C.S.S.G.F.E.W.Y.Y.[.oX!.T.T.T.^.!.Y.W.T.Y.E.E.E.T.T.T.!.oX!.!.!.!..X.X'. XXX#X X@X3X@X@X@X@X1X5X1X4X5X6X4X4X4X4X4X4X2X4X7X7XqX0X0XaXaX0XcXcX0X0XqXqX1X@X@X;X*X%XXX X#XXXXXXXXX.X XXX6X@X X X'.XXXX X X%X*X*X*X*X1X6XqX7X0XcX0XaXpXvXnXSXSXVXDXPXPXPXLXPXPXPXSXLXFXVXJXFXDXHXZXSXSXbXlXnXnXlXlXpXxXlXlXlXxXpXkXlXpXkXpXnXnXSXBXZXZXZXZXZXZXZXZXDXZXSXCXSXnXCXlXnXnXlXSXnXvXnXnXnXvXvXvXvXlXpXnXlXlXkXpXnXnXpXlXvXbXvXnXvXvXnXSXlXSXSXnXbXMXbXbXMXbXlXnXnXSXnXnXnXbXSXnXMXCXCXBXSXVXVXSXVXVXVXDXSXVXZXZXDXZXSXVXVXVXZXZXVXZXVXSXVXZXDXZXBXVXZXSXVXbXSXbXnXlXlXvXmXlXpXxXxXxXxXhXhXhXpX0XaXgXfXxXiXgXxXaX0XaXsXrXqX7XyXeXeXeXwXwXwXwXwXwXwX2X2XwXwX2X2X2X2X3X3X3X3X2X2XwXwXwX5XwXeXeXeXeXtXtXtXsXsXsXsXsXtXtXtXtXtXyX8X5X2X-X&X&XOX+X.X{.].|.|.`.`.E.K.H.C.n.k.d.d.e.e.e.r.q.q.q.7.7.7.7.7.6.6.6.6.6.6.6.6.6.6.6.6.6.6.6.6.6.6.6.6.6.7.0.r.i.i.i.d.d.d.d.n.n.m.M.B.S.S.S.S.S.B.M.M.M.M.n.n.j.d.d.i.a.p.q.0.6.6.6.6.6.6.6.6.=.=.=.=.=.=.=.=.6.6.6.6.6.6.6.6.6.6.6.6.8.8.q.r.e.i.a.d.j.j.n.n.n.n.N.N.N.N.B.B.M.B.B.B.B.B.B.B.B.B.M.M.B.B.M.n.n.j.j.j.j.j.k.k.d.d.d.d.a.a.a.a.a.p.p.p.e.e.e.e.e.e.e.e.e.q.q.q.q.q.q.8.8.7.8.7.7.7.7.7.7.7.r.e.k.l.l.V.V.V.V.l.l.d.a.i.",
"f f f f f f j k z m m M C P ^ I ~ / ] [ +.+.:.( M v f a u u u u i i i i i i i i i i p p d d d d d d d d f f f f v v n k k m G P L F F F L L P P P ~ ~ ~ ~ ^ / / / / / / / / / / / / ` ` ` ` ] [ [ [ [ [ [ [ [ X.X.o.O.@.#.#.0.y.f.d.n.m.A.C.Z.F.F.E.`.`._.'.'.'._._.T.W.K.F.C.M.n.n.n.d.i.t.y.w.9.9.9.9.9.9.6.6.6.6.6.6.9.9.w.w.w.w.w.w.0.t.t.i.i.d.d.d.x.n.N.B.S.S.S.J.Y.~..X%X2XyXgXjXvXBXBXBXBXBXCXCXBXBXbXMXnXlXfXrX2XXX[.T.Z.m.m.m.n.n.n.n.n.n.x.x.x.x.x.x.n.n.n.n.n.m.m.m.m.m.C.C.C.C.C.S.S.H.G.J.F.E.W.Z.Y.oXoX!.Y.Y.!.^.!.Y.W.R.K.K.K.E.R.T.T.!.oX~.T.T.!..X.X'. XXX X X@X3X@X@X@X@X5X6X1X6X5X4X4X4X4X4X4XwX4X7X7X0XqXqX0XdXdXcXcX0X0X0XqXqX1X*X@X=X*X;X X X%X%XXXXXXX X X X6X@X X X XXX X X X%X*X*X*X*X*X5X1XqX0X0XcXaXpXvXvXSXSXVXDXPXPXPXGXPXPXPXSXFXFXVXJXFXDXDXDXSXSXCXpXnXnXlXkXpXxXxXxXlXlXpXvXlXpXkXpXnXnXSXBXZXZXZXZXZXZXZXZXZXZXSXAXVXnXCXSXnXnXlXSXMXmXvXvXvXvXvXvXvXnXxXvXnXlXnXpXnXnXpXnXvXnXnXnXvXbXlXlXnXnXnXnXnXbXbXbXCXbXlXbXbXSXnXnXSXbXSXnXbXCXCXBXSXBXVXSXVXVXVXDXVXVXDXDXDXDXVXVXVXVXVXZXVXZXZXSXVXZXHXZXVXVXZXSXVXSXpXCXnXlXvXkXmXlXpXzXlXpXxXxXxXhXpXcXpXdXdXgXdXgXiXiXaXaXaX0X0X7XyXyXeXeXwXwXwXwXwXwXwXwXwXwXwXwXwX2X2X3X5X5X3X2X2XwXwXwXwXwXeXeXeXeXtXtXtXtXtXtXtXtXtXrXrXrXyXeX5X2X-X&X&XOX+X+X.X{.|._.`.`.`.`.K.K.L.M.j.d.d.a.p.e.r.r.q.q.0.7.7.6.6.6.6.6.6.6.6.6.6.6.6.6.6.6.6.6.6.6.6.6.6.6.7.0.e.p.p.i.d.d.d.j.n.n.M.N.M.B.S.S.S.S.B.M.M.M.M.n.n.d.d.d.d.a.p.p.0.0.w.w.w.6.6.6.6.6.6.=.=.6.6.=.=.;.;.6.6.6.6.6.6.6.6.6.6.w.8.8.8.e.a.a.d.j.j.j.j.n.n.V.V.V.V.B.B.B.B.B.B.B.B.L.L.B.B.B.M.B.B.V.n.n.n.j.j.j.j.j.d.d.d.d.d.a.a.a.a.a.p.p.p.e.e.e.e.e.e.e.e.e.e.q.q.q.q.q.q.q.0.7.7.7.7.7.7.7.7.7.p.V.L.L.L.L.V.l.g.a.i.0.0.",
"f f f f f f k k z m m m C L ^ ~ ^ / ] [ o.+.1.( M v f a u u u u i i i i i i i i i i p p d d d d d d d d f f f f v v v f k m D P F F F F F L P P P ~ ~ ~ ~ ~ ^ ^ / ~ ~ ~ / / / / / / / / ` ` ] ] [ [ [ [ [ [ [ [ X.o.O.@.#.-.0.y.f.x.n.N.C.Z.G.Y.E.W._._.].'.'.'.'.]._.`.W.K.H.C.M.n.n.d.i.t.t.w.w.9.9.9.9.9.6.6.6.6.6.6.9.9.w.w.w.w.w.0.0.t.p.i.i.d.d.d.n.n.N.B.S.S.S.J.Y.~..XXX*X4XrXdXvXbXBXBXBXBXCXCXBXBXbXMXnXkXfXrX2X#X[.T.Y.C.m.m.n.n.n.n.n.n.n.n.x.x.x.x.n.n.n.n.n.m.m.m.m.m.M.C.C.C.C.H.S.H.G.J.J.R.Q.F.Y.oXoX!.T.Y.!.^.!.Y.Y.R.E.E.E.E.E.T.!.!.oX~.Y.!.!..X X!.'.XX X X@X3X@X@X@X@X8X1X1X6X5X4X4X4X4X4XwX4X4X7X7X0XcXcX0XdXaXcXcXiXiX0XqXqX@X@X*X*X@X@X#X%X%X#XXXXXXX X X X6X@X X X XXX X X X#X*X*X*X*X*X2X1XqX0XiXcXiXpXkXvXSXSXVXDXPXPXPXGXPXVXPXSXDXFXVXGXFXDXZXZXSXSXZXpXnXlXlXvXxXxXxXxXlXhXpXvXlXpXkXpXnXnXlXbXBXCXZXZXZXZXZXZXZXZXSXZXSXSXCXSXbXnXlXnXMXvXvXvXvXvXvXvXvXlXpXvXnXlXnXlXnXvXpXnXnXnXnXnXnXnXlXnXbXMXbXbXSXnXbXbXCXbXlXbXbXSXnXSXSXbXSXnXBXCXCXVXVXVXVXSXVXVXDXDXVXVXDXDXDXDXVXVXVXVXVXVXVXZXZXSXVXZXDXZXBXVXZXSXSXnXpXCXnXlXmXkXmXlXpXzXxXpXxXpXpXxXxXaXpXgXiXgXdXgXiXaXdXaX0X7XrXeXyXyXeXeXwXwXwXwXwXwXwXwXwXwXwXwXwXwXwX5X5X5X5X2X2XwX5XwXwXwXeXeXeXeXtXtXtXtXtXtXtXtXtXrXyXyXeXeX4X2X-X&X&X&X+X+X+X{.|._._._.`.`.K.K.C.M.j.k.a.p.p.e.r.r.q.q.0.7.7.6.6.6.6.6.6.6.6.6.6.6.6.6.6.6.6.6.6.6.6.6.6.6.7.0.e.p.p.i.d.d.d.j.n.n.M.M.M.B.B.S.S.S.B.M.M.M.M.N.n.d.d.d.d.a.p.p.0.0.w.w.w.6.6.6.6.6.6.=.=.6.6.=.=.;.;.6.6.6.6.6.6.6.6.6.6.w.w.8.8.r.e.a.a.k.j.j.j.n.n.V.V.V.V.B.B.B.B.B.B.L.L.L.L.B.B.B.M.B.B.V.n.n.n.j.j.j.j.j.d.d.d.d.d.a.a.a.a.a.p.p.p.e.e.e.e.e.e.e.e.e.e.e.q.q.q.q.q.q.7.7.7.7.7.7.7.7.7.7.e.V.L.L.V.l.a.r.7.6.6.6.6.",
"f f f f f f k k n m m M C L ^ ^ ^ / ] [ [ { $.E M v f a i u u u i i i i i i i i i i p p d d d d d d d d f f f f v v n v n m G P F D F F F L P P P ~ ~ ~ ~ ~ ^ ^ / / ~ ~ / / / / / / / / ` ` ] ] [ [ [ [ [ [ [ [ X.o.O.@.#.9.0.y.d.x.m.C.Z.G.F.E.W.W.].].{..X.X.X.X{.{.].`.E.K.H.M.N.n.d.f.p.t.q.w.w.w.w.9.9.9.9.6.9.w.w.w.w.0.0.0.0.0.0.0.t.i.i.f.d.d.d.n.n.B.B.S.S.J.J.R.~.[.XX#X2X7XdXkXbXBXBXBXCXCXCXBXBXCXMXnXkXxXrX2X;X X!.Y.G.m.m.n.n.n.n.n.n.n.n.n.n.n.n.n.n.n.n.m.n.m.m.m.m.C.C.C.C.C.H.G.G.J.J.J.R.Q.F.Y.oXoX!.T.Y.!.^.!.Y.T.R.E.E.E.E.E.T.!.!. X!.T.!.!..X X!.'. X X X@X3X@X@X@X@X8X1XqX1X5X4X5X5X5XwXeXeX7X7XrX0XcXcX0XdXaXcXcXiXdX0XqXqXqX1X1X;X;X%X%X%X%X%XOXXXXXXX X X1X@X X X X#X X XXX#X*X*X*X%X*X2X1XqX0XiXcX0XpXkXnXlXnXVXDXPXPXPXGXPXVXPXSXFXFXVXLXFXDXZXZXSXSXZXpXnXlXlXvXxXxXxXxXlXlXpXvXlXpXnXpXlXnXpXnXCXCXCXCXCXZXCXZXZXCXSXZXbXSXCXSXSXnXSXnXMXvXvXvXvXvXvXvXvXnXpXnXlXlXnXpXvXvXpXnXnXvXvXnXnXlXnXbXnXlXlXCXbXnXCXbXCXbXlXbXSXSXnXSXSXCXSXSXCXCXZXVXVXVXVXSXVXVXPXDXVXVXDXDXDXDXVXVXVXVXVXVXVXZXZXSXVXZXHXZXSXBXAXSXSXnXpXCXnXlXmXlXkXlXpXzXxXpXxXpXpXxXgXaXiXgXiXgXgXiXgXgXaX0X7XrXrXyXyXyXeXeXeXeXwXwXwXwXwXwXwXwXwXwXwXwXwXwXwXwXwX5X5XwXwXwXwXeXeXeXeXeXtXtXtXtXtXsXsXtXrXyXyXeXeXwX3X-X-X&X+X+X+X+X{.{.|.]._._.`.`.K.K.L.M.j.j.a.a.a.p.e.r.r.e.q.q.7.7.7.7.7.7.6.7.7.7.7.6.6.6.6.6.6.6.6.6.6.6.6.6.0.0.e.p.p.i.d.d.d.j.N.m.M.m.M.B.B.S.S.S.M.M.M.M.M.N.n.d.d.d.d.d.p.p.0.0.w.w.w.6.6.6.6.6.6.6.=.6.6.=.=.;.;.6.6.6.6.6.6.6.6.6.6.8.8.8.7.8.e.a.a.d.j.j.j.n.n.V.V.N.M.B.B.B.B.B.B.L.L.L.L.B.B.B.M.B.B.V.n.n.n.j.j.j.j.j.d.d.d.d.d.a.d.a.a.a.p.p.p.e.e.e.e.e.e.e.e.e.e.e.q.e.q.q.q.q.7.8.7.7.7.7.7.7.7.7.r.g.g.g.p.w.6.=.=.#.@.@.@.",
"f f f f f f f k n m m M C L ^ ^ ^ / ] ] [ [ $.F M v f a u u u u u u i i i i i i i i p p a d d d d d d d f f f f v v n v n m D F F D D F F F P P P P ~ ~ ~ ~ ^ ^ ~ ~ ~ ~ ~ ~ / / / / / / / ` ` ] ] ] [ [ [ [ [ [ X.o.O.@.#.9.0.p.d.x.m.C.Z.F.Y.Q.W._.].[.oX.XXXXX.X.X{.{.|.`.E.J.M.N.n.d.f.i.t.q.w.w.w.w.w.9.9.w.6.w.w.w.w.7.0.0.0.0.0.0.0.i.i.i.f.d.d.d.n.n.V.B.S.S.S.G.Y.W.[..XXX=X7XsXhXvXbXBXBXBXCXBXBXBXBXMXnXvXxXaX4X;X X!.T.R.C.A.m.m.N.N.n.n.n.n.n.n.n.n.n.n.m.m.m.n.m.m.m.m.C.C.C.C.C.S.Z.G.J.J.F.J.E.F.Y.}.oXT.Y.Y.!.^.T.Y.T.Y.Y.Y.J.Y.R.T.T.!.!.!.T.T.!..X.X!.'. X X X@X3X@X@X@X@X8X1XqX1X5X4X4X5XwXwXeXyX7X7XrX0XcXcX0XdXdXcXcXiXdX0XqXqX4X2X1X;X;X;X%X%X%X%X%XOXXX X X X6X@X X X X@X@X X#X#X%X%X%X%X*X2X1XqX0XiXcXaXpXjXnXlXnXZXZXPXPXPXGXPXVXPXSXDXFXVXLXFXDXZXZXSXSXZXpXnXlXlXvXxXxXxXxXlXlXpXvXlXpXkXpXlXnXpXnXbXCXCXCXCXCXCXCXZXCXSXZXbXSXCXSXbXbXSXnXMXvXvXvXvXvXvXvXvXnXpXnXlXlXnXpXnXvXpXnXnXvXvXnXnXSXMXbXnXnXpXCXnXnXbXbXCXbXSXbXbXSXSXSXSXBXSXSXCXZXZXVXVXVXVXSXVXVXPXDXVXVXDXDXFXDXVXVXVXVXVXVXVXZXZXSXVXZXHXAXSXBXAXSXSXnXpXCXnXlXmXlXkXlXpXzXxXpXjXxXxXxXgXcXaXdXaXiXiXgXdXaX0X7XrXrXrXyXyXeXeXeXeXeXeXwXwXwXwXeXeXwXwXwXwXwXwXwXwXwXwX5X5XwXwXwXeXeXeXeXeXeXtXtXtXtXtXsXsXtXtXyXeXeXeXwX3X-X-XOX+X+X+X+X{.{.}.]._._.`.`.K.K.G.N.j.j.a.a.a.p.e.r.r.e.q.q.7.7.7.7.7.7.6.7.7.7.7.6.6.6.6.6.6.6.6.6.6.6.6.6.0.0.e.p.p.i.d.d.d.j.N.m.M.M.M.B.S.S.S.S.M.M.M.M.M.N.n.d.d.d.d.d.p.p.0.0.w.w.6.6.6.6.6.6.6.6.6.6.6.=.=.;.;.6.6.6.6.6.6.6.6.6.6.8.8.8.7.8.r.p.a.d.j.j.j.n.n.V.V.V.M.B.B.B.B.B.B.L.L.L.L.B.B.B.M.B.B.V.n.n.n.j.j.j.j.j.d.d.d.d.d.a.a.a.a.a.p.p.p.e.e.e.e.e.e.e.e.e.e.e.q.q.q.q.q.q.0.8.7.7.7.7.7.7.8.6.8.q.w.w.=.=.*.*.*.O.O.O.O.",
"s s f f f f f k z m M M V P ^ ~ ~ ^ / ] ' { $.A M f f a u u u u u u u u i i i i i i i p a a a a a a d d d f f f f f f v n B G F F D F D F F P P P I ~ ~ ~ ~ ^ ~ ~ ~ ^ ^ ~ / / / / / / / / ` ` ] ] ] [ [ [ [ [ [ [ X.O.@.-.9.q.t.d.x.m.C.Z.J.E.Q.~.].].[.+X&X&X%XOXOX+X.X{.].W.F.C.M.n.d.s.s.p.y.q.w.w.w.w.w.w.w.w.9.0.0.7.0.p.p.i.t.i.i.i.i.i.i.f.d.d.n.n.n.V.B.B.S.S.G.F.W.].[.XX*X5X9XdXkXbXBXBXBXBXBXBXBXBXBXbXvXkXdX7X*X X!.T.R.Y.C.A.m.N.N.m.m.m.N.m.m.m.m.m.m.N.N.N.N.m.m.C.A.C.C.C.Z.Z.G.G.F.F.F.F.J.E.F.Y.}.[.T.Y.T.T.^.~.Y.Y.Y.Y.Y.F.F.Y.T.Y.!.!.!.T.Y.!.+X[.!.'. X X X@X3X@X@X@X@X8X1X1X4X8X4X4X8X7X7XeXyX7X0XaX0XcXiX0XgXfX0X0X0XgXiX0X7X7X1X1X*X*X%X%X%X%X%X%X#X#X X X#X6X@X X X X#X#X X%X#X#X%X;X;X*X2X1XqXqXiXcXpXiXhXkXlXSXVXZXPXPXPXGXPXPXPXSXFXDXVXGXHXDXZXZXSXSXCXpXnXlXlXvXxXpXxXxXkXlXpXvXlXpXvXpXvXnXpXnXMXCXCXCXCXCXCXZXZXCXSXZXBXSXCXSXbXBXSXnXbXvXvXvXvXvXvXvXvXnXxXvXlXlXvXpXnXvXpXnXbXbXbXnXSXnXCXnXnXnXpXCXnXSXbXbXCXCXSXBXBXnXSXSXBXCXSXVXZXZXZXZXVXVXVXSXVXPXDXFXVXVXFXFXFXFXVXPXPXVXPXZXVXDXDXSXZXZXDXZXSXSXZXSXSXnXpXMXlXxXmXlXzXjXpXxXxXpXjXhXgXxXgX0XaXgXgXgXxXdXaX0X0XrXrXrXrXrXyXyXyXeXeXeXeXeXeXeXeXeXeXwXwXwXwXwXwXwXeXeXeXwXeXeXeXeXeXeXeXeXeXtXtXtXtXtXsXtXtXtXyXtXeXeXwXwX3X-X%X&X+X+X+X+X{.}.}.|._._.`.`.K.K.H.M.n.j.d.a.a.p.e.r.r.r.r.q.0.0.0.7.7.7.7.7.7.6.6.6.6.7.7.7.7.6.6.6.6.6.7.6.0.0.p.i.p.i.d.d.d.j.N.m.M.M.M.M.B.S.S.S.S.B.M.M.M.N.n.n.d.d.d.a.p.p.0.0.0.6.6.6.6.6.6.6.6.6.6.6.=.=.=.=.=.6.6.6.6.6.6.6.6.6.6.6.6.7.7.7.r.p.p.a.k.j.n.j.j.n.n.N.N.V.B.B.B.B.B.B.B.B.B.B.B.B.B.B.B.M.n.n.n.j.j.j.j.j.d.d.d.d.d.a.a.a.a.a.p.p.p.e.e.e.e.e.e.e.e.e.e.e.e.e.q.q.q.q.q.q.7.0.7.7.7.8.8.8.w.h.w.;.*.%.%.%.%.O.O.o.o.",
"s s f f f f f k z m M M V P ^ ~ ~ ^ / ] ' X.$.S n f a i u u u u u u u u i i i i i i i i p a a a a a d d f f f f f f f k n M V F F D F D F F L L P P ~ ~ ~ ~ ^ ~ ~ ~ ~ ~ ~ ~ / / ~ / / / / / ` ` ] ] ] [ ' [ [ [ [ X.+.@.-.9.y.t.f.x.m.C.Z.R.Q.W.~.~.[..XXX&X%X%X%X%XOX+X{.].`.K.C.M.V.x.g.s.s.y.q.q.q.q.q.q.q.0.0.0.0.0.0.i.a.i.i.i.i.f.d.d.f.f.f.j.j.n.V.V.B.B.B.S.C.Z.F.R.W.]..X#X1X8XiXhXvXbXBXbXbXbXbXbXBXBXbXbXkXhXiX6X$X X!.T.R.R.Z.A.m.N.m.N.m.N.N.m.m.m.m.m.N.N.N.N.m.m.M.A.C.C.C.Z.Z.G.G.F.F.F.F.F.F.F.Y.~.[.T.Y.Y.Y.[.[.P.Y.Y.Y.Y.F.Y.Y.Y.Y.~.~.!.!.Y.!.+X!.!. X X X X@X3X@X@X@X@X8X6X1X4X8X4X4X8X7X7XyXtX7X0XaXiXcXiXiXiXdXiX0X0X0XaXdXtXqXqX1X1X*X*X*X*X*X;X%X#X#X X X#X6X@X X X X*X*X X X#X%X@X;X@X*X-X1XqXqXiXcX0XiXjXkXlXnXVXZXVXVXPXGXPXPXPXSXFXDXVXGXHXDXZXZXSXSXCXpXnXlXlXvXxXxXxXjXkXlXpXvXlXpXkXpXkXvXpXnXMXCXCXCXCXZXZXZXZXCXSXCXBXSXCXSXBXBXSXbXMXMXvXvXvXvXvXvXvXnXxXnXlXlXvXpXnXbXpXlXbXMXbXnXSXnXCXnXnXnXlXCXnXSXbXbXCXCXSXCXBXSXSXSXVXZXSXVXVXZXDXZXVXVXVXSXPXPXDXFXVXPXFXFXFXFXVXPXPXVXPXZXVXDXVXSXVXDXHXZXSXSXZXSXSXnXpXMXlXxXmXlXzXjXpXxXxXgXhXxXxXxXgXrXaXaXgXjXjXgXiXaXgXaXrXrXrXrXyXyXyXyXrXrX7X7X7XeXeXyX7X7X4X7X7XwXwXeXeXeXeXwXwXeXeXeXeXeXeXeXeXtXtXtXtXtXtXtXtXtXyXtXeXeXwX2X-X-X&X+X+X+X+X{.}.}.].|._.`.`.E.K.K.K.B.n.j.d.a.a.p.e.r.r.r.r.q.q.q.0.7.7.7.7.7.7.6.6.6.6.7.7.7.7.6.6.6.6.6.6.6.0.0.p.i.i.i.d.d.d.j.N.m.M.M.M.M.B.S.S.S.S.B.M.M.M.N.n.x.d.d.d.d.p.p.0.0.0.6.6.6.6.6.6.6.6.6.6.6.=.=.=.=.=.6.6.6.6.6.6.6.6.6.6.6.6.7.7.0.0.p.p.a.k.j.j.j.j.n.n.N.N.V.V.B.B.B.B.B.B.B.B.B.B.B.B.B.B.M.n.n.n.j.j.j.j.j.d.d.d.d.d.a.a.a.a.a.p.p.p.e.e.e.e.e.e.e.e.e.e.e.e.e.q.q.q.q.q.q.7.0.7.7.7.7.8.8.w.h.h.;.;.%.%.%.%.O.o.o.o.",
"s s f f f f f k z m M M S P ( ~ ~ ^ / ] [ +.$.S f d a i u u u u u u u u u u i i i i p i p p d d d d d d f f f f f f f k n B Z G G G F F D D L L P P ~ ~ ~ ~ ~ ~ ~ ~ ~ ~ ~ ~ ~ ~ ~ ~ / / / / / ` ` ` ] ] [ ' [ [ [ X.o.O.=.9.y.t.f.x.m.C.J.Q.Q.~.^.^.^.oX#X=X*X*X*X%XOX+X.X]._.K.G.M.V.V.g.s.s.y.y.y.y.y.q.q.t.q.t.t.t.t.i.f.d.d.j.j.n.n.n.n.n.n.n.n.N.B.V.V.B.B.B.C.C.Z.F.E.W.]..XXX*X5X9XdXhXvXbXbXbXbXbXbXBXBXBXbXvXjXdX8X1XXX[.~.T.R.J.C.A.m.m.m.N.m.N.N.N.N.N.N.m.m.m.m.M.M.C.C.C.C.Z.Z.Z.G.F.J.F.J.F.F.K.F.Z.Y.oXY.Z.Y.Z.W.^.~.P.Y.T.Y.Y.Y.Y.Y.!.!.!.Y.T.Y.!.[.!.[. X X X X#X3X@X@X@X@X8XqX1X4XeX8XeXeXeXeXyXtXrX0XrXxXcXiXiX0XgXgXiX0XcXqXqXqX0X7XqX1X1X*X*X*X*X*X%X%X#X#X@X X1X#X X#X X@X*X*X X X@X@X@X@X*X1X1XqXqXiXqX0XpXhXkXlXnXBXZXVXVXPXGXPXPXPXSXFXDXVXGXDXDXZXZXSXSXCXpXnXlXlXvXpXxXlXkXkXlXpXvXlXpXkXpXlXnXpXnXMXCXCXCXCXCXCXZXCXbXSXCXSXnXCXSXCXBXSXbXMXMXvXvXvXvXvXnXvXnXxXvXlXlXnXlXlXnXnXpXnXnXnXSXSXnXnXlXnXnXSXZXnXSXBXbXCXCXSXBXBXSXSXSXSXVXSXVXVXDXDXDXVXPXVXSXPXPXDXFXVXPXFXFXFXFXVXPXPXVXPXVXVXDXVXSXVXDXZXZXSXSXZXSXSXnXpXMXlXxXmXlXkXjXxXpXjXhXaXhXxXpXxXgXaX0X0XcXcX0XiXdXgXaXrXrXrXyXyXyXyXrXrX7XqXqXqXqXqXqX4X7X7XeXeXeXeXeXeXeXeXwXwXeXeXeXeXeXeXeXeXtXtXtXtXtXtXtXtXtXyXeXeXwXwX2X-X%X&X+X+X+X{.}.}.}.]._.`.`.E.K.K.K.H.B.V.j.d.a.a.a.p.e.e.e.e.e.r.r.q.q.8.8.8.7.7.7.7.7.7.7.7.7.7.7.6.6.6.6.6.6.7.0.p.p.p.i.d.d.d.j.N.N.M.M.M.M.B.S.S.S.S.M.M.M.B.N.n.n.x.x.d.d.i.p.q.q.w.6.6.6.6.6.6.6.6.6.6.=.=.=.=.=.=.6.6.6.6.6.6.6.6.6.6.6.6.7.6.0.0.p.p.a.d.j.j.j.j.n.n.N.N.V.V.B.B.B.B.B.B.B.B.B.B.B.B.B.B.V.N.n.n.n.j.j.j.k.d.d.d.d.d.a.a.a.a.a.p.p.p.p.p.e.e.e.e.e.e.e.e.e.e.e.q.q.q.q.q.q.0.0.0.7.7.7.7.7.w.h.h.w.*.*.%.%.O.O.o.o.o.",
"s s f f f f f k z m M M S L ( ~ ~ ^ / ] [ +.2.S f a i u u u u u u u u u u u i i i i p i p p d d d d d d f f g f f f f k n M Z G G G D D D D L L P I ~ ~ ~ ~ ~ ~ ~ ~ ~ ~ ~ ~ ~ ~ ~ ~ / / / / / ` ` ` ] ] ` ' [ [ [ X.o.O.=.9.y.t.d.x.m.C.J.Q.~.~.^.[.[.oX$X=X*X*X*X%X%XOX.X[._.E.G.M.V.V.x.g.s.y.y.y.y.q.q.q.t.t.t.t.p.i.i.d.n.n.V.V.V.B.B.M.M.M.N.m.M.B.B.V.V.B.B.C.C.Z.F.Y.W.W.[..X#X1X8XiXhXkXvXbXbXbXbXbXBXBXBXBXbXvXhXiX6X#XoX[.~.T.R.J.C.A.m.m.m.N.m.N.N.N.N.N.m.m.m.m.M.C.C.C.C.C.Z.Z.Z.G.F.J.F.J.F.F.K.F.F.Z.}.T.P.Y.Y.Z.Y.~.~.Y.Y.Y.Y.Z.Y.~.oX!.T.T.T.Y.!.~.!.[..X X X X#X3X@X@X@X@X8XqX1X4XeX8XeXeXeXeXrXtXrXqX0XjXiXaXiXiXaXgXiX0XqXcXqXqXqXqXqX1X1X1X*X*X@X@X;X%X%X#X@X X$X#X@X#X@X X@XwX%X X X X X@X@X*X1XqX0X9XqX0XaXjXkXlXnXBXZXVXVXVXGXPXPXPXSXFXDXVXGXDXDXZXZXSXSXCXpXnXlXlXvXpXxXlXkXkXlXpXvXlXpXkXpXlXnXpXnXMXCXCXbXnXbXbXSXnXSXnXAXSXSXCXSXCXBXSXbXMXMXvXvXvXvXvXvXvXvXxXnXlXpXkXvXlXnXMXnXlXlXnXSXnXnXnXlXnXnXSXZXSXSXCXbXCXCXSXBXBXSXSXSXSXVXSXVXVXDXDXDXVXPXVXSXPXPXDXFXVXPXFXFXFXFXVXVXPXVXPXPXVXDXVXSXZXZXZXZXSXSXZXSXSXnXpXMXlXxXmXlXjXkXxXpXkXjXpXxXgXaXgXgXaXaX0XcXcX0XaXaX0X0X0XsXrXyXyXyXuXuX7X7XqX7X7X7X7XqXqX4X7XeXeXeXeXeXeXeXeXwXwXeXeXeXeXeXeXeXeXtXtXtXtXtXtXtXtXtXtXeXeXwX2X-X-X%X+X+X+X{.{.}.}.]._.`.`.`.E.K.K.K.H.B.V.j.d.a.a.a.p.e.e.e.e.e.r.r.q.q.8.8.8.7.7.7.7.7.7.7.7.7.7.7.6.6.6.6.7.7.7.0.p.p.p.i.d.d.d.j.N.m.M.M.M.M.B.S.S.S.S.M.M.M.M.N.N.n.x.x.d.a.i.p.0.q.w.6.6.6.6.6.6.6.6.6.6.=.=.=.=.=.=.6.6.6.6.6.6.6.6.6.6.6.6.7.6.7.0.p.p.a.d.j.j.j.j.n.n.n.n.V.V.B.B.B.B.B.B.B.B.B.B.B.B.B.B.V.N.n.n.n.j.j.j.k.k.d.d.d.d.a.a.a.a.a.p.p.p.p.p.e.e.e.e.e.e.e.e.e.e.e.q.q.q.q.q.q.0.0.0.7.7.7.7.7.q.q.h.w.=.@.O.O.O.O.+.o.o.",
"s f f f f f f k n m M M V F ( ~ ~ ^ / ] [ +.2.S d a i u u u u u u u u u u u i i i i i p p a d d d d d a f f f f f f k n n M Z G G D D D D F F F P P ~ ~ ~ ~ ~ ~ ~ ~ ~ ~ ~ ~ ^ ^ ^ ^ / / / / / / ` ` ` ` ] ] [ [ [ X.X.O.-.9.t.t.f.x.m.S.J.Q.~.^.].[.[..X$X=X*X*X*X%X%XOX.X[._.E.G.M.V.V.x.g.s.s.y.y.y.y.y.y.y.t.y.y.p.p.d.x.n.V.V.B.H.H.K.J.J.J.G.G.H.H.B.B.B.B.B.C.C.G.F.Y.E.W.].{.XX#X6X0XsXhXhXvXvXbXbXbXBXBXBXBXbXvXhXiX4X$XXXoX^.~.R.R.Z.C.M.M.m.m.N.N.m.m.m.m.m.m.m.m.A.A.C.C.C.C.Z.G.F.J.F.F.F.R.R.Y.K.K.F.Z.~.~.Y.Y.T.P.Y.T.^.T.Y.Y.Y.Y.T.~.[.T.Y.T.T.!.'.!.!.'..X X X X#X3X@X@X@X@X0XqX1X4XeX8XeXeXeXeXyXtXrX0X0XfXdXiXiXiXaXgXgXiXiX0X0X0X0XqXqXqXqXqX1X;X@X@X@X%X%X%X@X@X#X$X@X X#X X@X3X*X@X@X@X X@X@X*X4XqX0X9XqXqX0XhXkXlXnXBXVXVXVXVXGXPXVXPXSXPXPXVXGXDXDXZXZXSXSXCXpXnXlXlXkXpXxXhXlXkXlXpXkXlXpXkXpXkXnXpXnXbXCXCXnXnXnXnXnXnXbXCXBXSXSXBXSXBXBXnXCXMXMXvXvXvXmXvXvXvXnXlXnXnXlXlXbXlXlXMXbXnXnXnXnXnXnXlXSXnXnXbXCXSXnXCXCXCXBXSXBXBXSXSXSXVXZXSXVXZXDXDXDXVXPXVXSXPXPXFXFXPXPXFXFXFXFXVXPXPXVXPXVXVXPXPXSXZXZXZXZXSXSXCXSXSXnXpXMXlXpXvXlXkXjXxXgXjXjXaXxXgXgXaXgXaXiXrXrXrXrXaXrX0XqX0XrXrXrXeXtXtXrXqX0XqX7X7X7X7X7X7X1X7XyXyXeXeXeXeXeXeXeXeXeXeXeXeXeXeXeXeXeXeXtXtXtXtXyXyXyXeXeXwXwX2X-X-X%X+X+X+X{.{.}.|.]._._.`.`.K.K.K.K.H.B.V.l.d.d.a.a.p.p.p.e.e.r.r.r.r.q.q.8.8.7.0.0.0.7.7.7.7.6.6.6.6.7.7.7.7.7.0.0.p.p.p.i.d.d.d.j.N.m.M.B.B.S.S.S.S.S.S.B.M.M.M.N.N.n.j.d.d.a.i.p.e.q.w.6.6.6.6.6.6.6.6.6.6.6.6.=.6.=.=.6.6.6.6.6.6.6.6.6.6.w.w.6.6.7.q.e.e.a.d.d.j.j.j.n.n.n.n.V.V.B.B.B.B.B.B.B.B.B.B.B.B.M.N.N.M.N.N.n.n.n.j.j.j.d.d.d.d.a.a.a.a.a.p.p.p.e.e.e.e.e.e.e.e.e.e.r.r.q.r.r.8.8.8.8.8.7.7.7.7.7.7.7.q.q.h.w.=.@.@.O.O.+.o.o.o.",
"s s f f f f f k n m M M V F ( ~ ~ ^ / ] [ +.2.S a a i u u u u u u u u u u u u u u u p a a a d d d a d d f f f f f f k k n m V S G D D D D F F F F P ~ ~ ~ ~ ~ ~ ~ ~ ~ ~ ~ ~ ^ ^ ^ ^ / / / / / / ` ` ` ` ` ] [ [ [ X.o.+.-.9.t.t.f.x.m.S.J.Q.~.^.].[.[..X$X=X*X*X*X%X%XOX.X[.].E.G.C.B.N.x.g.s.s.s.s.s.i.i.p.p.p.s.s.s.s.d.V.B.B.B.H.K.K.E.Q.Q.Q.W.Q.Q.K.S.M.M.M.M.C.C.G.F.Y.E.E.W.[..XXX*X6X9XiXhXhXvXvXbXbXbXBXBXBXbXbXkXiX8X1X#XoX[.~.T.R.J.C.A.M.M.m.M.N.m.m.m.m.m.m.m.m.A.A.C.C.C.C.Z.G.F.F.F.F.F.R.Y.Y.K.K.F.Z.Y.^.W.P.Z.Y.Y.P.Y.~.].~.^.[.^.Y.P.Y.Y.Y.Y.[.[.!.!.[. X.X X XXX3X@X@X@XqX0XqX1X4XeX8XyXeXeXeXrXtXaX0X0XiXhXiXaXdXxX0XiXhXjXdXdXdXdXaXiX9XyX7XeX4X2X1X;X@X%X%X@X@X#X*X*X@X@X@X@X!. X-X3X=X=X=X;X;X2XqX0X9XcXqX0XhXlXpXnXBXVXVXVXVXFXPXVXPXSXPXPXVXGXDXDXZXZXSXSXCXpXnXlXlXvXpXxXhXlXkXlXpXkXlXpXkXpXlXnXpXnXMXbXSXnXbXCXCXCXCXCXSXSXSXBXSXSXBXBXbXCXbXvXvXvXvXmXvXvXmXvXnXlXnXnXpXlXlXlXlXbXCXAXCXMXnXSXnXbXSXSXCXbXSXnXCXCXCXBXSXBXBXSXSXSXVXZXSXVXZXDXDXDXVXPXVXSXPXPXFXFXPXPXFXFXGXFXVXPXPXVXPXPXVXZXPXSXZXZXZXZXSXSXCXSXSXnXpXMXlXpXvXlXkXjXhXhXhXxXxXgXgXfXaXaXaXgXgXgXfXfXgXgXaXrX7XqXrXtXyXrXtXrXqX0XqXqX7X7XqXqX7XqX4X4XeXeXeXeXeXeXeXeXeXeXeXeXeXeXeXeXeXeXeXtXtXtXtXyXyXeXeXwXwX2X2X-X%XOX+X+XoX{.{.}.]._._.`._.E.E.K.K.K.K.B.V.n.d.d.a.a.i.p.p.e.e.r.r.r.r.q.q.q.q.7.0.0.0.7.7.7.7.6.6.6.6.7.7.7.7.7.0.0.p.p.p.i.d.d.d.j.n.m.M.m.B.S.S.S.S.S.S.B.M.M.M.m.N.n.j.j.d.a.i.p.e.q.w.6.6.6.6.6.6.6.6.6.6.6.6.6.6.=.=.6.6.6.6.6.6.6.6.6.6.w.w.6.6.7.q.e.e.p.a.d.d.k.j.j.j.n.n.n.n.N.M.B.B.B.B.B.B.B.B.B.B.M.M.N.M.N.n.n.n.n.j.j.j.d.d.d.d.a.a.a.a.a.p.p.p.e.e.e.e.e.e.e.e.e.e.r.r.q.q.r.8.q.8.8.7.7.7.7.7.7.7.7.q.q.h.h.=.@.@.O.O.+.o.o.o.",
"f f f f f f f k z m M M V F ( ~ ~ ^ / ] [ +...S a a u u u u u u u u r r i i i i i i p a a d d d d d f f f f f f f k k n M m V S S S S S D F F F F P ~ ~ ~ ~ ~ ~ ~ ~ ~ ~ ~ ~ / / / ^ / / / / / / ` ` ` ` ` ` ] ] [ [ X.O.@.9.0.t.f.x.m.S.J.Q.~.^.].[.[..X$X=X=X*X*X%X%XOX+X[.].E.F.C.M.m.n.x.g.s.s.s.s.s.s.s.s.s.s.s.d.d.n.B.B.H.H.K.K.`.`._.].].]._._.Q.K.C.M.M.S.C.C.C.F.F.F.Y.R.].[..X#X*XqX9XiXpXlXlXvXbXbXbXbXbXBXbXvXiX9X1X#X#XoX^.W.E.F.G.A.A.A.A.M.M.M.M.m.m.m.m.D.D.C.S.C.S.J.G.F.F.F.F.J.J.K.K.E.F.K.K.Y.Y.Z.~.~.Z.P.Y.Y.Z.A.P.Z.Z.Y.Z.Z.Z.Y.T.T.Y.!.[.!.!.!.[. X X X X#X3X@X@X1XqXeXqXqX7XeX0XeXeXeXyXtXsXsXaXiX0XhXdXpXgXxXiX0XcX0XiXdXgXiXiX9X7X7X7X4X4XwXwX-X@X@X%X*X*X$X#X*X*X@X@X@X@X X X@X=X=X3X2X@X1XqX0X9XcXqX0XhXjXpXSXBXZXVXVXVXFXVXVXPXSXPXPXVXFXDXDXZXZXSXnXCXpXnXlXlXvXpXpXhXlXkXlXpXkXlXpXlXpXlXnXpXnXbXnXlXbXbXbXnXSXSXSXSXBXCXCXSXBXSXbXCXCXMXvXvXvXvXmXmXvXmXvXnXnXnXnXlXpXvXbXpXpXpXnXnXlXlXSXbXbXlXSXCXnXnXnXCXCXCXBXSXBXBXSXSXSXVXVXSXVXZXDXDXDXVXPXPXVXPXPXFXGXPXPXFXFXFXFXVXPXPXVXPXVXVXDXZXSXZXDXZXZXSXSXCXSXSXnXpXMXlXpXkXkXjXjXjXjXpXxXkXxXpXgXxXgX0XcX0XrXaXgXaXaXaXaXaXcXrXtXeXtXrX7XrXqX7X7XqXqX7X4XqXyXqX4XyXeXeXeXeXeXeXeXeXeXeXeXeXeXeXyXyXeXeXtXtXtXtXyXyXeXeXwXwX1X-X*X-XOX+X+X.X{.{.].]._._.`.E.K.E.K.K.K.K.S.V.n.d.d.a.a.a.p.p.p.e.e.r.r.r.r.r.q.q.q.q.q.q.0.0.0.7.w.6.6.6.7.7.7.7.7.0.0.p.p.p.i.d.d.d.j.n.m.M.m.B.S.S.S.S.S.S.B.B.B.M.M.N.n.n.j.d.a.a.p.e.q.w.6.6.6.6.6.6.6.6.6.6.6.=.=.=.=.=.6.6.6.6.6.6.6.6.6.6.6.6.w.6.7.q.e.e.i.a.a.d.k.j.j.j.n.n.n.n.N.M.B.B.B.B.B.B.B.B.B.B.M.M.M.V.V.V.V.n.n.j.j.d.d.d.d.d.a.a.a.a.a.p.p.p.p.a.p.p.e.e.e.e.e.e.r.r.q.q.q.q.q.8.8.7.7.7.7.7.0.7.7.q.q.h.q.=.*.@.O.O.O.o.o.o.",
"f f f f f f f k n m M M V F ( ~ ~ ^ / ] [ +...F a a a r u u u u r r r r r r r i i i a a d d d f f f f f f f f f f k k n V V V V S S S S D D F F F F P ~ ~ ~ ~ ~ ~ ~ ~ ~ ~ ~ ^ / / / / / / / / / / / ` ` ` ] ] ] [ [ o.O.@.-.0.0.f.x.N.S.J.Q.~.^.].[.[.XX$X=X*X*X*X%X%XOX+X{.].W.K.G.C.M.N.n.x.d.d.d.f.f.d.d.d.d.d.d.d.x.N.M.H.H.K.K.Q._.].].].[.].].]._.Q.C.C.C.C.C.C.C.G.G.F.F.F.W.]..XXX#X1X4X0XiXpXlXlXvXbXbXbXbXbXbXvXhX0XqX$X$XoX[.~.T.Y.G.C.A.A.A.M.M.M.M.m.m.m.A.D.S.S.S.C.C.G.G.G.F.F.F.F.F.K.K.F.F.K.E.Y.Y.Y.Y.Y.T.Y.Z.A.Z.Z.Z.Z.Z.Z.Z.F.Y.Y.Y.Y.!.oX!.!.!.[..X X X X X#X-X@X@X1X@XeXqXqX7XeX0XeXeXeXyXtXsXgXdXgX0XiXhXhXiXiXiXgXgXiX0X0X0X0X0XqXqXqXqX1X1X1X2X2X;X@X#X*X*X$X@X$X3X#X@X@X$X$X@X@X@X@X*X2X*X@XqX7X0XcX0X0XgXkXpXSXBXZXVXVXVXFXVXVXPXSXPXPXVXFXDXDXZXZXSXSXCXpXnXlXlXvXpXxXlXlXkXlXpXkXlXpXkXpXlXvXpXnXbXnXSXAXnXnXnXnXnXbXBXBXbXbXbXCXSXnXCXbXbXvXvXvXvXvXvXmXvXvXvXnXnXnXnXnXnXnXbXvXnXnXnXnXnXnXnXSXnXbXSXSXnXCXCXCXCXBXSXCXVXSXSXSXVXVXSXVXZXDXFXPXVXPXPXVXPXPXGXFXPXPXFXFXGXFXVXPXDXPXVXPXVXDXDXSXZXDXZXZXSXSXCXSXnXnXpXMXlXpXkXxXjXjXjXhXgXpXjXjXpXaXaXgXaXaXrX0X0XrXrX0X0X0XfX7X7XyXtXtXyX7XsXqX0X0X7X7X7XqXqXyXqX4XyXyXeXeXeXeXeXeXeXeXeXeXeXeXeXyXyXeXeXtXtXtXeXeXeXeXwXwX2X-X*X*X%XOX+X.X{.{.].].]._._.T.E.E.E.K.K.K.K.B.V.n.d.d.a.a.a.p.p.p.e.e.r.r.r.r.r.q.q.q.q.q.q.0.0.0.7.w.7.6.6.7.7.7.7.7.0.0.p.p.p.i.d.d.d.d.n.m.M.m.B.S.S.S.S.S.S.S.B.B.M.M.N.n.n.j.d.a.a.p.e.q.w.6.6.6.6.6.6.6.6.6.6.=.=.=.=.=.=.6.6.6.6.6.6.6.6.6.6.6.6.w.6.6.0.e.e.i.i.a.d.d.d.j.k.j.n.n.n.n.N.M.M.B.B.V.V.B.B.B.B.M.M.M.V.V.V.V.n.n.j.d.d.d.d.d.d.a.a.a.a.a.p.p.p.p.p.p.p.e.e.e.e.e.e.r.q.q.q.q.q.q.8.8.7.7.7.7.7.7.7.0.w.q.h.h.=.*.@.%.O.%.o.o.o.",
"s s f f f f f j k n m M V F ( I ~ ( / ] [ +...F s s a y i u i i a a a a a a g a a a f d f f f f f f f f f v n n n n n M S G m V S S S S S D D F F F P P P P ~ ~ ~ ~ ~ ~ ~ ~ ~ ~ ~ ~ / / / / / / / / ` ` ` ] ] ] [ [ X.o.O.-.9.9.i.d.n.B.D.R.Q.W.].[.oXXX$X*X*X*X*X*X%X+X.X{.].`.E.F.G.M.m.N.n.n.x.x.f.f.f.f.d.d.x.x.V.m.M.C.H.K.K.Q._._.}.{..X.X.X{.[.].`.F.C.C.C.G.G.C.C.C.G.F.G.E.~.[.oXXX$XqXqXiXiXhXlXvXvXbXbXbXBXbXvXhX0XqX1X$X#X X'.T.R.F.G.C.A.C.C.A.C.C.C.C.C.C.C.C.S.S.Z.Z.J.J.F.F.Y.Y.R.E.E.E.E.E.E.Y.Y.Y.Y.Z.Z.E.W.Z.Z.Z.Z.Z.Z.Z.Z.Z.F.Y.Y.Y.!.^.[.!.!.!.[..XoX.X.X XXX-X@X@X@XqXeX4XqX7X0XeXyXyXtXyXtXsXgXfXdXiXiXhXhXdXiXiXdXdXdXiX0X0X0X0X7X7X4X4X1X1X1X2X3X@X@X*X*X*X*X@X@X=X*X@X@X@X$X@X@X@X@X;X2X2X@XqX7X7XcX0X0XgXjXpXlXbXBXVXVXVXGXVXVXPXSXPXPXPXFXDXDXZXZXSXSXCXlXnXlXlXvXpXpXlXlXkXlXpXkXxXpXkXpXlXnXpXnXnXnXnXAXnXnXnXbXbXbXCXnXSXSXBXBXnXbXBXbXbXbXMXmXmXmXmXMXvXvXvXnXnXSXnXnXSXnXnXbXbXnXnXbXbXnXSXSXCXMXlXnXbXCXCXCXCXBXSXCXVXSXSXVXZXZXVXVXZXHXFXPXVXPXPXVXPXPXGXPXPXPXGXGXGXGXPXPXFXPXVXPXZXDXDXSXVXDXZXZXSXVXZXSXnXnXpXmXlXxXkXjXjXjXjXxXdXgXgXhXdXaXrXaXgXaXaXaXaX0X0X0X7X0XfXrX7X7XrXrX7X7XgXqXqX0X7XsX0XqXqXyXqX4XyXeXeXyXyXyXyXeXeXeXeXeXeXeXeXeXeXeXeXeXeXeXeXeXwXwXwXwX-X-X*X-X%X+X+X.X}.{.].].]._.`.T.T.E.E.K.K.K.K.B.V.n.d.d.d.a.a.a.a.a.e.e.r.e.e.e.e.r.r.q.q.q.q.q.q.q.7.w.w.w.w.7.7.7.7.0.q.e.e.p.p.i.d.d.d.d.n.V.M.M.M.S.S.S.S.S.S.S.S.S.B.B.N.n.n.j.j.d.a.i.e.q.w.6.6.6.6.6.6.6.6.6.6.6.6.=.=.6.=.6.6.6.6.6.6.6.6.6.6.6.6.6.6.6.7.q.r.r.e.a.a.d.d.d.d.j.k.j.n.n.n.V.V.V.V.B.B.V.V.V.V.V.V.B.N.M.N.n.n.n.j.d.d.d.d.d.d.a.a.a.a.p.e.e.e.p.p.p.p.e.e.e.e.e.e.r.r.q.q.q.q.q.8.8.8.8.6.6.6.7.7.7.w.w.h.h.=.*.@.%.O.%.o.o.o.",
"s s f f f f f k k n m M V F ( I ~ ( / ] [ &...P k y s a a p d a a a s s f k z N n f s f f k k f f f f f n n m M M M M S G T M V C C V V S D D F F F F P P P ~ ~ ~ ~ ~ ~ ~ ~ ~ ~ ~ ~ / / ~ / / / / / / ` ` ] ] ] [ [ +.X.O.@.-.9.0.f.x.m.S.J.Q.W.].[.oXXX$X*X*X*X*X%X%XXX.X{.]._.E.F.G.M.M.m.N.m.m.m.n.f.x.n.n.n.n.V.B.B.C.H.K.K.W.`._.}.+X+X+XOX+X+X.X{.].Q.R.C.C.G.G.G.C.C.G.C.G.F.Q.].[.oX#X1XqX0XiXpXhXlXnXvXbXbXbXbXvXhXiX4X1X*X#X X[.~.T.Y.F.J.C.C.C.C.C.C.C.C.S.S.S.S.S.S.Z.Z.J.J.Y.Y.R.R.Y.E.E.E.E.R.R.Y.Y.Y.Y.Y.F.Z.Y.Q.T.Z.P.P.A.A.A.P.P.P.T.[.}.[.Y.!.!.!.[.[.oX.X.X X X-X*X@X@X1XeX1XqX4X0XeXyXyXyXtXsXsXdXfXfXfXdXiXdXjXjXdX0X0X0X0X0X0X0X0X0XqX7XqXcXcX1X4X2X@X*X*X*X*X*X$X@X@X*X*X$X@X@X X@X@X@X;X*X1X@X1X7X9XqXqX0XhXkXpXpXbXBXVXVXVXDXVXVXVXPXPXPXDXFXDXDXDXVXSXVXBXSXpXlXvXvXpXpXlXlXkXlXpXlXxXpXvXpXlXlXpXnXnXlXnXMXnXlXSXSXSXSXSXSXnXBXnXnXbXBXBXbXnXbXmXmXmXmXmXMXvXvXvXvXnXSXlXnXbXnXlXpXlXSXSXSXlXSXbXCXbXnXnXCXCXCXCXCXCXCXSXVXZXVXSXVXZXZXVXVXDXFXFXDXPXFXFXPXPXPXGXPXPXFXGXGXLXGXPXPXDXPXSXVXVXZXVXVXZXZXZXZXSXVXZXSXnXnXpXbXlXxXjXjXjXjXjXhXjXjXgXiXjXjXfX0XcXcX0X0XrX0X0X0X0X0XsXrX7XrXrXrXrX7XrX0X0X0XqX7X7X0XqXtXqX4XyXeXeXyXyXyXyXeXeXeXeXeXeXeXeXeXeXeXeXeXeXeXeXwXwXwXwX-X-X*X-X%X%X+X.X.X{.{.}.]._.`.W.E.E.E.E.K.K.K.K.B.n.d.d.d.d.a.a.a.a.a.e.e.r.e.e.e.e.r.r.q.q.q.q.q.q.q.7.w.w.w.w.7.7.7.7.0.q.e.e.p.p.i.d.d.d.d.n.V.V.M.M.S.S.S.S.S.S.S.S.B.B.B.N.n.n.j.j.d.a.i.e.q.0.6.6.6.6.6.6.6.6.6.6.6.6.=.=.=.=.6.6.6.6.6.6.6.6.6.6.6.6.6.6.6.7.7.0.r.e.p.a.a.a.d.d.d.d.j.j.n.n.V.V.V.V.V.V.V.V.V.V.V.V.B.V.M.N.n.n.n.j.j.d.d.d.d.d.a.a.a.a.a.e.e.e.p.p.p.p.e.e.e.e.e.e.r.r.q.q.q.q.q.8.8.8.8.6.6.6.6.6.7.w.w.h.h.;.*.@.O.O.O.o.o.o.",
"s f f f f s f k n m M M V F ( ~ ( ( / ] ] +...I m s M f a f f f f n n n n M H T G M n k n n m m n n n n m m M M M V S S G | C V V C C C S D D D F F P P P P ~ ~ ~ ~ ~ ~ ~ ~ ~ ~ ~ ~ / / ~ ~ / / / / / ` ` ] ] ] [ [ +.X.X.O.#.9.0.i.x.n.C.G.E.W.^.[.oXXX#X*X*X*X*X%X%XXX.X{.]._.T.K.F.C.M.M.M.B.M.M.M.n.n.n.n.N.m.B.B.C.C.F.K.E.`._.}.oX+XOXOX%X%XOX+X+X{.].Q.F.F.G.G.G.C.C.C.C.S.J.R.W.[.oX#X@X1X0X0XiXdXlXkXvXvXbXbXbXvXjXdX0XqX1X$X X X'.W.R.E.K.J.C.C.S.S.S.S.D.D.D.Z.Z.J.J.J.J.R.R.R.R.E.E.R.R.R.R.E.R.W.R.T.Y.Y.E.E.F.Z.W.}.~.T.T.T.Y.Y.T.T.W.^.~.T.P.~.~.!.!.[.[..X.X.X'. X%X3X;X;X1X4XqX1X4X0XeXyXyXyXtXsXgXdXdXfXhXhXiXiXdXjXjXhXhXiXiXiXiXaXrX0X0X0XqXqXqX4X2X1X;X3X=X*X*X*X*X$X@X@X=X3X3X=X*X;X@X;X;X;X@X1X@X1XtXqXqX0XjXxXpXpXbXCXVXVXSXPXPXVXPXGXPXPXFXDXDXDXDXZXSXSXbXbXnXnXvXlXpXpXlXkXkXlXxXxXkXlXpXpXkXvXpXnXnXnXpXnXnXnXSXSXSXnXnXCXCXbXnXnXBXCXbXbXMXbXmXmXmXmXmXMXMXvXvXvXMXnXlXnXMXCXMXbXnXnXnXnXnXbXCXbXlXlXbXCXCXCXCXCXCXCXBXSXZXZXVXVXZXVXVXDXHXFXFXFXPXPXFXPXPXPXFXPXPXGXGXGXLXGXFXPXPXPXVXVXZXZXVXZXZXZXZXCXSXVXZXSXpXpXnXmXlXlXxXjXjXjXxXfXfXfXfXgXaXgXzXjXgXaXrXrXrX0X0X0X0XrXrX7XrXrXrXrXrXrX7X0X0X0XqXcX7X7XtXcX7XyXyXeXeXeXeXyXyXeXeXeXeXeXeXyXyXeXeXeXeXeXeXeXeXwXwXwXwX:X-X-X%X%XOX.X.X{.{.}.}.].`.W.W.E.E.E.K.K.K.K.K.B.n.d.d.d.d.a.a.p.a.p.p.i.i.e.e.e.e.e.e.r.r.r.q.q.q.q.q.q.q.q.q.7.0.7.7.0.q.e.e.p.i.a.d.d.d.d.n.V.m.M.B.B.S.S.S.S.S.S.S.B.B.B.M.n.n.j.j.a.a.a.p.q.q.6.6.6.6.6.6.6.6.6.6.6.6.6.6.6.6.6.6.6.6.6.6.6.6.6.6.6.6.6.6.6.6.7.0.q.e.e.a.a.a.d.d.d.d.j.j.n.n.V.N.V.V.V.N.B.B.V.V.V.V.V.N.V.N.n.n.n.n.n.j.d.d.d.d.a.a.a.a.a.p.e.e.p.p.p.p.e.e.e.e.e.e.r.q.q.q.q.q.q.8.q.8.8.7.6.6.6.6.7.8.q.h.h.w.*.@.O.O.O.o.o.o.",
"a a f f s s f k n m M M V F ( P ~ ~ / ` ] +...( V C ,.a f f f n n n m M M S ( | | U D V V M M M M M M M M M V V S S G G G ( S V V C C S S S D D D F F P P P ~ ~ ~ ~ ~ ~ ~ ~ ~ ~ ~ ~ / / ~ ~ / / / / / / ` ` ] ] ] [ +.o.X.O.#.#.5.i.f.x.m.Z.Y.W.^.[.oXoX#X&X*X*X*X%X%XXX.X[.]._.T.K.F.C.M.M.M.M.M.M.M.M.M.M.M.M.M.M.M.C.G.F.E.T._.].{..X+XOX%X%X%X%X&XOX.X[.].W.F.G.G.G.C.C.C.C.S.J.R.Q.^.oXoX#X$XqX0X9XiXdXlXnXvXvXbXvXvXjXfX9XqX1X*X@X X[.~.T.E.R.K.J.J.Z.J.J.J.J.J.J.J.J.J.J.R.R.Q.Q.Q.E.E.E.R.R.R.R.R.T.W.R.T.Y.F.F.K.E.Y.Z.Y.Y.~.T.T.T.~.W.~.T.Y.Y.Y.T.T.T.!.~.[.[..X.X.X X X X*X;X*X;X1X@X1X4X8X0XyXyXyXtXsXgXdXfXdXfXhXhXdXiXiXpXiXdXhXdXdXdXdXgXaXaXaXaXrX7X4X1X*X*X3X=X*X*X*X*X*X$X@X@X@X@X*X*X=X=X*X*X;X@X2X@XqX7X4X9X9XaX0XpXlXbXCXZXVXSXVXVXPXPXFXPXPXFXDXDXZXDXZXSXSXnXnXbXvXnXpXpXhXlXkXlXlXhXpXkXmXkXkXvXlXpXlXmXvXpXlXnXbXnXnXnXnXnXnXSXnXbXBXBXbXbXbXMXbXMXmXmXmXMXMXMXvXvXvXmXmXvXnXlXSXnXnXnXnXbXbXbXnXnXSXnXbXMXnXCXCXCXCXCXCXZXSXVXVXVXVXVXVXVXDXFXFXFXFXPXPXPXPXPXPXPXPXFXLXLXGXGXGXGXPXPXPXPXPXPXVXSXZXZXZXZXCXSXSXBXbXbXnXmXlXpXpXjXjXjXfXfXfXxXgXfXfXaXrXrXaXaXaXgXgXgXaXgXsXgXrXrX7XrXrXrXrXrXrXqX0XqX7X7XqX7X7X7XqXyXtXyXeXeXeXeXeXyXeXeXeXeXeXeXyXyXeXeXeXeXeXeXeXeXwXwXwX3X-X-X-XOXOX+X.X{.{.}.}.]._.`.W.E.E.E.E.K.K.K.K.H.B.n.d.d.d.d.a.a.p.p.p.p.i.e.e.e.e.e.e.e.r.r.r.r.q.q.q.q.q.q.q.q.7.7.7.7.0.q.e.r.p.i.i.i.a.d.d.n.N.m.M.B.B.B.B.B.S.S.S.S.B.B.B.M.n.n.j.k.d.a.a.p.q.q.6.6.6.6.6.6.6.6.6.6.6.6.6.6.6.6.6.6.6.6.6.6.6.6.6.6.6.6.6.6.7.6.7.7.q.e.e.e.a.a.a.d.d.d.k.j.n.n.V.N.M.V.V.V.B.B.V.V.V.V.V.V.V.N.n.n.n.n.n.j.d.d.d.d.a.a.a.a.a.p.p.p.p.e.e.e.e.e.e.e.q.r.r.r.q.q.q.q.q.8.q.8.8.7.6.6.6.6.6.7.w.h.h.w.=.@.O.O.O.o.o.o.",
"a d a d s s f k n m M M S F ( P P ~ / / ] } ..( F ( S v f f f f M M | | F F / } ` / / ( | | S M M M M V V C C S V V G G G G C V V C S S S D D F F F F F F F ~ ~ ~ ~ ~ ~ ~ ~ ~ ~ ~ ~ ~ ~ ~ ~ / / / / / / ` ` ] ] ] [ { o.X.X.@.#.5.5.f.c.m.C.F.Y.~.[.[.oX#X#X*X*X%X%X%XXX.X[.]._.E.K.F.G.G.C.S.M.M.M.M.M.M.M.M.M.M.M.L.G.F.G.T.W._.'.{..XXX%X%X*X%X*X-X-X#X.X].`.K.G.G.C.C.C.S.S.S.D.J.Q.Q.^.oXoX$X1X6X8XiXdXhXkXvXvXvXvXvXjXjXaX7XqX*X#X X.X~.T.R.Q.Q.R.K.J.J.J.J.J.J.J.R.R.R.R.R.E.Q.Q.W.W.W.W.W.T.T.T.T.T.T.W.T.Y.E.F.K.E.Y.Z.P.Y.Y.Y.Y.Y.Y.Y.Y.Y.Z.Z.Y.W.W.W.W.~.[.[.[..X.X.X X XXX@X@X@X;X;X1X4X4X8X0XyXtXtXsXgXdXdXdXdXhXjXhXdXaXaX0XiXgXaXaXaXgXaXiXiX0X0XrX7X4X1X1X*X3X=X*X*X*X*X*X*X*X@X X@X@X@X;X;X;X;X;X@X2X1X1XqXqX7X0X0X0XxXlXvXbXCXVXVXSXVXVXVXPXVXPXFXDXDXDXDXZXBXSXSXSXnXlXlXpXlXkXkXkXlXlXlXxXlXkXkXkXlXxXxXkXvXvXlXnXnXnXnXnXnXSXSXSXSXnXCXCXCXbXCXMXMXMXmXmXmXmXmXMXbXbXbXbXbXmXMXvXnXSXnXnXnXnXnXbXnXnXnXnXbXCXCXbXCXCXCXCXCXZXZXVXVXSXVXVXVXVXDXFXFXFXFXFXFXPXPXPXPXPXPXPXFXGXGXGXGXGXFXFXPXPXPXVXVXVXVXZXZXZXZXCXSXSXnXbXbXbXvXlXpXxXjXjXfXfXfXfXdXdXfXfXdXaXrXrXaXaXaXrXrXaXaXaXaXrX0X7XrXyXyXyXyXyX7X0X0X0X0X0X0X0X7X7XyXtXyXeXeXeXeXeXeXeXeXeXeXeXeXeXeXeXeXeXeXeXeXeXwXwXwXwX-X-X-X%X%XOX+X.X{.{.{.].]._.`.W.T.E.E.K.K.K.K.K.H.B.n.k.d.d.d.a.a.p.p.p.p.p.i.e.e.e.e.e.e.r.r.r.r.q.q.q.8.8.7.7.8.q.q.q.q.0.q.r.r.i.i.i.i.a.a.d.n.N.N.N.V.B.B.S.S.B.B.B.B.B.B.M.N.n.j.j.d.d.a.i.r.0.0.6.6.6.6.6.6.6.6.6.6.6.6.6.6.6.6.6.6.6.6.6.6.6.6.6.6.6.6.6.6.6.6.7.7.8.r.e.e.p.a.a.a.d.d.j.j.l.n.n.n.N.N.V.V.V.V.V.V.V.V.V.V.M.M.N.n.n.n.n.n.k.d.d.d.a.a.a.p.p.p.p.e.e.e.e.e.e.e.e.q.e.e.e.e.q.q.q.q.q.8.8.8.7.6.6.6.6.6.6.6.8.h.h.w.=.@.O.O.O.o.o.o.",
"a a a a a s f k n m M M S F U P P ~ / / ] } } ~ ( | 1.S f f f f n M ( ( ~ S ` b.b.>.' ` ' 1.b.| E F S C C V V V V V V V C V V m V C S S S D D F F F F F F F ~ ~ P P ~ ~ ~ ~ ~ ~ ~ ~ ~ ~ ~ ~ / / / / / / ` ` ` ` ] [ { { X.X.@.#.5.5.f.c.m.A.Z.Y.W.].[..XXX#X%X*X%X%XXX.X.X[.]._.E.E.K.F.G.H.S.S.M.M.M.M.M.M.M.M.M.M.G.G.G.T._._.'.]..X.XOX%X%X*X*X*X-X=X&XXX{.].W.F.G.C.C.C.S.S.S.D.J.R.T.~.^.oXXX$X1X4X9XiXdXhXkXvXvXvXvXkXjXdX9XqX1X#XXX.X[.~.T.Q.Q.Q.Q.R.R.R.R.R.R.R.Q.T.W.W.Q.W.W.W.~.^.^.~.W.W.W.W.W.W.T.W.E.R.E.E.E.F.F.F.Y.Y.Y.Y.Z.Z.Z.Z.Z.Z.Y.Y.T.T.W.W.W.~.].[.[..X.X.X X X X X X@X;X*X2X4X4X7X7X9XtXtXsXaXdXdXdXdXdXhXhXhXhXdXiXiXiX0X0X0X0X0XqXqXqXqXqXqX4X4X2X*X=X=X*X*X*X*X*X*X*X*X*X*X*X%X;X@X@X@X;X;X-X5X4X6X1XqXqX0XaXxXlXvXbXBXVXVXVXZXVXPXPXDXDXDXDXDXDXZXZXZXBXbXnXlXlXlXlXkXkXkXkXkXlXlXlXlXpXpXpXpXpXkXvXvXvXvXnXnXnXnXnXnXnXbXbXCXCXCXCXCXCXCXMXMXMXmXmXmXmXmXMXbXbXbXbXbXbXbXbXbXbXbXnXnXbXbXbXbXbXBXCXBXCXCXBXBXCXCXCXCXCXZXZXVXVXVXVXVXDXDXFXFXFXFXGXGXGXFXGXPXPXFXLXJXGXGXGXGXFXFXFXFXFXDXPXPXDXDXZXZXZXCXCXZXCXBXnXlXpXpXlXkXkXjXfXfXfXfXfXfXdXdXdXdXgXdXaXaX0X7X7X0XrXrX0X0X0XrXtXtXyXyXyXyXyXtXtXqXqXcXcXcXqX7XyXyXyXyXeXeXeXeXeXeXeXeXeXeXeXeXeXeXeXeXeXeXeXeXeXwXwXwX3X-X-X-X%XOX+X.X.X{.{.}.|.|._.`.W.W.E.E.K.K.K.K.H.H.B.n.k.d.d.d.a.a.p.p.p.p.p.i.e.e.e.e.e.e.r.r.q.q.q.q.q.8.8.7.7.7.q.q.q.q.0.q.r.r.r.i.i.i.i.a.d.j.n.N.n.N.m.B.B.B.B.B.B.B.B.B.M.N.n.j.j.j.d.a.i.r.q.q.7.6.6.6.6.6.6.6.6.6.6.6.=.6.=.=.6.6.6.6.6.6.6.6.6.6.6.6.6.6.6.6.8.7.8.r.r.r.e.p.a.a.d.d.j.l.l.n.n.n.N.N.V.N.V.V.V.V.V.V.V.V.M.M.N.n.n.n.n.j.k.d.d.d.a.a.a.p.p.p.p.e.e.e.e.e.e.e.e.e.q.e.e.e.q.q.q.q.q.8.8.8.7.6.6.6.6.6.6.6.w.h.h.w.=.@.@.O.O.o.o.o.",
"a a a a a f f k m m M V S F U P P ~ / / ] } | S S | (.<.a a a d f n ( ( S S F ~ b.U.b.b.b./.(.1.' ( ^ P L C B l l B B B B m m m M M S S S S D D F F F F F F ~ ~ F F ~ ~ ~ ~ ~ ~ ~ ~ ~ ~ ~ ~ / / / / / / ` ` ` ` ] ] { { [ X.O.#.6.5.i.f.c.A.C.F.T.~.[.[.XXXX%X%X%X%XXX.X.X[.]._.T.E.K.K.K.H.S.S.S.S.S.M.M.M.M.M.L.G.G.K.E._._.].].{..X+XOX%X%X%X%X-X3X3X=XXX{.].`.K.G.C.C.C.S.S.D.S.D.R.R.T.~.^. X#X*X6X8XiXdXhXkXvXvXvXvXkXjXjXaX0X1X*X#X XoX~.W.W.Q.Q.R.R.R.W.W.Q.Q.Q.Q.Q.W.~.~.].].].].[.[.].].].].W.W.W.W.W.W.E.E.E.E.E.F.Y.Y.Y.Y.Y.Y.F.Y.Y.Y.Y.T.T.T.T.W.W.W.].'.[.[..X.X.XXXXXXXXX@X;X*X2X2X2X4X7X7X9XtXsXsXaXdXdXxXxXdXdXhXhXhXdXdXgXaXdXgXgXgXaXaXrXrXrX7X4XeXwX4X2X2X=X=X=X=X*X*X*X*X*X-X-X-X*X*X*X%X;X;X*X-X3X4X4X7X7X7XrXgXhXkXvXMXbXBXZXHXHXDXDXFXFXDXDXDXDXDXZXZXZXVXBXbXbXvXvXkXkXkXkXjXjXhXhXhXkXxXxXlXlXkXkXvXvXvXvXvXbXvXbXMXMXMXCXCXCXCXMXMXMXMXMXMXMXMXMXMXMXMXMXmXmXbXbXbXbXbXbXMXMXMXMXCXCXCXCXCXCXCXCXBXCXCXCXBXBXCXCXCXCXZXZXZXZXDXDXDXDXDXHXDXFXFXFXGXGXGXGXGXGXGXGXGXGXGXGXGXGXFXFXFXFXFXFXFXFXDXDXZXAXCXCXCXBXBXbXbXbXmXvXvXkXjXjXfXfXfXfXfXfXdXdXdXgXgXsXgXaXaXaXsXsXrXsXsXsXsXtXtXtXyXyXyXyXyXyXtXyXtXsXtXyX0XyXyXyXyXyXyXyXyXyXyXyXeXeXeXeXeXeXeXeXeXeXeXeXeXwXwXwXwXwX3X-X-X%X%XOX+X.X{.{.{.}.}.|._.`.W.E.E.K.K.K.K.K.K.H.B.l.k.d.d.d.a.a.a.a.p.p.p.p.e.e.e.e.e.e.e.e.r.r.q.q.q.q.8.8.8.8.q.q.q.q.8.8.r.r.r.r.e.i.i.i.a.j.n.N.n.N.m.B.B.B.B.B.B.B.B.B.M.n.n.j.j.k.d.a.i.r.0.q.7.6.w.w.6.6.6.6.6.6.6.6.=.=.=.=.6.6.6.6.6.6.6.6.6.6.6.6.6.6.6.6.8.8.q.r.r.r.r.e.p.a.d.d.j.l.l.l.n.n.V.N.N.N.N.N.V.V.V.V.V.V.M.M.M.n.n.n.n.n.k.d.d.d.a.a.a.p.p.p.p.e.e.e.e.e.e.e.e.e.q.q.e.e.q.q.q.q.q.8.8.8.7.7.6.6.6.6.6.6.6.w.h.h.=.@.@.O.O.+.o.o.",
"a a a a a f f k m m M V S F P P P ~ / / ] ] ( M n F 1.W d i i a f k T | m S S V C V A $./.$X^.1.E ' | ....} ( P V m k m m m m m m M V C S D D D F F F F F F ~ ~ F F ~ ~ ~ ~ ~ ~ ~ ~ ~ ~ ~ ~ / / / / / / / ` ` ` ] ] } { [ X.O.@.#.5.t.s.x.m.A.Z.Y.W.].[..XXX%X%X%X%XXX.X.X[.]._.T.E.K.K.J.J.S.S.S.S.S.M.M.M.M.C.L.H.K.E.`._._.|.|.{.+X+XOX&X&X%X%X*X2X3X=X&X.X|.`.K.G.C.C.C.S.D.S.S.Z.R.R.T.T.~.oXXX#X1X4X9XiXdXhXkXvXvXvXkXjXjXdX0XqX1X$XXX X[.~.W.W.T.T.T.T.W.W.W.W.~.~.^.].].[.[.[.[.[.{.[.}.[.[.].].].W.W.W.Q.E.E.E.E.E.J.J.Y.Y.R.Y.Y.F.Y.Y.Y.Y.R.T.T.T.W.W.W.W.].].[.[..X.XXXOX%X%X;X*X-X2X2X2X5X7X0X9XtXsXaXaXdXdXxXxXdXdXhXhXhXhXdXdXdXdXaXaXaXaXrX0XrXrXrXrXeX4X2X2X2X=X=X=X=X*X*X*X*X*X*X*X*X%X*X*X*X*X*X*X-X2X4X4X4X7X7XsXdXjXkXvXbXCXBXCXZXZXZXDXFXFXDXDXDXDXDXZXZXZXVXBXbXbXvXvXkXkXkXkXjXjXhXhXhXhXxXkXlXlXlXkXkXkXvXvXvXvXmXMXMXMXMXMXMXMXMXMXMXMXMXMXMXMXMXMXMXMXMXMXMXmXbXbXbXbXbXbXMXMXbXMXMXMXCXCXCXCXCXCXBXBXCXCXBXBXCXCXCXCXZXZXZXZXDXDXDXDXDXDXDXDXFXFXGXGXGXGXGXGXGXGXGXGXGXGXGXGXFXFXFXFXFXFXFXDXDXZXZXAXCXCXCXCXbXbXMXbXbXvXvXkXjXjXfXfXfXfXfXfXdXdXgXgXsXsXgXgXgXsXsXsXrXrXrXrXsXrXtXtXyXyXyXyXyXyXyXtXtXtXyXyXyXyXyXyXyXyXyXyXyXyXyXyXeXeXeXeXeXeXeXeXeXeXeXeXeXwXwXwXwX2X-X-X-X&XOX+X.X.X{.{.}.|.|._.`.`.E.E.K.K.K.K.K.K.K.H.B.n.k.d.d.d.a.a.a.a.p.p.p.p.e.e.e.e.e.e.e.e.r.r.q.q.q.q.8.8.8.8.q.q.q.q.8.8.r.r.r.r.e.e.i.i.a.k.n.n.N.N.m.m.B.B.B.B.B.B.B.B.M.n.n.j.j.k.d.i.i.r.r.q.7.6.w.w.6.6.6.6.6.6.6.6.=.=.=.=.6.6.6.6.6.6.6.6.6.6.6.6.6.6.6.6.8.7.8.q.r.r.r.r.e.p.d.d.l.l.l.n.n.n.N.N.N.N.N.V.V.V.V.V.V.V.V.M.N.N.n.n.n.n.k.d.d.d.a.a.a.p.p.p.p.e.e.e.e.e.e.e.e.e.q.q.q.q.q.q.q.8.8.8.8.7.6.6.6.6.6.6.6.6.6.w.h.h.=.@.@.O.O.+.o.o.",
"d d a d a f f n m m V V D F P P P ~ / / ] ] F n f v U.U.N r r i s s k N N M M M S S S E <.(.3X$X/.z.$.$.' / 1.1.>.$.' F M M S M M M V C S D D D D D F F F F F F F F ~ ~ ~ ~ ~ ~ ~ ~ ~ ~ ~ ~ / / / ~ / / / / / ` ] ] } { { X.O.@.#.9.t.f.x.x.m.C.F.E.W.].[..XXX%X%X%XXXXX.X[.]._.W.W.E.J.J.J.D.D.H.H.S.S.C.C.C.C.G.K.K.`.`.`.].].{.{.+X+XOX&X&X%X%X*X2X3X-X&X{.].`.K.G.C.M.m.B.D.D.S.D.J.R.Y.T.~.[. X#X*X6X8XiXdXhXjXvXvXvXvXkXjXdXsX0X1X1X*XXX.X'.~.~.~.~.~.~.~.~.~.~.~.[.[.[.[.[.[..X.X.X.X.X.X[.{.[.].].]._.W.Q.W.Q.Q.K.J.J.J.R.R.R.R.Y.Y.Y.Y.Y.Y.R.R.T.T.T.W.W.W.].].[.[..X.XXXXX%X%X*X*X-X2X3X3X5X8X0X0XtXsXaXdXdXdXdXdXdXhXhXhXjXdXdXdXdXdXgXaXaXaXrX0XrXrXrXrXeX4X4X2X2X2X=X=X=X=X*X*X*X*X*X*X*X*X*X*X*X*X*X*X-X2X2X4X4X4X0XsXdXjXkXvXMXMXCXCXZXVXZXDXDXDXFXFXDXZXDXDXZXZXVXBXBXbXbXvXvXkXkXkXkXkXkXkXkXkXkXkXkXkXkXkXvXvXvXvXmXmXMXMXMXMXbXbXCXCXCXCXCXCXCXCXCXCXCXCXCXCXMXMXMXMXMXMXMXMXMXMXMXMXCXbXCXCXCXCXCXCXCXCXCXCXCXCXCXCXCXCXCXCXCXCXZXZXDXDXDXDXDXDXDXDXFXFXGXGXGXGXGXGXGXFXGXFXGXGXGXGXFXFXFXFXFXFXFXFXDXZXAXAXCXCXCXCXbXMXMXMXvXvXkXkXjXjXfXfXfXfXfXfXfXfXfXgXgXgXgXgXsXsXsXsXrXrXtXtXtXtXtXtXtXtXtXtXtXtXtXtXyXyXtXyXyXyXyXyXyXyXeXeXyXyXyXyXeXeXeXtXeXeXeXeXeXeXeXwXwXwXwXwX2X2X3X-X&X&XOX+X.X.X{.|.|.]._._.`.`.`.E.E.K.K.K.K.K.H.H.B.V.l.d.g.d.d.a.a.a.a.a.a.a.a.p.p.p.e.e.e.e.e.e.r.r.r.r.r.r.r.r.q.q.q.q.8.q.r.r.r.r.e.e.i.i.a.k.n.n.n.n.N.m.B.B.V.V.B.B.B.B.M.M.n.j.j.k.d.a.i.i.r.q.q.7.8.w.6.6.6.6.6.6.6.6.6.6.6.6.6.6.6.6.6.6.6.6.6.6.6.6.6.6.6.6.7.8.7.8.r.r.r.r.e.p.d.g.l.l.l.n.n.n.N.V.N.N.N.N.N.N.V.V.N.N.N.n.N.N.N.N.n.j.j.d.d.d.a.a.p.p.p.e.e.e.e.e.e.e.q.q.q.q.q.q.q.w.w.w.8.8.8.8.8.6.6.6.6.6.6.6.6.6.6.w.h.h.;.@.O.O.O.o.o.o.",
"d d a d d f f n m m V V D F P P P ~ / / ] ( F k r p A 3.H a r r a s s f f k k k M S S S S ,.(.$X<.<./.U.U.1.$.:.$.$.b.U.U.,.A M M M V C S D D D D D F F F F F F F F ~ ~ ~ ~ ~ ~ ~ ~ ~ ~ ~ ~ ~ ~ / ~ / / / / / / ] } } { { o.+.O.@.9.9.s.s.c.m.A.Z.Y.W.].]..XXXOX%XOXXXXX.X{.]._.W.W.E.J.J.J.Z.D.H.H.S.S.C.C.C.L.G.K.E.`.`.`.].].{.{.+X+XOX&X&X%X%X*X=X=X-X&XoX].Q.K.C.C.N.m.m.M.D.S.S.Z.Z.Y.Y.T.~.[.XX#X1X8X9XiXdXhXkXkXvXvXvXjXhXdXsX7X4X1X%XXX X~.!.!.!.!.!.!.'.'.[.[.[.[..X.X.X.X.X.X.X.X.XoX.X.X[.[.].].]._.W.Q.Q.Q.K.J.J.J.R.R.R.R.Y.Y.Y.Y.Y.Y.R.R.T.T.T.W.W.W.~.].[.[..X.XXXXXOX%X*X*X-X-X3X3X5X8X0X9X9XsXaXdXdXdXdXdXhXhXhXhXjXdXdXdXdXdXgXgXgXaXaXrXrXrXrXrX7X7X4X2X2X2X1X=X=X=X*X*X*X*X*X*X*X*X*X*X*X*X*X*X-X2X2X4X4X4X0XsXdXjXkXvXbXMXCXCXCXZXZXDXDXDXFXFXDXZXDXDXZXZXVXBXBXbXbXvXvXvXkXkXkXkXkXkXkXkXlXlXkXkXkXkXkXvXvXvXvXmXMXMXMXMXbXbXCXCXCXCXCXCXCXCXCXCXCXCXCXCXCXCXMXMXMXMXMXMXMXMXMXMXCXCXCXCXCXCXCXCXCXCXCXCXCXCXCXCXCXCXCXCXCXCXZXZXDXDXDXDXDXDXDXDXFXFXGXGXGXGXGXGXGXGXGXGXGXGXGXGXFXFXFXFXGXFXFXFXDXZXAXAXCXCXCXCXbXbXMXmXvXvXvXkXjXjXfXfXfXfXfXfXfXfXfXgXgXgXgXgXsXsXsXsXsXaXsXsXtXtXtXtXtXtXtXtXtXtXyXyXyXyXtXyXyXyXyXyXyXyXeXeXyXyXyXyXeXeXeXtXeXeXeXeXeXeXeXwXwXwXwXwX2X2X-X-X&X&XOX+X+X.X{.|.].]._._.`.`.`.E.K.K.K.K.K.K.H.H.B.n.l.d.g.d.d.a.a.a.a.a.a.a.a.a.p.p.e.e.e.e.e.e.r.r.r.r.r.q.r.r.q.q.q.q.q.q.r.r.r.r.e.e.i.a.a.k.n.n.n.n.n.m.M.M.V.V.B.B.B.B.M.M.n.j.j.j.d.a.i.i.r.q.q.7.8.w.6.6.6.6.6.6.6.6.6.=.6.6.6.6.6.6.6.6.6.6.6.6.6.6.6.6.6.6.7.7.7.7.q.q.r.r.e.a.d.g.g.l.j.l.n.n.j.j.V.N.N.N.N.N.N.N.N.n.n.n.N.n.n.j.j.j.j.d.d.d.a.p.p.p.e.e.e.e.e.e.e.e.q.q.q.q.q.q.w.w.w.w.8.8.8.6.6.6.6.6.6.6.6.6.6.6.6.w.h.w.;.@.O.O.O.o.o.o.",
"a a a a d f f n m m V C D F P I P ~ / / / ( D k r i v d i i g f g a a s s f f f m Z G G M G v A ( F S ( 1.U.(.(.^.).z.U.U.E | ,.M M V S S D D D D F F F F F P F F P ~ ~ ~ P ~ ~ ~ ~ ~ ~ ~ ~ ~ ~ ~ ~ / / / / / / ] } } { { o.O.O.@.=.0.t.s.x.x.m.Z.F.E._.].'..XXXOXOXXX.X.X{.].].`.W.F.F.G.J.Z.S.H.H.H.H.G.C.G.G.K.K.E.`.`._.|.].{..X+XXX#X#X%X%X%X*X*X=X=X&X{.].Q.K.C.C.N.m.m.m.D.D.S.Z.Y.R.Y.T.~.[. X#X*X6X8XiXdXhXhXkXkXkXkXkXjXjXdXtX7X4X1X*XXX!.!.!.[.[.[.[.[..X.X.X.X.X.X.X.X.XXXXXXXXXXX.X.X.X.X[.[.].].].W.Q.Q.Q.E.E.K.J.R.K.E.R.R.R.Y.E.Y.Y.R.R.T.T.W.W.W.W.].[.[.[..X.XXXXX%X%X%X%X-X-X2X3X5X8X0X9XtXsXaXdXdXdXdXdXhXhXhXjXjXjXdXdXdXdXgXaXaXaXaXaXrXrXrXrXyX7X4X2X3X3X3X2X2X=X=X*X*X*X*X*X*X*X=X*X-X-X-X-X-X2X3X5X4X8X0XsXdXjXkXvXMXMXCXCXCXZXZXDXDXDXFXDXDXDXDXDXDXZXZXCXBXbXbXvXvXvXkXkXkXkXkXkXkXkXkXkXkXkXkXvXvXvXvXmXmXmXMXMXMXMXMXMXMXMXCXCXCXCXCXCXCXCXCXCXCXCXCXCXCXCXMXMXMXbXMXMXMXMXCXCXCXCXCXCXCXCXCXCXCXCXCXCXCXCXCXCXCXCXZXZXZXZXDXDXDXDXDXDXDXDXFXFXGXGXGXGXGXGXGXGXGXGXGXGXGXGXFXFXFXFXFXGXGXFXDXZXAXAXCXCXCXCXbXbXMXmXvXvXvXkXjXjXfXfXfXfXfXfXfXfXfXgXgXgXgXgXsXsXgXgXsXsXsXsXtXtXtXtXtXtXtXtXtXyXyXyXtXtXyXyXyXyXyXyXyXyXeXeXyXyXeXyXeXeXeXeXeXeXeXeXeXeXwXwXwXwXwX2X2X2X-X-X&XOXOX.X.X.X{.|.].]._._.`.`.`.`.K.K.K.K.K.K.K.H.B.V.l.d.g.d.d.a.a.a.a.a.a.a.a.a.p.p.e.e.e.e.e.e.e.e.r.r.r.q.q.q.q.q.q.q.q.q.r.r.r.r.e.e.i.a.a.j.n.n.n.n.N.m.m.m.V.V.M.M.M.M.M.M.n.j.j.k.d.a.i.i.r.q.q.8.8.w.6.6.6.6.6.6.6.6.6.6.6.6.6.6.6.6.6.6.6.6.6.6.6.6.6.6.6.8.8.8.7.7.q.q.r.r.r.a.a.g.g.l.j.j.l.j.j.j.n.n.V.V.N.N.n.n.n.n.n.n.n.n.n.j.j.j.k.d.d.d.a.a.p.p.p.e.e.e.e.e.e.e.q.q.q.q.q.q.w.w.8.8.8.8.8.6.6.6.6.6.6.6.6.6.6.6.6.8.h.w.;.@.O.O.o.o.o.o.",
"a a a d d f f n m m V C D F P I P ~ / / / ( D f r i d p a a g a g g s a s s s s f n N H A N G T U C T F S A W z.6X0X6X(.U.A <.( S V V S S D D D D F F F F F P F F P ~ ~ ~ ~ ~ ~ ~ ~ ~ ~ ~ ~ ~ ~ ~ ~ / / / / / / ] ] } { { o.O.O.@.=.9.y.i.s.x.m.m.Z.F.T._.].{..XXXXX.X.X{.{.{.].`.E.F.F.G.J.J.S.H.H.H.H.H.G.G.G.K.K.E.`._._.].[..X.XXXXX#X#X&X%X%X%X%X-X&X+X}._.E.J.S.M.m.m.m.m.m.A.S.D.Z.R.Y.Y.T.~. XXX#X6X8X9XiXhXhXkXkXkXvXkXkXjXjXdXaX0X4X6X$X X X!. X.X.X.X.X.X.X.X.X.XXX XXXXXXXXXXXXXXXXXXXXX.X.X[.].].]._.W.Q.Q.E.E.J.K.E.E.E.E.R.R.Y.Y.Y.Y.R.R.T.T.W.W.~.~.].[.[.[..X.XXXXXOX%X%X*X=X2X2X3X5X0X9XyXsXsXaXdXdXdXdXdXhXdXhXjXjXjXdXdXdXdXgXaXaXaXaXaXrXrXrXrXyX7X4X4X5X3X3X3X2X=X=X*X*X*X*X*X*X*X=X=X-X-X-X-X-X2X3X5X5X7X0XsXdXjXkXvXMXMXCXCXCXZXZXDXDXDXDXDXDXZXDXDXDXZXZXZXBXbXbXvXvXvXkXkXkXkXkXkXkXkXkXkXkXkXkXvXvXvXvXmXmXMXMXMXMXMXMXMXMXMXCXCXCXCXCXCXCXCXCXCXCXCXCXCXCXCXMXMXMXMXbXMXMXMXCXCXCXCXCXCXCXCXCXCXCXCXCXCXCXCXCXCXCXZXZXZXZXZXZXDXDXDXDXDXDXDXFXFXGXGXGXGXGXGXGXGXGXGXGXGXGXGXFXFXFXFXGXGXFXFXDXZXAXCXCXCXCXMXbXbXmXmXmXvXvXkXjXjXfXfXfXfXfXfXfXfXfXfXgXgXgXgXgXgXgXgXsXsXsXsXtXtXtXtXtXtXtXtXyXyXyXyXtXtXyXyXyXyXyXyXyXyXeXeXyXyXyXyXeXeXeXeXeXeXeXeXeXeXwXwXwXwXwX2X2X-X-X-X%XOX+X+X.X.X{.|.|.]._._.`.`.`.`.K.K.I.K.K.K.H.H.B.V.l.d.g.d.d.a.a.a.a.a.a.a.a.a.p.p.e.e.e.e.e.e.e.e.e.r.r.q.q.q.q.q.q.q.q.q.r.r.r.r.e.e.i.a.a.j.n.n.n.n.N.V.m.m.V.V.M.M.M.M.M.M.V.n.j.k.d.a.i.i.r.q.q.8.8.w.6.6.6.6.6.6.6.6.6.6.6.6.6.6.6.6.6.6.6.6.6.6.6.6.6.6.6.8.8.8.7.7.q.q.r.r.r.a.a.d.d.g.k.k.l.j.j.j.n.n.V.V.n.N.n.n.n.n.n.n.n.j.n.j.j.j.k.d.d.d.a.a.p.p.p.e.e.e.e.e.e.e.q.q.q.q.q.q.q.w.8.8.8.8.8.6.6.6.6.6.6.6.6.6.6.6.6.8.h.w.;.@.O.O.o.o.o.o.",
"a a d d f f k n m M V V D F P I P ~ / / / ( S f a i d p a d a a a a s s a s s a a f N H H H Z Z Z Z Z G S S G G d A U.6XsX(.(.| S V C S D D D D D F F F F F F F P P P P P P ~ ~ ~ ~ ~ ~ ~ ~ ~ ~ ~ / / / / / / / / ] [ } { o.O.O.*.=.9.u.y.s.x.x.m.A.G.Y.W.].[.{..X.X.X{.{.{.{.].`.Y.Y.F.F.G.J.J.H.H.H.G.H.F.J.K.`.`.`.`.|.].{..XoXoX+XXXXXXX&X%X%X%X&X&X+XoX}.Q.K.H.C.m.N.m.m.m.m.A.C.S.Z.F.R.Y.T.!.[. X#X*X6X8X9XdXhXhXkXkXkXkXlXlXhXhXhXdXiX7X1X$X@X X XXXXX+XXXXXOXXXXXXXXXXX%X%X%X%X%X%X%X%X%XOXXX.X.X}.}.[.^.~.W.Q.Q.E.E.E.E.E.E.E.R.R.Y.Y.R.R.R.R.T.W.W.W.W.'.].[.[.[..X.XXXXX%X%X%X*X-X-X2X5X8XeX9X9XsXsXaXdXdXdXfXfXjXjXjXjXjXhXdXdXdXdXdXdXgXsXaXrXrXrXrXrXeXeXwX5X5X5X3X3X2X2X1X=X=X=X=X=X=X=X=X=X-X-X-X-X-X2X2X5X5X7X9XaXdXjXkXvXvXbXCXCXCXZXZXDXDXDXDXDXDXDXDXDXDXZXZXCXCXCXbXvXvXvXkXkXkXkXkXkXkXkXvXvXkXkXkXkXvXmXvXmXMXMXMXMXCXMXCXCXCXCXCXCXCXCXCXCXCXCXCXCXCXCXCXCXCXCXCXCXCXCXCXCXCXCXCXCXCXCXCXCXCXCXCXCXCXCXCXCXCXCXZXZXZXZXZXZXZXZXZXDXDXDXHXHXDXDXFXFXFXFXGXGXGXGXGXGXLXLXGXGXGXGXGXGXGXGXFXFXFXDXDXZXAXCXCXCXCXMXbXMXmXmXvXvXvXkXjXjXjXfXfXfXfXfXdXdXgXgXsXsXsXsXsXsXgXgXsXsXsXsXsXtXtXtXtXtXtXtXyXyXyXyXtXtXtXtXtXtXtXtXtXtXtXtXeXeXeXeXeXeXeXeXeXeXeXeXeXwXwXwXwX4X2X2X2X-X-X-XOX+X.X+XoX{.{.].].]._._.`.`.`.E.K.K.K.K.K.K.K.H.B.V.l.d.d.d.d.a.d.a.a.a.a.p.a.a.e.e.e.e.e.p.p.e.e.e.e.e.e.r.r.r.r.r.r.r.r.r.r.r.r.e.e.e.i.a.a.d.j.j.n.n.N.N.N.N.N.N.V.B.B.B.M.N.n.j.k.k.a.i.i.e.r.e.q.8.8.8.8.8.8.6.6.6.6.6.6.6.6.6.6.6.6.6.6.6.6.6.6.6.6.6.6.6.7.7.8.7.7.8.q.q.q.r.e.p.a.d.g.g.d.d.l.l.j.j.j.j.n.n.n.n.n.n.n.n.n.n.j.j.j.j.j.j.k.d.a.a.a.a.a.a.p.p.e.e.e.e.e.e.q.q.q.q.8.8.8.8.8.8.8.w.6.6.6.6.6.6.6.6.6.6.6.=.6.w.h.w.=.@.O.O.O.o.o.o.",
"a a d d f f f n m M V V D F P I P ~ / / / ( S f a a p i p p a a a a a a a a a a a a f v N N m m m m m M M M B B B m d v Q 1.U.1.S V C S D D D D D F F F F F F F P P P P P P ~ ~ ~ ~ ~ ~ ~ ~ ~ ~ ~ / / / / / / / / ] } } { o.O.O.*.=.=.w.y.s.s.x.x.m.C.F.R.W.].].'.'.'.'.|.}.|.].W.R.Y.F.F.F.F.J.H.G.H.G.F.K.Q.`.`.`.`.|.].].{.oXoX+X+XXXXXXX&X%X%X&X&X+XoX].W.R.H.C.m.m.m.m.x.x.m.B.C.C.Z.Z.J.Y.T.~.~. XXX*X1X5X9XiXdXhXjXkXkXkXlXlXlXlXhXhXdXiX8X6X*X@X@X%X%X%X%X%X%X%X*X*X*X*X*X=X=X=X=X=X=X=X*X*X%X%X+XoXoXoXoX[.]._.W.Q.W.Q.W.Q.E.E.E.Y.Y.Y.R.R.R.R.W.W.W.W._.'.].[.[.[..X.XXXXX%X%X*X*X-X1X4X5X0XtXtXtXsXaXdXdXdXdXfXfXjXjXjXjXjXhXdXdXdXdXdXdXgXsXrXrXrXrXrXrXeXeX8X4X5X5X3X2X2X2X=X=X=X=X=X=X=X=X=X=X-X-X-X-X-X2X2X5X8X7X9XaXdXhXkXvXvXbXCXBXCXZXZXDXDXDXDXDXDXDXDXDXDXZXZXCXCXCXbXbXvXvXvXkXkXkXkXkXkXkXvXvXkXkXkXvXvXmXvXmXMXmXMXMXMXMXCXCXCXCXCXCXCXCXCXCXCXCXCXCXCXCXCXCXCXCXCXCXCXCXCXCXCXCXCXCXCXCXCXCXCXCXCXCXCXCXCXCXCXCXZXZXZXZXZXZXZXZXZXDXDXDXHXHXDXDXFXFXFXFXGXGXGXGXGXGXLXGXGXGXGXGXGXGXGXGXFXFXFXDXDXZXAXCXCXCXCXMXMXMXmXmXvXvXvXkXjXjXjXfXfXfXfXfXdXdXgXgXsXsXsXsXsXsXgXgXsXsXsXsXsXtXtXtXtXtXtXtXyXyXyXyXtXtXtXtXtXtXtXtXtXtXtXtXeXeXeXeXeXeXeXeXeXeXeXeXeXwXwXwX4X2X2X2XwX-X-X%XOX+X+X+XoX{.{.].].]._._._.`.`.E.K.K.K.K.K.K.K.K.B.V.l.d.d.d.d.a.d.a.a.a.a.p.a.a.e.e.e.e.e.e.p.e.e.e.e.e.e.r.r.r.r.r.r.r.r.r.r.r.r.e.e.i.i.a.a.d.n.j.n.n.n.N.N.N.N.N.V.B.M.B.M.N.n.j.k.k.a.i.i.e.r.e.8.8.8.8.8.8.8.6.6.6.6.6.6.6.6.6.6.6.6.6.6.6.6.6.6.6.6.6.6.6.7.7.7.7.7.8.q.q.q.r.e.p.a.a.d.g.d.d.k.k.j.j.j.j.n.n.n.n.n.n.n.n.n.n.j.j.j.j.j.j.k.d.a.a.a.a.a.a.p.p.e.e.e.e.e.e.q.q.q.q.8.8.8.8.8.8.8.w.6.6.6.6.6.6.6.6.6.6.6.=.6.w.h.w.;.@.O.O.O.o.o.o.",
"a d d d f f f n m M V S D F P I P ~ / / / ( S v a a p i u u u r i p a p a a a a a a d d f f s s f f f f k k k l j B M N v S | | P C C S D D D D D F F F F F F P P F P P P P ~ ~ ~ ~ ~ ~ ~ ~ ~ ~ ~ / / / / / / / / ] } [ [ o.o.O.*.*.;.9.w.y.f.d.x.x.m.S.R.Q.W.].].'.'.'.].]._._.W.R.F.F.F.F.F.F.K.J.G.F.E.Q.`._._.|.}.}.{.{.oX+X+X+X+X+XXXXXOXOXOX+X+X{.].W.R.J.C.M.m.m.m.m.x.x.m.m.m.C.C.Z.Z.Y.Y.T.!. X X#X*X4X8X9XaXdXjXkXkXkXlXkXlXlXkXhXhXdXsX0X2X1X*X=X-X-X*X=X*X=X*X*X1X1X1X6X6X6X6X6X6X6X1X1X*X%X#XXXoXoXoXoX[.[.]._.Q.W.W.W.W.E.R.R.R.R.R.T.W.W.W.W.W.W._.].].[.[..X.XXXXXXX%X%X*X*X-X2X4X5X0XtXtXsXdXdXdXdXfXfXfXfXjXjXjXjXjXhXdXdXdXdXdXdXgXsXsXtXtXtXrXrXyXeX8X5X5X5X5X5X3X2X3X2X1X1X2X2X=X=X2X2X2X2X-X-X2X2X5X8X0X9XiXdXhXjXkXvXvXbXCXBXCXZXZXDXDXDXDXDXDXDXDXDXDXZXZXCXCXCXbXbXvXvXvXvXvXvXkXkXkXkXvXvXvXvXmXvXmXmXmXmXmXmXMXMXCXMXCXCXCXCXCXCXCXCXCXCXCXCXCXCXCXCXCXCXCXCXCXCXCXCXCXCXCXCXCXCXCXCXCXCXCXCXCXCXCXCXCXCXCXCXZXZXZXZXZXZXZXZXZXDXDXDXDXDXDXDXFXFXFXFXGXGXGXGXGXGXGXGXGXGXGXGXGXGXGXGXFXFXFXDXDXZXAXCXCXCXCXMXMXmXmXmXvXvXvXkXjXjXjXfXfXfXfXfXdXdXgXgXgXgXsXsXsXsXsXsXsXsXsXsXsXtXtXtXtXtXtXtXyXyXyXyXtXtXtXtXtXtXtXtXtXtXtXtXeXeXeXeXtXtXtXeXeXeXeXeXwXwXwX4XwX2X2X2X-X-X-X%X+X+X+X.X.X{.{.].}.]._._.`.`.`.K.K.K.K.K.K.K.K.K.B.V.l.d.d.d.d.d.d.d.a.a.a.p.a.a.p.p.e.e.p.p.e.e.p.p.p.e.e.e.e.e.e.e.e.e.r.r.r.r.e.e.p.i.i.a.a.d.n.n.n.n.n.N.m.m.m.N.N.N.N.N.M.N.n.j.k.a.a.a.i.i.r.e.8.8.w.8.8.8.8.8.6.6.6.6.6.6.6.6.6.6.6.6.6.6.6.6.6.6.6.6.6.6.7.8.8.8.q.q.q.q.r.r.e.p.a.d.d.g.d.d.j.j.j.j.j.j.n.n.n.n.n.n.n.n.j.j.j.j.j.j.j.j.d.d.d.a.a.a.a.a.p.p.e.e.e.e.e.e.q.q.q.q.8.8.8.8.8.w.w.6.6.6.6.6.6.6.6.6.6.6.6.=.6.w.h.w.=.@.O.O.o.o.+.+.",
"a a d d f f f n m M V S D F P P P ~ / / / ( M v a a p u e e e e e u u i i i u u i i i i a a a a a a a a s s s j k k j s k m V ( L C C C S S D D D F F F F F F P F F P P P P ~ ~ ~ ~ ~ ~ ~ ~ ~ ~ ~ ~ / / / / / / / ] } [ [ o.o.O.%.*.=.=.0.y.i.s.d.d.n.D.C.R.Q.W._._._._._._._.`.W.E.F.F.F.F.F.F.K.K.F.E.W.`.].].|.|.|.{.{..XoX+X+X+X.X.X+X.XXX.X+XoX[.].Q.R.J.C.M.m.m.m.x.x.x.x.x.m.m.C.C.C.C.Z.Y.T.~.~. XXX#X1X4X7XsXdXjXjXkXkXkXkXlXlXlXkXhXhXfXsX0X4X1X2X2X1X1X1X1X1X1X1X1X1X1X1X2X2XqXqXqX1X1X1X1X*X#X#XXXXXoXoXoX[.[.]._._.W.W.W.T.T.T.T.R.T.W.W.W.W.W.W.W._.].].[.[.oX.XXXXXXX%X%X*X*X1X2X4X8X9XtXsXsXdXdXdXdXfXfXfXfXjXjXjXjXjXhXdXdXdXdXgXdXgXsXsXtXtXtXrXrXyXeX0X8X5X5X5X5X5X3X3X2X1X1X2X2X=X=X2X2X2X2X2X2X2X4X5X8X9X9XiXdXhXjXkXvXvXbXCXBXCXZXZXZXDXDXDXDXDXDXDXDXDXZXZXZXCXBXbXbXvXvXvXvXvXvXkXkXkXkXvXvXvXvXmXvXmXmXmXmXmXmXMXCXCXMXCXCXCXCXCXCXCXCXCXCXCXCXCXCXCXCXCXCXCXCXCXCXCXCXCXCXCXCXCXCXCXCXCXCXCXCXCXCXCXCXCXCXCXCXZXZXZXZXZXZXZXZXZXDXDXDXDXDXDXDXFXFXFXFXGXGXGXGXGXGXGXGXGXGXGXGXGXGXGXGXFXFXFXDXDXZXAXCXCXCXCXMXMXmXmXmXvXvXkXkXjXjXjXfXfXfXfXfXdXdXgXgXgXgXsXsXsXsXsXsXsXsXsXsXsXtXtXtXtXtXtXtXyXyXyXyXtXtXtXtXtXtXtXtXtXtXtXtXeXeXeXeXtXtXeXtXeXeXeXeXwXwXwX4X2X2X2X2X-X-X%XOX+X+X+X.X.X{.{.].}.]._._.`.`.`.K.K.K.K.K.K.K.K.K.B.V.n.d.d.d.d.d.d.d.d.a.a.p.p.a.p.e.e.e.e.e.e.e.p.p.p.e.e.e.e.e.e.e.e.e.r.r.r.r.e.e.p.i.i.a.a.j.n.n.n.n.N.N.m.m.m.m.N.N.N.N.M.N.n.j.k.a.a.a.i.i.r.e.8.8.w.8.8.8.8.6.6.6.6.6.6.6.6.6.6.6.6.6.6.6.6.6.6.6.6.6.6.6.7.8.8.8.q.q.q.r.r.r.e.p.p.a.a.d.a.a.d.d.k.k.j.j.j.j.j.l.j.j.j.j.j.j.j.k.j.j.j.d.d.d.a.a.a.a.a.a.p.p.p.e.e.e.e.e.q.q.q.q.8.8.8.8.w.6.6.6.6.6.6.6.6.6.6.6.=.=.=.=.=.w.h.w.=.O.O.O.o.o.o.o.",
"a a a a f f f n m m V S D F P P ~ ~ / / / ( M v d a i u e e e e e e e i i i i u u u u u i i i i a i a a a a a s s s s j B B C D D V C C C S S D D G F F F F F F P P P P P P ~ ~ P P ~ ~ ~ ~ ~ ~ ~ ~ ~ / / / / / / ] } [ [ { o.O.O.@.*.;.9.0.y.i.i.d.d.m.m.C.J.R.W.`.`._.`.`.`.Q.W.E.K.K.E.K.K.K.K.E.E.`._.].}.{.{.{.{.{..X+X+X+X+X.X.X.X.X.X.X{.[.[.].W.Q.J.S.m.m.m.n.x.x.x.x.x.n.m.m.m.M.A.C.C.F.Y.T.~.'..XXX*X1X7X0XsXdXjXjXkXkXkXkXkXlXlXkXhXhXdXaX9X7X7X7X4X7X4X7X7X7X7X7X7X0X0X0X0X0X0X0X0X7X4X1X1X*X*X#X#XXXXXoX.X[.'.].'._._._.W.W.T.W.W.W.W.W.W.W.W.W._.].].].[..X.XXX+XXX%X%X*X*X1X4X5X8X8X9XiXdXdXfXfXdXhXjXjXhXhXjXjXhXhXjXdXdXdXdXdXgXgXgXsXsXsXtXtXtXyXyXeX0X8X5X5X5X5X5X3X3X2X2X2X2X2X1X2X3X3X3X3X2X2X5X4X8X9X9X9XiXdXjXjXkXvXvXbXbXBXCXZXZXZXDXDXDXDXDXDXDXDXFXZXZXVXBXBXbXbXvXvXvXvXvXvXvXvXvXvXvXvXvXvXvXvXvXvXMXMXmXmXMXMXCXCXCXCXBXBXCXCXCXCXCXZXZXZXCXCXCXCXCXCXCXCXCXCXCXCXCXCXCXCXCXCXCXCXCXCXCXCXCXCXCXCXCXCXCXCXZXZXZXZXZXZXZXZXZXDXDXDXDXDXDXDXFXFXFXFXFXFXFXFXGXGXGXGXGXGXGXGXFXFXFXFXFXFXFXDXDXZXZXCXCXCXCXMXMXmXmXmXvXvXkXkXjXjXjXfXfXfXfXfXfXfXgXgXgXgXsXsXgXgXsXsXsXsXsXtXsXsXtXtXtXtXtXtXyXyXyXyXtXtXtXtXtXtXtXtXtXtXtXtXtXtXtXtXeXeXeXeXeXeXeXeXwXwXwX2X2X2X2X-X-X-X-XOX+X+X+XoX.X{.{.|.}.]._._._.`.`.K.K.K.K.K.K.K.K.K.B.V.n.d.k.k.d.d.d.d.d.a.a.i.i.a.a.a.a.a.p.e.e.e.e.e.e.e.e.e.e.e.e.e.e.e.r.r.e.e.e.e.e.i.i.a.a.j.n.n.n.N.N.V.m.m.V.V.M.M.M.M.M.N.n.j.k.k.d.a.i.i.e.e.q.8.8.8.8.7.6.6.6.6.6.6.6.6.6.6.6.6.6.6.6.6.6.6.6.6.6.6.7.7.8.8.8.8.q.8.r.r.e.e.e.e.e.a.a.a.a.a.d.d.k.k.j.j.l.l.l.l.l.l.l.l.k.k.l.k.k.k.d.d.d.d.a.a.a.a.a.p.p.p.p.e.e.e.e.e.q.q.w.q.8.8.8.6.w.6.6.6.6.6.6.6.6.=.=.=.=.=.=.=.=.w.h.;.*.O.O.o.o.o.{ { ",
"a a a a f f k n m m V C D F P I ~ ~ / / / ( M f d a p u e e e e e e u u u u u u u u u u u i i i i i p a a a d d d d s j x B C D C V C C C C S D D G F F F F F F P P P P P P ~ ~ P P ~ ~ ~ ~ ~ ~ ~ ~ ~ / / / / / / ] [ [ [ { o.O.O.O.*.=.-.0.q.p.p.i.d.d.n.m.S.J.K.E.K.`.`.Q.Q.W.E.E.K.K.E.E.E.E.E.E.`._.}.{.{.{.{.{..X+X+X+X+X+X.X.X{.{.'.{.'.'.].W.W.E.K.S.M.m.n.x.x.x.x.x.x.x.n.n.N.m.N.M.M.C.G.Y.T.~.'.[.XX%X*X6X7X9XgXfXjXjXkXkXkXkXlXlXlXlXlXhXhXgXaXaXrXrXrXrXrXrXrXaXaXaXaXaXiXiXiXiXiX9X0X7X7X4X2X1X=X=X#X#XXXXX.X{.{.[.].].].'.'.].].]._._._._.W.W.W._.].].].[..X.XXXXXXX%X*X*X*X2X5X8X0X9XsXsXdXdXhXhXhXjXjXjXjXjXjXjXjXjXjXfXdXdXdXdXgXgXsXsXsXaXtXtXtXtXyXyX0X8X8X5X5X5X5X3X3X2X2X2X2X2X1X1X3X3X3X3X2X2X5X7X0X9X9XiXaXdXjXjXkXvXbXbXbXBXCXZXZXDXDXDXDXDXDXDXDXDXFXDXZXVXVXBXbXbXbXvXvXvXvXvXvXvXvXvXvXvXvXvXvXvXvXvXMXMXmXMXMXMXCXCXCXCXBXBXCXCXCXCXZXZXZXZXCXCXCXCXCXCXCXCXCXCXCXCXCXCXCXCXCXCXCXCXCXCXCXCXCXCXCXCXCXCXCXCXZXZXZXZXZXZXZXZXDXDXDXDXDXDXDXDXFXFXFXFXFXFXFXFXGXGXGXGXGXGXGXGXFXFXFXFXFXFXFXDXDXZXZXZXCXCXCXMXMXmXmXmXvXvXkXkXjXjXjXfXfXfXfXfXfXfXgXgXgXgXsXsXgXgXsXgXsXsXsXsXsXsXtXtXtXtXtXtXyXyXyXyXtXtXtXtXtXtXtXtXtXtXtXtXtXtXtXtXeXeXeXeXeXeXeXeXwXwX4X2X2X2X2X-X-X-X%XOX+X+X+X+X.X{.{.|.|._._._.`.`.`.K.K.K.K.K.K.K.K.K.B.V.n.d.k.k.d.d.d.d.d.a.a.i.i.i.a.a.a.a.p.p.e.e.e.e.e.e.e.e.e.e.e.e.e.e.r.r.e.e.e.e.e.e.i.a.a.j.n.n.n.n.V.V.m.m.V.V.M.M.M.M.M.N.n.j.k.k.d.a.a.p.e.e.q.8.8.8.8.7.6.6.6.6.6.6.6.6.6.6.6.6.6.6.6.6.6.6.6.6.6.6.7.7.8.8.8.8.q.q.q.r.e.e.e.e.e.p.a.a.a.a.d.d.d.d.k.k.k.k.j.j.l.l.j.j.d.d.d.d.d.d.d.d.d.d.a.a.a.a.a.p.p.p.p.e.e.e.e.e.q.q.w.w.8.8.8.8.6.6.6.6.6.6.6.6.=.=.=.=.=.=.=.=.=.;.w.;.*.O.O.o.o.{ { { ",
"a a d d f f k n m m V V D F I I ~ ~ / / / ( M n f d i u e 7 e e e e u u u u u u u u u u i u u i p p p p a a a p p p f s B B C D S V C C C S D D D D F F F F F F P P F P P P I P P P ~ ~ ~ ~ ~ ~ ~ ~ ~ / / / / / / ] [ [ [ { o.O.O.O.*.@.=.9.w.t.p.p.a.d.x.m.B.H.J.J.K.K.K.E.E.E.E.E.E.E.T.T.T.T.T.`._.}.{.{..X.X.X.X+X+XOXOXOX+X+X.X{.|.'.'._._.W.R.Y.J.S.B.n.x.x.x.x.x.x.x.x.x.n.n.N.N.N.m.M.C.G.R.W.W.'.[..XXX*X1XqX7XtXgXjXjXjXjXkXkXlXkXvXvXlXlXlXhXhXdXdXdXdXdXdXdXdXdXdXdXdXdXdXdXdXdXgXaXaXrXyX8X5X6X3X6X=X=X=X#XXXXX.X.X.X{.{.[.[.[.].].].].].]._._.].].].].{.{..X.XXXXX%X%X%X*X2X5X8X0X9XtXsXdXdXhXhXhXhXjXjXjXjXjXjXjXjXjXjXjXdXdXdXdXgXgXsXsXsXaXrXrXtXtXyXyXeXeXeX8XeX5X5X5X5X3X3X3X4X5X2X3X3X3X5X5X5X4X8X0XyXtXsXaXaXdXjXkXkXvXvXbXbXBXCXZXZXZXDXDXDXDXDXDXDXDXDXDXZXZXVXBXbXbXbXvXvXvXvXvXvXvXvXvXvXvXvXvXvXvXvXvXMXMXmXmXMXMXCXCXCXCXCXCXCXCXCXCXZXZXZXZXZXZXZXZXCXCXCXCXCXCXCXCXCXCXCXCXCXCXCXCXCXCXCXCXCXCXCXCXCXCXCXCXZXZXZXZXZXZXZXZXDXDXDXDXDXDXDXDXFXFXFXFXFXFXFXFXGXGXGXGXGXFXFXFXFXFXFXFXFXFXFXDXDXZXZXZXCXCXCXMXmXmXmXmXvXvXkXkXjXjXjXfXfXfXfXfXfXfXgXgXgXsXsXsXgXgXgXgXsXsXsXsXsXsXtXtXtXtXtXtXyXyXyXyXtXtXtXtXtXtXtXtXtXtXtXtXtXtXtXtXeXeXeXeXeXeXeXeXwXwXwXwX2X2X2X-X-X-X%X&X+X+XoXoX.X{.{.|.]._._._.`.`.`.E.K.K.K.K.K.K.K.K.L.V.n.j.k.d.d.d.d.d.d.a.a.a.i.i.a.a.a.a.a.p.a.a.p.p.p.e.p.p.p.p.e.p.e.e.e.e.e.e.e.e.p.i.i.a.a.j.j.n.n.N.V.V.M.M.V.V.B.B.B.B.V.V.N.n.j.k.k.d.a.a.e.e.e.q.8.8.8.8.7.6.6.6.6.6.6.6.6.6.6.6.6.6.6.6.6.6.6.6.6.6.7.7.8.8.q.q.q.q.r.r.e.e.e.e.e.p.a.a.a.a.d.d.d.d.d.d.j.j.j.j.l.l.l.l.d.d.d.d.d.d.d.d.d.a.a.a.a.a.a.p.p.p.p.e.e.e.e.e.q.q.8.8.8.8.8.8.6.6.6.6.6.6.6.6.=.=.=.=.=.=.=.=.=.;.w.;.*.O.O.o.o.{ { { ",
"p a a d f f k n m m V V D F U I ~ ~ / / / ( M n f d u e e 7 e 7 u u u u u u u u u u u u i i u u i i p p p p a p p p d s B B C D V V V C C S D D D D F F F F F F P P P F P P I P P P ~ ~ ~ ~ ~ ~ ~ ~ ~ / / / / / / ] ] [ [ [ o.o.o.O.@.@.#.9.w.q.q.q.p.a.d.x.N.B.H.H.H.J.J.J.K.E.E.E.E.E.T.T.T.T.`._.|.}.{..X.X.X+X+XOX&X%XOXOXOX+X.X{.|._._.W.T.E.Y.F.C.S.m.x.x.d.d.x.x.x.x.x.x.x.n.N.N.N.m.M.C.G.J.E.W.'.'.[. X#X*X6X4X7XsXgXfXjXjXkXkXkXvXvXvXvXlXvXlXlXjXhXhXxXhXhXhXhXhXhXhXhXhXhXhXhXhXhXdXdXaXtX9X8X5X5X6X6X1X=X&X#XXXXX.X.X.X.X{.[.[.[.].].].].]._._.'.].].].{.{..X.XXXXX%X%X*X=X2X2X5X0XyXtXsXdXfXhXhXhXjXjXjXjXjXjXjXjXjXjXjXjXdXdXdXdXgXgXsXsXsXrXrXrXtXtXyXyXyXeXeX8X8X5X5X4X5X3X3X2X4X4X2X2X5X5X5X5X4X4XeX9X9XsXsXaXdXdXjXkXkXvXvXbXbXBXCXZXZXZXDXDXDXDXDXDXDXDXDXDXZXVXBXBXbXbXbXvXvXvXvXvXvXvXvXvXvXvXvXvXvXvXvXvXMXMXmXmXMXMXCXCXCXCXCXCXCXCXCXCXZXZXZXZXZXZXZXZXCXCXCXCXCXCXCXCXCXCXCXCXCXCXCXCXCXCXCXCXCXCXCXCXCXCXCXCXZXZXZXZXZXZXZXZXDXDXDXDXHXHXDXDXDXFXFXFXFXFXFXFXGXGXGXGXFXFXFXFXFXFXFXFXFXFXFXDXDXZXZXZXCXCXCXMXmXmXmXmXmXvXkXkXjXjXjXfXfXfXfXfXfXfXgXgXgXgXsXsXgXgXgXgXsXsXsXsXsXsXtXtXtXtXtXtXyXyXyXyXtXtXtXtXtXtXtXtXtXtXtXtXtXtXtXtXeXeXeXeXeXeXeXwXwXwXwXwX2X2X-X-X-X-X%XOX+X+XoXoX{.{.{.|.|._._._.`.`.`.E.K.K.K.K.K.K.K.H.L.M.j.j.k.k.d.d.d.d.d.a.a.a.i.i.a.a.a.a.a.a.a.a.p.p.p.e.p.p.p.p.e.e.e.e.e.e.e.e.e.e.p.i.i.a.a.k.j.n.n.N.N.V.M.M.V.V.B.B.B.B.V.V.N.n.j.k.k.d.a.a.p.e.e.q.8.8.8.8.7.6.6.6.6.6.6.6.6.6.6.6.6.6.6.6.6.6.6.6.6.6.7.7.8.8.8.8.8.8.r.r.e.e.e.e.e.e.p.a.a.a.a.a.d.d.d.d.d.d.d.d.d.d.d.d.d.d.d.d.d.a.a.a.a.a.a.a.a.a.a.p.p.p.p.e.e.e.e.e.q.q.8.8.8.8.8.6.6.6.6.6.6.6.6.6.6.=.=.=.=.=.=.=.=.;.w.;.*.O.o.X.{ [ [ [ ",
"p a a d f f k n m m V C S F U I ~ ~ / / / ( M n f d u e e e e 7 9 9 9 9 9 9 9 9 u u u u u u u u u u p p p p a d d d f f B U U D C V V C C C D D D F F F F F F F F F P P I P P P P P ~ ~ ~ ~ ~ ~ ~ ~ ^ / / / / / / ` ] [ [ [ X.X.X.O.O.@.=.=.9.w.w.q.q.p.i.d.n.V.B.L.H.H.J.J.J.E.E.R.T.T.W.T._.`._.|.|.{.{..X.X+XOXOX&X&X%X%X%X%XOX+X{.{.'._._.T.F.F.G.C.M.m.x.x.x.x.x.x.x.x.x.n.n.n.m.N.m.m.m.M.G.F.R.W.~.'.[. X#X*X1X4X4XyXsXgXfXjXkXkXkXkXvXvXnXnXnXvXvXkXkXkXlXkXlXlXlXlXhXhXhXhXhXhXkXkXhXhXhXgXaXrX9X0X8X5X6X6X1X*X%X#X%XOXXX.X.X.X.X[.{.].].'.'.'.'.'.].].'.|.{.{..X.XXX%X%X%X*X=X2X4X5XeXtXsXdXdXfXhXjXjXjXjXjXjXjXjXjXjXjXjXjXjXjXfXgXdXsXgXgXaXsXtXtXtXtXtXtXtXyXyXeXeX8X8XwX4X4X5X5X5X5X5X5X5X5X5X5X8X8X7XyXyXsXaXdXdXdXdXjXkXkXvXvXbXbXBXCXZXZXZXDXDXDXDXDXDXDXDXDXDXZXZXCXCXBXbXbXvXvXvXvXvXvXvXvXvXvXvXvXvXvXvXbXbXMXMXMXMXMXMXCXCXCXCXCXCXCXCXZXZXZXZXZXZXZXZXZXZXZXZXZXZXCXCXCXCXCXCXCXCXCXCXCXCXCXCXCXCXCXCXCXCXZXZXZXZXZXZXZXZXZXZXZXZXDXZXDXZXDXDXDXDXDXDXDXDXFXFXFXFXFXFXFXFXFXFXFXFXFXFXFXFXFXFXFXDXDXZXZXZXCXCXCXMXMXmXmXmXmXvXkXkXjXjXjXfXfXfXfXfXfXfXgXgXsXsXsXsXsXsXsXsXsXsXsXsXsXsXsXsXsXsXtXtXtXtXtXtXtXtXtXtXyXyXyXyXyXtXtXtXtXtXtXtXeXeXeXeXeXeXeXeX4X4X4X2X2X-X-X*X-X-X%XOX+XoXoX.X{.{.|.].]._._.`.`.`.E.K.K.K.K.K.K.K.K.H.L.V.n.j.k.k.k.k.d.d.d.a.a.a.a.a.a.a.a.a.p.p.p.p.p.p.a.a.a.p.p.p.e.e.e.e.e.e.e.e.p.p.a.a.a.a.d.j.n.n.N.n.N.m.N.N.M.B.B.M.M.M.M.N.V.n.j.k.j.d.d.a.p.p.e.q.q.w.8.8.8.7.6.6.6.6.6.6.6.6.6.6.6.6.6.6.6.6.6.6.6.6.7.7.7.8.8.8.q.q.q.r.r.r.r.r.e.e.e.a.a.a.a.a.d.d.d.d.d.d.d.d.d.d.d.d.d.d.k.d.d.a.a.a.a.a.a.a.a.a.a.p.p.e.e.e.e.r.r.r.q.8.8.8.8.8.w.6.6.6.6.6.;.=.=.=.=.=.=.=.=.=.=.=.=.;.w.;.;.O.o.X.[ { { [ ",
"u p d d f f k n m m V C S D U I ~ ~ / / / ( M n f d u 7 7 e 7 9 9 9 9 9 9 9 u u u u u u u u u u u u i p p p a a d d f f B U U L C C C C S D D D D F F F F F F F F F P P I P P P P ~ ~ ~ ~ ~ ~ ~ ~ ~ / / / / / / / ` ] [ [ [ [ X.X.o.O.@.@.=.6.w.w.w.q.p.p.i.d.j.V.B.H.H.J.J.R.E.T.T.T.T.T.T._.`._.|.{.{.oX.X+XOX&X&X&X&X%X%X%X%XOX+X.X{.|.]._.E.F.F.G.C.M.m.x.n.x.x.x.x.x.x.x.x.n.n.m.N.m.m.m.M.G.F.R.W.~.'.[. X#X*X=X2X4XyXtXsXfXjXjXkXkXkXvXvXnXnXnXnXnXnXvXvXkXkXkXkXlXlXlXlXlXlXlXlXhXhXkXkXhXhXdXaX9X9X8X8X4X6X6X1X*X%X%X&X%XXXXX.X.X{.[.].'.'.'.'.'.'.'.|.|.|.{..X.XXXOX%X%X*X=X*X2X4XeXeXtXsXgXdXfXhXjXjXjXjXjXjXkXkXjXjXjXjXjXjXjXfXgXdXsXgXaXsXsXtXtXtXtXtXtXtXyXyXyXeX0X8X8X4X4X4X4X4X5X5X5X5X8X8X8X8XeXyXyXyXsXaXdXdXdXdXjXkXkXvXvXbXbXBXCXZXZXZXDXDXDXDXDXDXDXDXDXZXZXZXZXCXBXbXbXvXvXvXvXvXvXvXvXvXvXvXvXvXvXvXbXbXMXMXMXMXMXMXCXCXCXCXCXCXCXCXZXCXZXZXZXZXZXZXZXZXZXZXZXZXCXCXCXCXCXCXCXCXCXCXCXCXCXCXCXCXCXCXCXCXZXZXZXZXZXZXZXZXZXZXZXZXDXDXDXZXDXDXDXDXDXDXDXDXFXFXFXFXFXFXFXFXFXFXFXFXFXFXFXFXFXFXDXDXDXZXZXZXCXCXCXMXMXmXmXmXmXvXkXkXjXjXjXfXfXfXfXfXfXfXgXgXsXsXsXsXsXsXsXsXsXsXsXsXsXsXsXsXsXsXtXtXtXtXtXtXtXtXtXtXyXyXyXyXtXtXtXtXtXtXtXtXeXeXeXeXeXeXeXwX4X4X4X2X2X-X*X-X-X%X&XOX+XoXoX.X{.{.|.|._._._.`.`.E.E.K.K.K.K.K.K.K.K.H.L.M.n.j.k.k.k.k.d.d.d.a.a.a.a.a.a.a.a.a.p.e.p.p.p.p.a.a.a.p.p.p.e.e.e.e.e.e.e.e.p.p.a.a.a.a.d.j.n.n.n.n.n.N.m.N.M.B.M.M.M.M.M.N.V.N.j.j.k.d.d.a.p.p.e.q.q.w.8.8.8.7.6.6.6.6.6.6.6.6.6.6.6.6.6.6.6.6.6.6.6.6.7.7.7.7.7.7.8.8.q.r.r.r.r.r.r.e.e.e.p.p.a.a.a.a.d.d.d.d.d.d.d.d.d.d.d.d.d.a.a.a.a.a.a.a.a.a.a.a.a.p.p.e.e.e.e.r.e.r.q.8.8.8.8.7.w.6.6.6.6.;.;.=.=.=.=.=.=.=.=.=.=.=.=.;.w.;.;.O.o.[ [ [ [ [ ",
"u p a d f f n m m m V C D F ( ^ ~ ~ / / / ~ m n f d u 7 7 e 7 9 9 9 9 9 9 9 u u u u u u u u u u u u p p p i a a d f f f B U U L C D D D D D D D F D F F F F F F F F F F P P P P ~ ~ ~ ~ ~ ~ ~ ~ ~ ~ / / / / / / ` ` ] [ [ [ [ X.X.o.O.O.@.=.=.6.w.w.q.t.p.i.a.d.n.V.B.H.J.J.Y.R.E.E.T.T._.`._._.|.}.{.{.+X+X+XOX&X&X-X&X&X%X%X%XOX.X.X{.|.].`.E.F.F.G.C.M.m.n.m.x.x.x.x.x.x.x.x.n.m.N.N.N.m.m.A.G.Y.T.W.'.'.[.XXXX*X=X2X4X4XyXsXgXfXjXjXkXkXvXvXnXnXbXbXbXbXbXvXvXvXvXvXvXvXvXvXvXvXvXvXvXkXkXkXhXhXhXdXaXsX9X9X8X8X5X6X1X=X=X=X&X%XXXXX.X.X.X{.{.{.{.{.|.|.|.{.{.{..X.X+X%X%X%X%X*X=X1X4X4XeXtXtXsXgXdXdXhXjXjXjXjXkXkXkXkXkXkXkXkXkXjXjXfXfXgXsXgXgXsXsXtXtXtXtXtXtXtXyXyXyXyXeX0X8X8XeXeXeX5X5X5XeXeXeXeX0XeXyXyXtXsXsXgXdXdXxXxXjXkXkXvXvXbXbXBXBXZXZXZXDXDXDXDXDXDXZXZXZXZXZXZXZXCXBXbXbXvXvXvXvXvXvXvXvXvXvXvXvXvXvXvXbXbXMXMXMXMXMXMXCXCXCXCXCXCXCXCXCXCXZXZXZXZXZXZXZXZXZXZXZXZXZXZXZXCXCXCXCXCXCXCXCXCXCXCXCXCXCXCXCXCXCXCXZXZXZXZXZXZXZXZXZXZXDXDXDXDXDXDXDXDXDXDXDXDXDXDXFXFXFXFXFXFXDXDXDXDXDXDXDXFXFXDXDXDXZXZXZXZXCXCXCXMXMXmXmXmXmXkXkXkXjXjXjXfXfXfXfXfXfXfXgXgXsXsXsXsXgXgXsXsXsXsXsXsXsXsXsXsXsXsXsXtXtXtXtXtXtXtXtXtXyXyXtXtXtXtXtXtXyXyXyXtXyXyXyXyXeXeXwXwXwX4X4X2X2X-X*X-X-X&X&XOX+XoXoX.X{.{.|.|._._._.`.`.`.K.K.K.K.K.K.K.K.K.H.L.N.N.j.k.k.d.d.d.d.d.d.a.a.a.a.a.a.a.a.p.e.p.a.p.p.a.a.p.a.a.a.a.p.a.a.e.e.e.e.e.e.a.a.a.a.d.j.n.n.n.n.n.N.M.M.B.B.M.M.B.M.M.B.N.M.N.n.j.k.k.d.a.p.e.q.q.q.q.8.8.8.8.7.6.6.6.6.6.6.6.6.6.6.6.6.6.6.6.6.6.6.6.7.7.7.7.7.8.8.q.r.r.r.r.r.r.e.e.e.p.p.a.a.a.a.d.d.d.d.d.d.d.d.d.d.d.d.d.a.a.a.a.a.a.a.a.a.a.a.a.p.p.e.e.e.e.e.r.r.q.8.8.8.8.7.w.6.6.6.6.6.6.6.=.=.=.=.=.=.=.=.=.=.=.;.w.h.;.O.o.[ [ [ [ [ ",
"u p a d f f n m m M V C D D ( ^ ~ ~ / / / ~ m n f d u 7 e e 9 9 9 9 9 9 9 9 u u u u u u u u u u u u p p p i a a d d f f B U U L D D F F F D F D D D F F F F F F F F F F P P P P ~ ~ ~ ~ ~ ~ ~ ~ ~ ~ ^ / / / / / / ` [ [ [ [ [ X.X.o.O.O.@.@.=.=.w.9.w.q.0.i.i.d.n.n.B.S.J.J.Y.R.E.T.T.T._._._._.}.{.{..X+X+XOX&X&X&X&X&X&X%X%X%XOXOX.X{.|.].`.E.F.F.G.C.M.m.x.m.x.x.x.x.x.x.x.x.n.m.N.N.N.m.M.A.G.Y.T.W.'.'. X XXX%X=X1X2X4XyXsXgXfXjXjXkXkXvXvXnXnXbXbXbXbXbXbXbXvXvXvXbXbXvXvXvXvXvXvXvXvXvXlXkXlXhXhXdXaXsX9X9X8X8X4X6X1X=X=X*X*X%XXXXX.X.X.X.X{.{.{.{.{.{.{..X.X.X+XOX%X%X*X*X=X-X1X4X4XeXtXtXsXgXgXfXhXjXjXjXjXkXkXkXkXkXvXvXkXkXjXjXjXfXgXsXgXgXsXsXtXtXtXtXtXtXtXtXyXyXyXeX0X0X8X7XeXeX7X8X8X8X8XeXeXyX9XyXtXtXtXaXdXdXdXxXxXjXkXkXvXvXbXbXBXBXZXZXZXZXDXDXDXDXDXZXZXZXZXZXZXZXCXBXbXbXvXvXvXvXvXvXvXvXvXvXvXvXvXvXvXbXbXMXbXMXMXMXCXCXCXCXCXCXCXCXCXCXCXZXZXZXZXZXZXZXZXZXZXZXZXZXZXZXZXCXCXCXCXCXCXCXCXCXCXCXCXCXCXCXCXCXCXZXZXZXZXZXZXZXZXZXZXZXDXDXDXDXDXDXDXDXDXDXDXDXDXDXFXFXFXFXFXDXDXDXDXDXDXDXDXDXDXDXZXZXZXZXZXCXCXCXMXMXmXmXmXmXvXkXkXjXjXjXfXfXfXfXfXfXfXfXgXgXsXsXsXgXgXsXsXsXsXsXsXsXsXsXsXsXsXsXtXtXtXtXtXyXtXtXtXtXtXtXtXtXtXtXtXyXyXyXtXrXyXyXeXeXeXeXwXwX4X4X3X2X-X*X-X-X%X&XOX+XoX.X.X{.{.|.|._._._.`.`.`.E.K.K.K.K.K.K.K.H.H.L.N.N.j.k.k.d.d.d.d.d.d.a.a.a.a.a.a.a.a.p.p.p.a.p.p.a.a.p.a.a.p.p.p.a.a.e.e.e.p.e.p.a.a.a.a.d.j.n.n.n.n.n.N.M.M.B.B.M.M.M.M.M.B.M.M.N.n.j.j.k.d.a.p.e.q.q.q.q.8.8.8.8.7.6.6.6.6.6.6.6.6.6.6.6.6.6.6.6.6.6.6.6.6.7.7.7.7.8.8.q.r.r.r.r.r.r.e.e.e.p.e.a.a.a.a.a.a.d.d.d.d.d.d.d.d.d.d.d.a.a.a.i.i.p.p.p.p.a.p.p.e.p.e.e.e.e.r.r.r.8.8.8.8.8.7.w.6.6.6.6.6.6.6.=.=.=.=.=.=.=.=.=.*.*.=.h.w.;.O.o.[ [ [ [ { ",
"u p a d f f n m m m V C D F ( ( ( ^ / ) / P m m f d u 7 7 7 7 7 9 9 9 9 9 9 9 9 u u u u u u u u u u i i u u p a d d f s B U T U D F G G F F F F D F F F F F F F F F F F P P P P I I I P ~ ~ ~ ^ ^ ^ ^ / / / / / ` ] [ [ [ [ [ X.X.X.O.O.@.@.=.=.6.6.6.w.0.r.i.a.d.n.V.B.J.J.E.E.T.T.T._._._.|.|.{.{..X+X+XOX&X&X&X-X&X&X&X%X%X%XOX+X.X{.}._.`.K.F.G.G.S.B.m.x.V.x.x.x.x.x.x.x.n.n.n.n.N.m.m.A.A.Z.F.T.W.'.'. X X#X*X*X1X6X4X0XrXgXgXfXhXkXlXvXvXbXbXbXbXbXbXBXBXbXbXbXbXbXbXbXbXbXbXbXbXbXbXbXvXvXvXkXhXhXxXgXaXiX9X7X7X4X4X2X2X-X=X*X%X%XOXXX.X.X.X.X{..X.X.X.X.X.XXXOX%X%X*X*X=X=X-X2X4X4XeXtXsXaXsXgXfXjXkXkXkXkXvXvXvXvXvXvXvXkXkXjXjXfXfXgXsXaXaXsXsXtXrXrXtXtXtXtX9X9X9X9XyXeXeX0X0X7X0XeXeXeXeX7X9XyX9XyXyXrXtXsXaXgXdXdXdXxXjXkXkXvXvXbXbXBXCXZXAXZXZXZXDXDXDXZXDXDXDXZXZXZXZXCXCXMXbXvXvXvXvXvXvXvXvXvXvXvXvXvXvXvXmXmXbXbXMXMXCXCXCXCXCXCXCXCXCXCXCXCXZXZXZXZXZXZXZXZXZXZXZXZXZXZXZXZXZXZXZXCXCXCXCXCXCXCXCXCXCXCXCXZXCXCXZXZXZXZXZXZXZXZXZXZXZXZXZXDXDXDXDXDXDXDXDXDXDXDXDXDXHXHXHXHXDXDXDXDXDXDXFXFXFXFXDXZXZXZXZXZXCXCXCXMXbXmXmXmXmXvXkXkXjXjXjXfXjXjXjXjXfXfXfXfXgXgXgXgXgXgXgXgXsXsXsXsXsXsXsXsXsXsXsXsXtXtXtXtXtXtXtXtXyXyXtXtXtXtXtXtXyXyXtXtXtXeXeXeXeXeX8X8XwX4X5X3X3X-X-X-X-X&X&XOX+X+X.X.X{.{.|.]._._._.`.`.`.E.E.K.K.K.K.K.K.H.H.L.M.M.j.j.d.d.d.d.d.d.d.a.a.a.a.a.a.a.a.a.a.a.a.p.p.a.a.p.p.a.a.p.p.p.p.p.p.p.p.p.p.a.a.a.a.d.j.n.n.n.n.N.m.B.B.M.M.B.B.B.B.B.B.B.N.M.N.n.j.j.d.a.p.e.e.q.q.q.q.8.7.7.7.7.7.7.6.6.6.6.6.6.6.6.6.6.6.6.6.6.6.6.6.6.6.7.7.8.q.q.r.r.r.r.r.r.e.e.e.p.p.a.a.a.a.a.a.g.g.g.g.g.d.d.g.a.a.a.a.a.a.a.a.p.a.e.e.p.p.p.e.e.e.e.r.r.r.r.8.8.7.8.8.8.7.w.6.6.6.6.=.6.=.=.=.=.=.=.=.=.*.*.@.@.=.w.;.;.O.X.[ [ [ [ [ ",
"u p a d f k k m m m V C D F U ( ( ^ / ] / P m m f d u 7 7 7 7 9 9 9 9 9 9 9 9 9 u u u u u u u u u u i i u u a a a a d s B U T U C C G G F F F G D F F F F F F F F F F F P P P P I I I P ~ ~ ~ ^ ^ ^ / / / / / / ` ] [ [ [ [ X.X.X.X.o.O.O.@.@.=.=.6.6.6.7.q.r.i.d.n.B.B.S.J.E.R.T.T.T._._._.|.|.{.{..X+XOX%X&X&X-X-X&X&X&X%X%X%XOX+X.X{.}._.`.E.F.H.C.S.B.m.x.V.x.x.x.x.x.x.x.x.n.n.n.m.M.A.A.C.Z.F.T.~.'.'. X X#X*X*X*X1X4X7X9XaXdXdXhXkXlXvXvXbXbXbXbXbXBXBXBXBXBXBXBXBXBXBXbXbXbXbXbXbXbXbXnXvXvXvXlXhXhXxXgXaXaX9X0X7X4X4X5X2X2X2X=X%X%XOX+XXXXXXX.X.XXXXXXXXXXXOX%X%X*X*X*X=X*X1X2X4X7XeXtXsXaXsXgXfXjXkXkXkXkXvXvXvXvXvXvXvXvXkXkXjXjXfXfXdXaXgXgXsXtXrXrXrXrX9X9X9X9X9X9XyXyXeX0X0X7X0X0X0X0X9X9X9X9X9X9XrXaXsXsXaXdXdXdXdXhXjXkXkXvXvXbXBXBXCXZXZXAXZXZXDXDXZXZXDXDXDXZXZXZXZXCXCXbXbXbXvXvXvXvXvXvXvXvXvXvXvXvXvXvXmXmXbXbXMXMXCXCXCXCXCXCXCXCXCXCXCXZXZXZXZXZXZXZXZXZXZXZXZXZXZXZXZXZXZXZXZXZXCXCXCXCXCXCXCXCXCXCXCXCXCXCXZXZXZXZXZXZXZXZXZXZXZXZXZXDXDXDXDXDXDXDXDXDXDXDXHXHXHXHXHXHXDXDXDXDXDXDXFXFXFXFXDXZXZXZXZXZXZXCXCXMXbXmXmXmXmXvXkXkXjXjXjXfXjXjXjXjXfXfXfXfXgXgXgXgXgXgXgXgXsXsXsXsXsXsXsXsXsXsXsXtXtXtXtXtXtXtXtXtXyXyXtXtXtXtXtXtXtXtXtXtXyXeXeXeXeXeX8X8XwX4X5X3X3X-X-X-X&X&XOXOX+X+X.X.X{.{.|.].]._._.`.`.`.E.E.K.K.K.K.K.K.K.H.L.M.M.n.j.k.d.d.d.k.d.d.a.a.a.a.a.a.a.a.a.a.a.a.p.p.a.p.p.p.p.p.p.p.p.p.p.p.p.p.p.p.a.a.a.a.d.l.n.n.N.n.N.m.B.B.M.M.B.B.B.B.B.B.B.N.N.N.n.j.j.d.a.p.e.e.q.q.q.q.8.7.7.7.7.7.7.7.6.6.6.6.6.6.6.6.6.6.6.6.6.6.6.6.6.6.7.7.8.q.q.r.r.r.r.r.r.r.e.e.e.e.a.a.p.p.a.a.a.a.a.a.a.a.a.a.a.a.a.a.a.a.p.p.e.e.e.e.e.e.e.e.e.e.r.r.r.q.8.8.8.7.8.8.7.7.6.6.6.6.6.=.6.=.=.=.=.=.=.=.*.*.*.@.@.=.;.;.-.O.X.[ [ [ [ [ ",
"u p a d f k k m m m V C D F ( ^ ( / / ] ) F m m f a u 7 7 7 7 6 9 9 9 9 9 9 9 9 u u u u u u u u u u i i u u p p a a d s B U T U C C C C D D D D D F F F F F F F F F F F P P P P I I ~ ~ ~ ~ ^ ^ ^ ^ ^ / / / ` ` ` ] [ [ [ [ [ X.X.X.X.X.O.@.#.#.=.6.6.6.6.7.0.i.d.n.N.M.C.F.R.R.T.T.T._._._.|.{.+X.X+XOXOX&X-X-X-X-X-X-X&X%X%X%XOX+X+X{.}._.`.E.J.H.C.S.B.m.x.V.V.x.x.x.x.x.n.n.n.n.N.m.M.C.A.Z.F.Y.T.~.'.[. XXX%X*X*X*X1X4X7X0XrXaXdXhXjXhXvXvXvXbXbXbXBXBXBXBXBXBXBXBXBXBXBXBXBXBXBXBXBXBXBXbXbXbXbXvXkXkXjXxXxXgXaXrX7X7X4X4X4X4X3X2X-X*X%X%XOXOXXXXXXXXXXXOXOXOX&X%X*X=X1X2X=X-X2X4X4X7XeXtXsXaXsXdXfXjXkXkXkXkXvXvXmXmXvXvXvXvXvXkXjXjXjXfXgXdXsXgXsXtXtXtXrXrX9X9X9X9X9X9XyXyXeXeX0X0X9X9XyXyXyXyXtXtXtXtXsXsXgXgXdXdXdXdXhXjXkXkXkXvXvXbXBXBXCXZXZXZXZXZXDXDXZXZXZXZXZXZXZXZXZXCXBXbXbXbXvXvXvXvXvXvXvXvXvXvXvXvXbXbXmXmXbXbXMXMXCXCXCXCXCXCXCXCXCXCXCXZXZXZXZXZXZXZXZXZXZXZXZXZXZXZXZXZXZXZXZXZXZXZXZXZXZXZXCXCXCXCXCXCXCXZXZXZXZXZXZXZXZXZXZXZXZXZXZXDXDXDXDXDXDXDXDXDXDXHXHXHXHXHXHXHXDXDXDXDXDXDXDXDXFXFXDXDXZXZXZXZXZXCXCXMXbXmXmXmXmXvXkXkXjXjXjXfXfXfXfXfXfXfXfXfXgXgXgXgXgXgXgXgXsXsXsXsXsXsXsXsXsXsXsXsXtXtXtXtXtXtXtXtXyXtXtXtXtXtXtXtXtXtXtXtXyXeXeXeXeXeX8X7XwX4X5X3X3X-X-X-X&X&XOX+X+X+X.X.X{.{.|.].].]._.`.`.`.`.K.K.K.K.K.K.K.K.H.L.B.M.n.j.k.d.d.k.k.d.d.d.d.a.a.a.a.a.a.p.a.p.p.p.e.a.p.a.p.p.p.p.p.p.p.p.p.p.p.a.a.a.a.a.a.k.n.n.n.n.n.m.V.B.B.B.B.B.B.B.B.B.B.B.M.M.N.n.n.n.d.d.a.e.e.e.q.q.q.8.8.8.7.7.7.7.7.6.6.6.6.6.6.6.6.6.6.6.6.6.6.6.6.6.6.7.7.8.q.q.r.r.r.r.r.r.r.e.e.e.e.e.e.p.p.a.a.a.a.a.a.a.a.a.a.a.a.a.a.a.p.p.p.e.e.e.e.e.e.e.e.e.e.r.r.q.8.8.8.8.7.8.8.7.7.6.6.6.6.6.=.6.=.=.=.=.=.=.=.@.@.@.@.@.*.;.;.-.O.o.[ [ [ { { ",
"u p a d f k k m m m V C D F I ^ ^ / / } ] P m m f a u 7 8 7 7 6 9 9 9 9 9 u 9 9 u u u u u u u u u u i i u u p p a a f s B T T C C V V C C C S S D D F F F F F F F F F F P P P P I I ~ ~ ~ ~ ^ ^ ^ ^ / / / / ` ` ` ` [ [ [ [ [ X.X.X.X.X.O.@.@.@.=.=.6.6.6.7.0.r.a.j.N.M.C.G.F.R.T.T.T._._._.|.{.+X+X+XOX&X&X-X-X-X-X-X-X&X%X%XOXOX+X+X{.}._.W.E.F.G.H.S.B.m.x.V.V.x.n.n.x.x.n.n.n.n.n.M.C.C.Z.Z.F.Y.T.~.'.[. XXX%X*X*X*X1XqX7X7X9XaXaXdXhXhXvXvXvXbXbXBXBXBXBXBXBXBXBXBXBXBXBXBXBXBXBXBXBXBXBXBXbXbXbXbXvXkXlXxXxXxXaXaXrXrX7XeX4X4X4X2X2X-X-X%X%X%X%X%X%XOXOXOX%X%X%X*X=X=X2X2X2X1X2X4X4X7XrXrXsXaXaXdXjXjXjXjXkXvXvXvXmXvXvXvXvXvXvXkXjXjXjXfXfXdXsXgXsXtXtXtXrXrX9X9X9X9X9X9XyXyXyXyX9X9X9X9XyXyXyX9XtXtXsXtXsXsXgXgXdXdXdXdXdXjXjXkXkXvXvXbXBXBXCXZXZXZXZXZXDXDXZXZXZXZXZXZXZXZXCXCXCXbXbXbXvXvXvXvXvXvXvXvXvXvXvXvXbXbXmXbXbXbXMXCXCXCXCXCXCXCXCXCXCXZXZXZXZXZXZXZXZXZXZXZXZXZXZXZXZXZXZXZXZXZXZXZXZXZXZXZXZXZXZXZXCXCXCXCXCXZXZXZXZXZXZXZXZXZXZXZXZXZXZXZXDXDXDXDXDXDXDXDXDXHXHXHXHXDXHXHXDXDXDXDXDXDXDXDXFXFXDXDXZXZXZXZXZXCXCXMXbXMXmXmXmXvXkXkXjXjXjXfXfXfXfXfXfXfXfXfXgXgXgXgXgXgXgXgXsXsXsXsXsXsXsXsXsXsXsXsXsXsXsXsXtXtXtXtXyXyXtXtXtXtXtXtXtXtXtXtXyXeXeXeXeXeX8X7XwX5X5X3X3X-X-X-X&XOX&X+X+X+X.X{.{.{.|.].].]._.`.`.`.E.K.K.K.K.K.K.K.K.H.H.B.M.n.j.d.d.d.k.d.d.d.d.d.a.a.a.a.a.a.p.p.p.p.e.e.a.a.a.p.p.p.p.p.p.p.p.p.p.p.a.a.a.a.a.a.k.n.n.N.N.N.m.V.B.B.B.B.B.B.B.B.B.L.B.M.M.N.n.n.n.j.d.g.p.e.e.q.q.q.8.8.8.8.8.7.7.7.6.6.6.6.6.6.6.6.6.6.6.6.6.6.6.6.7.6.8.7.8.q.q.r.r.r.r.r.r.r.e.e.e.e.e.e.e.e.p.a.a.a.a.a.a.a.a.a.a.a.a.a.a.a.p.p.e.e.e.e.e.e.e.e.e.e.r.r.q.8.8.8.7.8.8.8.7.6.6.6.6.6.6.=.6.=.=.=.=.=.=.*.@.@.@.@.@.*.;.;.;.O.X.[ [ [ { { ",
"u i d d f k k m m m V C D F I ^ ^ / / } | P m n f a e 7 8 7 7 9 9 9 9 7 9 9 9 9 9 u u u u u u u u u i i p i i p a a f m G T T C V V V V V V S S D F F F F F F F F F F F P P I I ~ ~ I I ~ ~ ~ ^ ^ / / / / / ` ` ` ] [ [ [ [ [ +.X.X.X.O.O.@.@.#.=.=.6.6.6.7.0.r.i.d.N.M.C.G.Y.E.W.W.W.W._.].{..X+X+XOXOX&X-X-X-X-X-X-X%X%X%XOXOXOX+X.X{.]._.W.K.F.G.H.B.B.n.x.x.x.x.x.x.x.x.n.n.n.n.m.m.C.C.Z.F.Y.R.W.'.[. XXXOX%X*X*X1X1X4X7X0X0X0XaXdXjXlXkXvXvXbXbXBXBXBXVXVXVXVXVXVXVXVXBXBXBXBXBXBXBXBXBXBXBXBXbXbXvXvXkXxXhXxXgXaXaXrXrX7XeX4X4X4X2X2X-X*X%X%X%X%X%X%X%X%X%X&X&X-X1X6X3X2X3X2X4X4X4X7XrXtXsXgXdXdXjXjXjXkXvXvXmXvXvXvXbXbXvXvXvXvXkXjXjXfXfXgXgXgXgXsXrXrXrXrXrXtXrXrXrXtXyXyXyXtXtXtXtXtXyXyXtXtXtXtXsXsXgXaXgXgXdXgXdXdXhXjXjXkXvXvXbXbXbXBXBXCXZXZXAXZXZXZXZXZXZXZXZXZXZXCXCXCXBXbXbXbXvXvXmXmXvXvXvXvXmXmXvXbXMXMXbXbXMXMXCXCXCXCXCXCXCXCXCXZXZXZXZXZXZXZXZXZXDXDXZXZXZXDXZXZXZXZXZXZXZXZXZXZXZXZXZXZXZXZXZXZXZXZXZXZXZXZXZXZXZXZXZXZXZXZXZXZXZXZXHXHXDXDXDXDXDXDXDXDXDXDXDXDXDXDXDXDXDXDXDXDXDXDXDXDXDXDXDXZXZXZXZXZXZXCXCXMXMXMXmXmXmXvXkXkXjXjXjXjXjXjXjXjXjXjXfXfXgXgXgXgXgXgXgXsXsXsXsXsXsXsXsXsXgXgXsXsXsXtXsXsXtXtXtXtXtXtXtXtXtXtXtXtXtXtXtXtXtXtXeXeXeX0X8X8X5X5X5X3X3X-X-X-X%XOXOX+X+X+X.X.X{.{.|.|.]._._._.`.`.E.E.E.K.K.K.K.K.K.H.H.B.M.n.j.j.l.d.d.d.d.d.d.d.k.a.a.a.a.a.a.a.a.p.p.e.e.e.p.p.p.p.p.p.p.p.a.a.a.a.p.p.a.a.d.d.j.n.n.n.m.m.m.M.M.M.B.B.S.S.S.B.B.L.B.M.N.M.N.n.n.l.d.g.p.e.q.q.e.q.q.q.q.8.8.8.8.7.7.7.7.7.6.6.6.6.6.6.6.6.6.6.6.6.6.6.7.8.8.q.q.q.r.r.r.r.r.e.e.e.e.e.e.e.e.e.e.e.p.p.p.p.p.p.p.p.p.a.a.p.p.p.p.e.e.e.e.e.e.e.e.e.r.r.q.q.q.8.8.8.8.8.6.6.w.w.6.6.6.6.=.=.=.=.=.=.=.*.*.*.*.*.*.@.O.*.;.w.;.*.o.[ [ [ { { ",
"u i a d f k k m m m V C D F I ^ ~ ^ / ) ( F m n f a u 7 7 7 7 6 9 9 9 9 9 9 9 9 9 u u u u u u u u u i i i p i i a a d Q U.( U U V V V M m V S S D D F F F F F F F F F F P P I I ~ ~ I I ~ ~ ~ ~ / / / / / / ` ` ` ] [ [ [ [ { +.o.o.O.O.@.@.#.=.6.6.6.6.7.0.r.r.i.d.n.M.C.J.E.E.W.W.W._.'.{.{..X+X+X+XOXOX&X-X-X-X-X-X%X%X%XOXOXOX+X.X{.]._.W.K.J.G.H.B.B.V.x.x.x.x.x.x.x.x.n.n.n.n.M.C.C.C.J.R.E.W.].[.{.XXOX%X%X*X*X4X4X7X7X0X7X0XaXdXjXkXkXvXvXvXbXBXBXBXZXZXVXVXVXVXVXVXBXBXBXBXBXBXBXBXBXBXBXBXbXbXvXvXvXlXxXhXxXgXaXaXrXrXyX7X4X4X4X2X2X*X%X%X%X%X%X*X%X%X&X-X-X3X3X3X3X3X5X5X4X4XyXrXrXtXsXaXdXjXjXjXkXvXvXvXvXbXbXbXMXMXbXbXvXvXkXkXjXjXfXgXdXgXgXsXrXrXrXrXrXrXtXtXrXrXrXrXyXyXyXyX9X9XyXtXtXsXtXtXsXsXgXaXgXgXgXgXdXdXhXjXjXkXvXvXbXbXbXBXBXCXZXZXAXAXZXZXZXZXZXZXZXZXZXCXCXCXbXbXbXbXvXvXmXmXvXvXvXvXmXmXvXbXMXbXbXbXMXMXCXCXCXCXCXCXCXCXZXZXZXZXZXZXZXZXZXZXZXDXZXZXZXZXZXZXZXZXZXZXZXZXZXZXZXZXZXZXZXZXZXZXZXZXZXZXZXZXZXZXZXZXZXZXZXZXZXZXZXZXHXHXDXDXDXDXDXDXDXDXDXDXDXDXDXDXDXDXDXDXDXDXDXDXDXDXDXDXZXZXZXZXZXZXZXCXCXMXMXMXmXmXmXvXkXkXjXjXjXjXjXjXjXjXjXjXfXfXgXgXgXgXdXdXgXgXgXsXsXsXsXsXsXsXgXgXgXsXsXsXsXsXsXsXtXtXtXtXtXtXtXtXtXtXtXtXtXtXtXtXeXeXeX0X8X8X5X5X5X3X3X-X-X-X%XOX+X+X+X+X.X.X{.{.|.|.]._._._.`.`.E.E.E.K.K.K.K.K.K.H.H.B.M.n.l.j.j.d.d.d.d.d.d.d.k.a.a.a.i.i.a.a.a.a.p.e.e.e.p.p.p.p.p.p.p.p.a.a.a.a.p.p.a.a.d.d.j.n.N.n.M.m.m.M.M.M.B.B.S.S.S.S.B.L.B.M.M.M.N.n.j.l.d.g.p.e.q.q.e.q.q.q.8.8.8.8.8.8.7.7.7.7.6.6.6.6.6.6.6.6.6.6.6.6.6.6.7.8.8.q.q.q.r.r.r.r.r.e.e.e.e.e.e.e.e.e.e.e.p.p.e.e.p.p.p.p.p.p.a.p.p.p.e.e.e.e.e.e.e.e.e.e.r.r.q.q.q.8.8.8.8.8.6.6.w.w.6.6.6.6.;.=.=.=.=.=.*.*.*.*.*.*.*.@.O.*.;.;.;.*.O.[ [ { { { ",
"u i a d f k k m m m V V D F I I ~ ~ ~ ( ~ S m n k d e 7 8 7 7 6 6 6 7 7 9 9 9 9 9 u e e e u u u u u i i p p i a a p 9 ).3.G T G V V V V B V C D D D F F F F F F F F P P P P ~ ~ ~ ~ ~ ~ ~ ~ ^ / ^ / / / / ` ` ` ` ] [ [ [ [ { +.+.o.O.@.*.#.=.6.6.6.7.7.0.r.e.e.a.j.n.M.H.J.E.W.W.W._.].].{.{..X+X+XOX+X&X&X&X&X-X-X&X&X%X%XOXOXOX.X.X{.]._.W.J.J.G.H.B.V.V.x.x.x.x.x.x.x.x.n.x.N.V.B.C.C.J.R.Q.Q.W.].[..XXXOX%X*X*X2X5X4X7X7X7X7X0XaXdXjXjXkXkXvXvXbXbXBXBXVXVXZXZXVXVXVXVXBXBXBXBXBXBXBXBXBXBXBXBXBXbXbXvXvXvXkXxXxXxXaXaXaXrXrXrX7X7X4X4X2X-X=X*X*X*X*X*X-X-X-X-X-X3X5X5X5X5X5X4X8X7XrXrXaXaXdXdXhXjXjXjXvXvXbXbXmXMXMXMXbXbXbXbXbXvXkXjXjXjXfXfXgXgXgXsXtXtXrXrXrXrX9X9XyXyXyXyXyXyXtXtX9X9XtXtXsXsXsXsXsXaXaXaXdXdXgXgXgXfXhXjXkXkXvXvXbXbXbXBXBXCXCXCXZXZXZXZXZXZXZXZXZXZXZXCXCXCXbXbXbXbXbXMXmXmXvXvXvXvXmXmXvXvXMXbXbXbXMXMXCXCXCXCXCXCXCXCXZXZXZXZXZXZXZXZXZXZXZXZXDXDXDXDXDXDXDXDXDXZXZXZXZXZXZXZXZXZXZXZXZXZXZXZXZXZXZXZXZXZXZXZXZXZXZXZXAXAXZXZXHXHXDXDXDXDXDXDXDXDXDXDXDXDXDXDXDXDXDXDXDXDXZXDXDXDXDXDXDXDXZXZXZXZXZXCXCXMXMXMXmXmXmXvXkXkXjXjXjXjXjXjXjXjXjXjXfXfXfXfXgXgXdXgXgXgXgXsXsXsXsXsXfXfXfXgXfXsXsXdXsXsXsXsXtXtXsXsXtXtXtXtXtXtXtXtXtXtXtXtXeXeXeX8X8X8X5X5X5X3X3X-X-X-X&XOX+X+X+X+X.X.X{.{.|.|.]._._._.`.`.`.E.E.K.K.K.K.K.K.H.H.B.M.n.l.j.l.d.d.d.d.d.d.d.k.d.a.a.a.a.a.a.a.a.a.p.e.e.p.p.p.e.p.p.p.p.p.p.a.a.p.p.a.a.d.d.j.n.N.N.m.M.B.B.S.S.S.S.S.S.S.S.L.H.B.M.M.M.M.n.n.l.d.g.p.e.q.q.e.e.q.q.q.8.q.8.8.8.8.8.8.8.8.8.8.w.w.6.6.6.6.6.6.6.6.6.7.8.8.q.q.q.r.r.r.r.e.e.r.r.e.e.e.e.e.e.e.e.e.e.e.e.e.e.e.e.p.p.e.e.e.p.e.e.e.e.e.e.e.e.e.e.r.r.r.q.q.8.8.8.8.7.6.6.w.w.6.6.6.6.;.=.=.=.=.=.*.*.*.*.@.@.@.@.O.O.*.;.;.;.O.o.[ { { } ",
"u p a d f k k m m M M V C G P U P P U U G V m m n d u 7 8 7 7 6 6 6 7 7 9 9 9 9 9 9 e e e u u u u u i i p p i i r p 9 (.Q W U C V M V V m V C C S D D F F F F F F F P P P P ~ ~ ~ ~ ~ ~ ~ ~ ^ / / / / / / ` ` ` ` ] [ [ [ [ { o.o.+.*.*.=.=.9.6.6.7.q.q.r.e.i.i.a.j.n.M.H.J.E.W.W.W._.].}.{.{.+X+X+XOXOXOXOX&X&X-X-X&X&X%X%XOXOXOX.X.X[.].`.E.F.G.C.S.M.N.n.x.x.x.x.x.x.x.x.n.n.N.M.M.C.J.R.Q.Q.`.].}.oX+XOX%X%X=X2X4X5X7X7X7X7X7X0XaXdXhXjXkXkXvXvXbXbXBXBXVXVXZXZXVXVXVXVXBXBXBXBXBXBXBXBXBXBXBXBXBXbXbXbXvXvXkXjXhXdXdXgXsXsXaXrXyX7X7X4X4X2X=X=X=X=X=X=X-X-X-X-X3X3X5X5X5X5X4X4XeX7XrXaXaXaXdXdXhXjXjXkXvXvXbXbXMXMXMXMXbXbXbXbXbXvXkXkXjXjXjXfXgXgXgXsXtXtXrXrXrXrX9X9X9XyXtXtXyXyXrXtX9X9XtXtXsXsXsXsXaXaXaXaXdXdXgXgXgXfXhXjXkXkXvXvXbXbXbXBXCXCXCXCXZXZXAXZXZXZXZXZXZXZXZXCXCXCXBXbXbXbXbXbXbXbXbXbXvXvXvXvXvXvXMXbXbXbXMXCXCXBXCXCXCXCXCXCXZXZXZXZXZXZXZXZXZXZXZXDXDXDXDXDXDXDXDXDXDXDXZXZXZXZXZXZXZXZXZXZXZXZXZXZXZXZXZXZXZXZXZXZXZXZXZXZXAXAXZXZXHXHXDXDXDXDXDXDXDXDXDXDXDXDXDXDXDXDXDXDXDXDXZXDXDXDXDXDXDXZXZXZXZXZXZXCXCXMXMXMXmXmXmXvXkXkXjXjXjXjXjXjXjXjXjXjXjXfXfXxXxXgXdXdXdXgXgXgXgXfXgXgXgXgXfXfXfXfXdXdXdXsXgXsXsXtXaXaXtXtXtXtXtXtXtXtXtXtXtXtXtXeXeXeX8X8X5X5X5X3X3X-X-X-X&XOX+X+X+X+X.X.X{.{.|.|.]._._._.`.`.`.E.E.K.K.K.K.K.K.H.H.B.M.N.n.j.l.d.d.d.d.d.d.d.k.d.a.a.a.a.a.a.a.a.a.e.e.e.p.p.p.e.p.p.p.p.e.p.a.a.p.a.a.a.d.k.j.n.N.N.m.M.B.B.S.S.S.S.S.S.S.S.B.H.B.M.M.M.M.N.n.l.d.g.p.e.q.q.e.e.q.q.q.q.q.q.8.8.8.8.8.8.8.8.8.w.w.6.6.6.6.6.6.6.6.6.7.8.8.8.q.q.r.r.r.r.r.r.r.r.r.r.r.r.r.r.r.r.e.e.e.e.e.e.e.e.e.e.e.e.e.e.e.e.e.e.e.e.e.e.e.e.r.r.q.q.q.8.8.8.8.7.6.6.w.w.6.6.6.;.;.=.=.=.=.=.*.*.*.*.@.*.*.O.O.O.*.;.;.*.O.o.[ { { } ",
"u p a d f k k m m m M B V V D G G G G G Z M m m v a 7 6 8 7 7 6 7 9 7 7 7 9 7 7 9 9 7 e u u u u u u u i i i i i u p p Q iXQ G C B V B V V V V C S S D D F F F F L L L L P P ~ ~ ~ ~ ^ ^ ~ ~ ~ / / / / / / ` ` ` ` ] [ [ [ X.o.o.o.%.*.*.#.9.6.6.7.q.r.r.r.i.a.a.a.j.N.B.H.K.E.W.W._.].|.{.}.{.+X+XOXOX+X&X&X&X&X&X&X&X&X%XOXOXOX.X.X{.]._.W.K.J.C.C.M.M.N.n.x.x.n.x.x.x.n.n.n.N.m.B.M.S.J.Q.Q._._.}.}.+XOXOX%X*X=X3X5X4X7X7X7X0X9XiXaXdXhXhXlXlXvXvXbXbXBXBXZXZXVXVXVXVXVXVXVXBXBXBXCXCXBXBXBXBXBXBXBXbXbXbXvXvXvXkXkXhXhXdXdXaXaXsXtX0X7X7X4X4X6X1X1X1X1X1X2X2X2X2X3X3X5X5X8X7X8X7X9XrXrXaXaXdXdXhXjXhXvXvXbXbXbXbXMXmXmXMXMXbXbXbXbXvXvXkXkXjXjXfXfXdXgXsXtXtXrXrXaXaXsXsX9X9X9XyXyXyX9XtXtXsXsXsXsXsXsXgXgXgXdXgXdXgXdXdXdXdXhXjXjXvXvXvXbXBXBXBXCXCXCXCXZXZXZXZXZXZXZXZXZXZXCXBXBXCXBXBXbXbXbXbXbXbXbXbXbXbXbXbXbXbXmXMXMXbXCXCXCXBXCXCXCXZXZXZXZXZXZXZXDXDXZXDXDXDXDXDXDXDXDXDXDXDXDXDXDXDXZXDXDXDXZXZXZXZXZXZXZXZXZXZXZXZXZXZXZXZXZXZXZXZXZXZXZXZXZXZXZXZXZXZXZXDXDXDXDXDXDXDXDXZXZXZXZXZXZXDXDXZXZXZXDXZXDXZXZXZXZXZXZXZXZXCXCXMXMXmXmXmXmXmXkXkXkXjXjXjXjXjXjXjXjXjXjXjXjXjXfXfXgXgXgXgXfXfXfXfXfXfXfXfXfXfXfXfXfXfXfXfXsXsXsXsXsXsXtXtXsXsXsXsXtXtXtXtXtXtXtXtXeX8XeX8X5X5X5X3X3X-X-X-X%XOXOX&X+X.X{.{.{.{.}.|.|._._._.`.`.`.E.E.K.K.K.K.K.K.K.H.B.V.N.n.n.n.n.j.j.d.k.d.d.k.d.d.a.a.a.a.a.a.a.a.p.p.p.e.e.e.e.p.p.p.p.p.p.a.a.a.a.a.d.d.j.j.n.N.N.B.B.M.B.S.S.H.S.S.S.S.S.L.H.L.B.M.M.M.N.l.l.g.g.a.p.e.e.e.e.r.r.q.q.q.q.8.8.8.8.8.8.8.8.8.8.w.w.6.6.6.6.6.6.8.8.8.8.8.8.q.q.q.q.q.q.r.r.r.r.r.r.r.r.r.r.r.r.r.r.r.r.r.r.e.e.e.e.e.e.e.e.e.e.e.e.e.e.e.e.e.r.q.q.q.8.8.7.8.8.7.6.6.6.6.6.6.6.;.=.;.=.;.=.=.*.*.*.*.%.*.%.%.O.O.O.O.*.*.O.O.o.[ { { { ",
"u p a d f k k m N N m m m m m M M m N N z z k n f i 7 6 8 7 7 6 9 9 7 9 9 9 7 7 9 9 e e u u u u u u u u i i i p p p p v 3.U.G C B m B B V V V V V S D D D F F F F L L L P P ~ ~ ~ ~ ^ ^ ~ ~ ~ / / / / / / ` ` ` ] [ [ [ [ X.o.o.+.*.*.=.=.9.9.7.q.r.e.e.i.a.k.k.k.j.N.B.H.K.E.W.W.].].{.{.{.{.+X+X+XOXOXOXOX&X&X&X&X&XOX%XOX%XOX.X.X[.]._.Q.K.H.C.M.M.m.N.n.x.x.n.x.x.x.x.n.n.V.V.B.S.J.J.E.W.].].}.}.+XOX%X%X-X2X2X4X4X7X7X0X0X9XiXaXfXhXhXhXkXvXvXbXbXBXBXZXZXVXVXVXVXVXVXBXBXBXBXCXCXBXBXBXBXBXBXBXBXbXbXbXvXvXkXkXlXhXhXdXdXaXaXsX0X7X7X5X4X4X6X6X6X2X2X3X3X6X6X5X5X5X7X7X7X7X7XrXrXaXaXdXdXhXhXhXkXvXvXbXbXbXbXMXMXMXMXMXMXbXbXbXvXvXkXkXjXjXfXfXdXsXsXtXtXrXrXaXaXtXtX9X9X9X9XyXyX9XtXtXsXsXsXsXsXgXgXgXgXgXgXdXdXdXdXdXdXhXhXkXvXvXbXbXBXBXBXCXCXCXCXZXZXZXZXZXZXZXZXZXZXCXBXBXBXBXBXbXbXbXbXbXbXbXbXbXbXbXbXbXbXMXMXMXBXBXCXCXCXCXCXCXCXZXZXZXZXZXZXDXDXDXDXDXDXDXDXDXDXDXDXDXDXDXDXDXDXDXDXDXDXDXZXZXZXZXZXZXZXZXZXZXZXZXZXZXZXZXZXZXZXZXZXZXZXZXZXZXZXZXZXZXZXDXDXDXDXDXZXZXZXZXZXZXZXZXZXZXZXZXZXZXZXZXZXZXZXZXZXZXZXZXZXCXMXMXmXmXmXmXmXkXkXkXjXjXjXjXjXjXjXjXjXjXjXfXfXfXfXgXgXgXgXfXfXfXfXfXfXfXfXfXfXfXfXfXfXfXfXdXsXgXsXsXtXtXtXsXsXsXsXtXtXtXtXtXtXtXtXeX8XeX8X5X5X5X3X3X-X-X-X%XOXOXOX+X.X{.{.{.{.{.}.]._._._.`.`.`.E.E.K.K.K.K.K.K.K.K.B.V.N.n.n.n.n.j.j.d.k.d.d.k.k.d.a.a.a.a.a.a.a.a.p.p.p.e.e.e.e.p.p.p.p.p.p.a.a.i.a.d.j.j.j.n.n.B.N.B.B.M.B.S.S.H.S.S.S.S.S.L.H.B.B.M.M.M.N.l.l.g.g.a.p.e.e.e.e.r.r.q.q.q.q.8.8.8.8.8.8.8.8.8.8.w.w.6.w.6.6.6.6.w.w.8.8.8.8.q.q.q.q.q.q.q.q.q.r.r.q.q.q.r.r.q.q.q.q.q.q.r.r.r.r.e.e.e.e.e.e.e.e.e.e.e.e.e.e.r.r.q.q.q.8.8.8.8.8.w.6.6.6.6.6.6.6.;.=.;.=.;.=.=.*.*.*.*.%.%.%.%.O.O.O.O.%.O.O.o.o.{ { { { ",
"u p a d f k k m N N N m m m m m k f z g g s k k f u 7 6 8 7 6 9 9 9 7 7 9 9 7 7 9 9 u u u u u u u u u u u i i i i p d v M G L B m m m m V V V V V S D D D D F F L L P P I I ~ ~ ~ ~ ^ ~ ~ ~ / / / / / / ` ] ] ] ` [ [ X.X.o.o.+.%.*.*.-.9.9.7.0.r.e.i.i.a.k.k.k.k.j.N.B.H.K.E.W._.].}.{.{.{.+X+X+X+X+XOXOXOX&X&X&X&XOXOXOXOXOXOX.X.X]._.W.E.F.G.C.M.M.M.N.n.n.n.n.n.n.n.n.n.N.B.B.B.S.J.R.E.W.].].}.oX+XOX%X*X2X3X2X5X4X7X0X9X0X9XsXaXfXjXhXjXkXvXvXbXbXBXBXZXZXVXBXBXBXBXBXBXBXBXBXCXCXBXBXBXBXBXBXBXBXbXbXbXbXbXvXvXkXlXhXhXhXdXaXaX9X9X0X8X4X5X4X4X5X5X5X5X5X5X5X5X5X8X7X9XrXyXrXrXrXaXaXdXhXhXjXkXvXvXbXbXBXCXCXCXCXCXCXCXCXBXbXbXvXvXkXkXjXjXfXfXdXgXsXtXtXrXrXaXaXsXsXtXtXtXtXtXtXtXtXsXsXsXsXsXsXgXgXsXsXsXgXgXdXdXdXdXdXhXhXkXvXvXbXbXBXBXBXCXCXCXCXCXZXZXZXZXZXZXZXZXCXCXCXCXCXCXCXMXMXMXMXbXbXbXbXbXbXbXbXbXbXMXMXbXBXBXCXCXBXCXCXCXCXZXZXZXZXZXZXZXZXDXDXDXDXDXDXDXDXDXDXDXDXDXDXDXDXDXDXDXDXDXDXZXZXZXZXZXZXZXZXZXZXZXZXZXZXZXZXZXZXZXZXZXZXZXZXZXZXZXZXZXZXZXZXZXZXZXZXZXZXZXZXZXZXZXZXZXZXZXZXZXZXZXZXZXZXZXZXZXZXZXCXCXMXMXMXmXmXmXkXkXkXkXjXjXjXjXjXjXjXjXjXjXjXfXfXfXfXgXgXgXgXfXfXfXfXfXfXjXjXjXjXjXjXjXjXfXdXfXfXgXsXsXsXuXuXsXsXsXsXtXtXtXtXtXtXtXtXeXeXeXeXeX5X3X3X-X-X-X-XOX+XOXOX+X+X{.{.{.{.{.}.]._._._._.`.`.E.E.K.K.K.K.K.K.K.K.B.B.V.n.n.n.n.l.j.l.l.l.d.k.d.d.a.a.a.a.a.a.a.p.e.p.p.p.e.p.p.p.p.p.p.p.p.p.a.a.d.d.j.l.n.n.V.V.B.B.B.B.S.S.S.H.H.S.S.S.S.B.H.B.B.M.M.M.N.n.l.g.d.a.p.e.e.e.e.e.e.r.r.r.r.q.q.8.8.q.q.8.8.8.8.8.8.8.8.8.8.8.8.7.7.8.8.8.8.q.q.q.q.q.q.q.q.q.q.r.r.q.q.q.q.q.q.r.r.q.q.q.q.r.r.e.e.e.e.e.e.e.e.a.a.e.e.e.e.e.r.q.q.8.8.8.8.8.8.w.6.6.6.6.6.6.6.;.=.;.=.;.=.=.*.*.*.*.*.%.%.%.O.O.O.O.O.O.o.o.o.{ { { { ",
"u p a d f k k m N N N m m l k k f s g g g g j k f u 6 6 7 7 9 6 9 9 7 7 9 9 9 9 9 9 u u u u u u u u u u u u p r e p v v Z K K C B m m m V M V M V S D D D D F F L L P P P I ~ ~ ~ ~ ^ ~ ~ ~ / / / / / / ` ] ] ] [ [ [ X.o.o.O.O.*.;.;.-.w.0.q.r.e.i.a.a.k.k.j.j.k.j.N.B.H.K.E.W._.].{.{.{.{.+X+X+X+XOX+XOXOX&XOXOXOXOXOXOXOXOX.X.X{.]._.W.E.J.G.C.M.M.M.n.n.n.n.n.n.n.n.n.n.N.m.B.B.J.K.R.W._.].[.{.oX+X&X%X*X3X3X2X4X4X7X0X9X9XiXiXaXdXjXjXjXkXkXvXvXbXBXBXBXVXVXBXBXBXBXBXBXBXBXBXCXCXBXBXBXBXBXBXBXBXbXbXbXbXbXbXvXvXlXlXhXhXdXdXaXiX9X0X0X7X4X4X4X4X4X5X5X5X5X5X5X7X7X7XrXrXrXrXaXaXaXgXdXjXhXjXvXvXbXbXbXBXCXCXCXCXCXCXBXBXBXbXbXvXvXkXkXjXjXjXfXdXgXtXtXtXrXrXaXaXsXsXtXtXtXtXtXtXtXtXtXsXsXsXsXgXgXgXsXsXsXgXdXdXsXsXdXdXhXhXkXvXvXbXbXBXBXBXCXCXCXCXCXCXZXZXZXZXZXZXCXCXCXCXCXCXCXCXMXMXMXMXbXbXbXbXbXbXbXbXbXbXMXCXBXBXCXCXCXCXCXCXCXCXZXZXZXZXZXZXZXZXDXDXDXDXDXDXDXDXDXDXDXDXDXDXDXDXDXDXDXDXDXDXDXZXZXZXZXZXZXZXZXZXZXZXZXZXZXZXZXZXZXZXZXZXZXZXZXZXZXZXZXZXZXZXZXZXZXZXZXZXZXZXZXZXZXZXZXZXZXZXZXZXZXZXZXZXZXZXZXZXZXCXCXMXMXmXmXmXmXkXkXkXkXjXjXjXjXjXjXjXjXjXjXjXfXfXfXfXfXfXfXfXfXfXfXjXjXjXjXjXjXjXjXjXjXhXjXdXfXfXgXsXsXsXsXuXsXsXsXsXtXtXtXtXtXtXtXtXeXeXeXeXwX5X3X3X-X-X-X&XOX+X+X+X+X.X{.{.{.{.{.}.].]._._.`.`.`.E.E.K.K.K.K.K.K.K.K.B.B.N.n.n.n.n.j.j.j.j.l.d.k.d.d.a.a.a.a.a.a.a.p.e.e.p.p.p.p.p.p.p.p.p.p.p.p.a.d.d.l.n.n.n.n.n.V.B.B.B.B.S.S.S.H.H.S.S.S.S.L.H.B.B.M.M.M.M.n.l.d.d.a.p.p.e.e.e.e.e.r.r.r.r.q.q.8.8.q.q.8.8.8.8.8.8.8.8.8.8.8.8.7.7.8.8.8.8.8.8.8.q.q.q.q.q.q.q.q.q.q.q.q.q.q.q.8.8.8.q.q.q.q.q.r.r.e.e.e.e.e.e.e.e.e.e.e.e.e.r.q.q.8.8.7.7.7.7.6.6.6.6.6.6.6.=.=.=.=.=.=.=.=.*.*.*.*.*.%.O.O.O.O.O.o.o.o.o.o.o.{ { { { ",
"u p a d f k k m m m m m m k k s a a y y y g z k f u 7 6 7 7 9 9 9 9 7 7 9 9 9 9 e e e e u u u u u u u u u i p i u a f n V U G C m m m m B B V M C S D D D D F F F F P P P P ~ ~ ~ ~ ^ ^ ^ ^ / / / / / / ` ` ] ] [ [ [ X.o.O.O.O.*.;.-.9.q.q.i.i.i.a.d.d.k.j.k.j.j.j.N.B.H.K.E.W._.|.{.{.{..X+X+X+X+X+X+X+XOXOXOXOX+XOXOX+X+X.X.X.X{.].W.Q.E.J.H.H.M.M.M.n.n.n.n.n.n.n.n.n.m.M.B.B.S.K.R.E.W.].].}.oXoXXX%X%X*X2X2X4X4X7X7X7X9XiXiXiXaXfXhXhXjXkXkXvXvXbXbXBXBXBXBXBXBXBXBXBXBXBXBXBXBXBXBXBXBXBXBXBXBXBXbXbXbXBXbXbXbXvXnXlXlXhXhXdXdXaX9X0X7X7X4X4X4X4X4X5X8X8X4X7X8X7X0X0XyXyXrXrXaXgXgXxXxXjXkXkXvXvXbXbXBXBXCXCXCXCXCXCXCXCXBXMXbXvXkXkXkXjXjXfXfXdXgXsXtXtXtXtXaXaXtXtXtXtXtXtXtXtXsXsXsXsXsXsXgXaXaXaXsXsXsXgXdXdXsXsXdXhXhXhXkXvXvXbXbXBXBXBXCXCXCXCXCXCXZXCXZXZXZXZXCXCXCXCXCXCXCXCXCXCXCXCXMXMXbXbXbXbXMXMXMXMXCXCXCXCXCXCXCXCXCXZXZXZXZXZXZXZXZXZXZXZXDXDXDXDXDXDXFXFXHXHXFXFXDXDXDXDXDXDXDXDXDXDXDXDXZXZXZXZXZXZXZXZXZXZXZXZXZXZXZXZXZXZXZXZXZXZXZXZXZXZXZXZXZXZXZXZXZXZXZXZXZXZXZXZXZXZXZXZXZXZXZXZXZXCXCXCXZXZXZXZXCXCXCXCXMXmXmXmXmXkXkXkXkXjXjXjXjXjXjXjXjXjXjXjXfXfXfXfXjXjXjXjXjXjXjXjXjXjXjXjXjXjXjXjXjXjXjXjXjXjXfXfXgXgXsXsXsXsXsXsXsXsXsXsXsXsXtXtXtXeXeXeXwX5X3X3X-X-X-X&XOXOX+X+X+X.X.X{.{.{.{.}.].].]._.`.`.`.E.E.K.K.K.K.K.K.K.K.B.M.M.n.n.n.n.l.l.j.j.k.k.k.k.k.d.a.a.a.a.a.a.p.e.p.p.p.p.p.p.p.p.p.p.p.p.p.a.d.d.l.n.n.n.n.n.V.N.B.B.M.B.S.S.S.S.S.S.S.S.L.L.L.B.M.M.M.M.n.l.d.d.a.p.p.p.e.e.e.e.e.e.r.r.r.r.r.r.q.q.q.q.q.q.8.8.8.8.8.8.8.8.7.7.7.7.8.8.8.8.8.8.8.8.q.q.8.8.8.8.8.8.8.8.8.8.8.8.8.8.q.q.q.q.r.q.e.e.e.e.e.e.e.e.e.e.e.e.e.r.q.q.q.8.8.8.8.6.6.6.6.6.6.6.=.=.=.=.=.=.;.*.*.*.*.%.%.O.O.O.O.O.O.o.o.o.o.o.o.[ [ { { { ",
"u p a d f k k m m m m m l k k a i r r r y g z z f u 7 6 7 7 9 6 9 9 7 7 9 9 9 9 e e e e u u u u u u u u u i p p p a f k V U G V m m m m B B M M C S D D D D F F F F P P P P ~ ~ ~ ~ ^ ^ ^ ^ / / / / / / ] ` ] [ [ [ X.X.O.O.O.@.*.-.9.w.q.p.p.i.a.a.d.j.j.j.j.k.j.j.V.B.H.K.E.W._.].}.{.{..X+X+X+X+X+X+X+X+X+XOX+X+X+X+X+X+X.X.X.X{.].W.Q.E.K.H.H.M.M.M.n.n.n.n.n.n.n.n.n.m.B.B.S.H.K.R.E.W.].[.[..XXX#X%X*X=X-X2X4X4X7X7X7X0XiXiXiXaXdXjXhXjXkXkXvXvXbXbXbXBXBXBXBXBXBXBXBXBXBXBXBXBXBXBXBXBXBXBXBXBXBXBXBXBXBXBXbXbXnXnXvXlXlXhXdXdXaX9X0X7X7X7X7X7X7X7X7X8X7X7X7X0X9X9X0XtXrXrXrXaXaXxXxXhXjXkXkXvXvXbXbXBXBXCXCXZXCXZXZXCXCXBXMXbXvXkXkXkXjXjXfXfXdXgXsXsXsXtXtXaXaXtXtXtXtXtXtXtXtXsXsXsXsXsXsXaXaXaXaXsXsXsXgXdXdXgXsXdXhXhXhXkXvXvXbXbXBXBXBXCXCXCXCXCXCXZXZXZXZXZXZXCXCXCXCXCXCXCXCXCXCXCXCXMXMXbXbXbXbXMXMXMXCXCXCXCXCXCXCXCXCXZXZXZXZXZXZXZXZXZXZXZXZXDXDXDXDXDXDXHXHXHXFXFXFXDXDXDXDXDXDXDXDXDXDXDXDXZXZXZXZXZXZXZXZXZXZXZXZXZXZXZXZXZXZXZXZXZXZXZXZXZXZXZXZXZXZXZXZXZXZXZXZXZXZXZXZXZXZXZXZXZXZXZXZXCXCXCXCXZXZXZXZXCXCXCXMXMXmXmXmXmXkXkXkXkXjXjXjXjXjXkXjXjXjXhXhXfXfXfXfXjXjXjXjXjXjXjXjXjXjXjXjXjXjXkXkXkXkXjXjXjXjXhXfXdXgXgXsXsXsXsXsXsXgXgXgXsXtXtXtXtXeXeXeXwX5X3X3X-X-X-X-X%XOX+X+X+X+X.X.X{.{.{.|.].].]._.`.`.`.W.E.K.K.K.K.K.K.K.H.B.M.M.n.n.n.n.j.l.j.j.k.k.k.k.k.d.a.a.a.a.a.a.p.e.p.p.p.p.p.p.p.p.p.p.p.p.p.a.d.d.l.n.n.n.n.V.V.N.B.B.M.B.S.S.S.S.S.S.S.L.L.L.B.B.N.N.M.M.n.j.k.d.g.a.p.p.e.e.e.e.e.e.r.r.r.r.q.q.q.q.q.q.q.q.8.8.8.8.8.8.8.8.7.7.7.7.8.8.8.8.8.8.8.8.8.8.7.7.7.7.7.7.8.8.8.8.8.8.8.8.8.8.8.8.q.q.r.r.r.r.e.e.e.e.e.e.e.e.e.e.q.q.q.8.8.7.w.6.6.6.6.6.=.=.=.=.=.=.=.*.*.*.*.*.%.%.O.O.O.O.O.O.o.o.o.o.o.X.o.{ { [ { { ",
"u p a d f k k m m m m m m k f a i i r r y g z z g i 9 6 6 6 6 9 9 9 7 7 9 9 9 9 u u e e u u u u u u u u i i i p p a f k V U U V m m M M M M V V C C D D D F F F F F P P P P ~ ~ ~ ~ ^ ^ ^ / / / / / / ] ] ] [ [ [ [ o.o.O.O.@.@.=.-.w.y.t.i.i.a.a.d.j.l.j.j.j.k.j.j.V.B.H.K.E.W._.].}.{.{.{.+X+X+X+X+X+X+X+X+X+X+X+X+X+X+X+X.X.X{.].].Q.Q.E.K.H.H.H.C.M.M.M.M.N.n.n.n.n.M.M.M.B.S.J.E.R.W.W.].[.[..XXX&X-X=X-X2X2X4X4X7XyX9XaXaXaXaXgXdXjXjXjXkXkXvXvXbXbXbXBXBXBXBXBXBXBXBXBXBXBXBXBXBXBXBXBXBXBXBXBXBXBXBXBXBXBXBXbXbXbXvXvXvXlXhXxXaXaXrXrXrXyX7XyX0X0X0XeXyX9X9XyXtXtXtXtXtXtXsXgXgXxXjXjXkXkXvXvXbXbXCXCXCXCXCXZXZXZXZXCXCXCXMXMXvXkXkXkXjXjXjXfXdXgXsXsXsXtXtXsXsXsXsXsXsXsXsXsXsXsXsXsXsXgXgXgXgXaXgXsXsXsXsXgXgXgXgXfXhXhXhXkXvXvXbXbXBXBXBXCXCXCXCXCXCXZXZXZXZXZXZXCXCXCXCXCXCXCXCXCXCXMXCXCXCXbXbXbXbXCXCXCXCXCXCXCXCXCXCXCXCXCXCXZXZXZXZXZXZXZXZXZXZXDXDXDXDXDXDXDXHXHXHXFXFXDXDXDXDXDXDXDXDXDXDXDXDXZXZXZXZXZXZXZXZXZXZXZXZXZXZXZXZXZXZXZXZXZXZXZXZXZXZXZXZXZXZXZXZXZXZXZXZXCXCXZXZXZXZXZXZXZXZXZXZXCXCXCXCXCXCXCXCXCXCXCXMXMXmXmXmXmXkXkXkXkXkXkXkXjXjXjXjXjXjXjXjXjXjXjXjXjXjXjXjXjXjXjXjXjXkXkXkXkXkXvXvXkXkXkXkXkXjXjXjXfXfXgXsXsXsXsXsXsXsXsXsXsXsXuXtXtXeXeXeXwX5X3X3X-X-X-X-X%XOX+X+X+X+X.X.X{.{.{.}.|._._._.`.`.`.`.E.`.K.K.E.E.K.K.K.H.M.M.M.N.n.n.n.n.j.j.l.k.k.k.k.d.a.a.a.a.a.a.p.e.e.e.e.e.p.e.p.p.p.p.p.p.p.a.d.d.l.n.n.n.n.V.V.V.B.B.M.B.S.S.S.S.S.S.L.B.L.L.B.B.N.N.N.N.n.j.k.d.g.a.a.p.a.e.e.e.e.e.e.e.e.e.e.e.e.e.r.r.r.r.r.r.q.q.8.8.8.8.7.7.8.8.8.8.8.8.8.8.q.8.8.8.8.8.8.8.8.8.8.8.8.8.8.8.8.8.8.8.8.8.q.q.r.r.r.r.e.e.e.e.e.e.e.e.r.e.q.q.q.8.8.7.w.6.6.6.6.6.=.;.=.=.=.*.*.*.*.*.*.*.%.%.O.O.O.O.O.O.o.o.o.o.o.{ { { { [ ] ] ",
"u p a d f k k m m m m m l k f a i u r r r g z z g u 9 9 6 6 6 6 9 9 7 7 9 9 9 9 u u u u u u u u u u u u i i i u p a f k V P D V m m m M M M V V V C D D D D F F F F P P P P ~ ~ ~ ~ ^ ^ ^ / / / / / / ] ] ] [ [ [ X.o.O.O.@.@.@.=.9.w.t.p.i.a.a.d.k.l.l.j.j.j.j.j.j.V.B.H.K.E.W._.].}.{.{.{.{.+X+X+X+X+X+X+X+X+X+X+X+X+X+X.X.X{.{.]._.W.Q.K.K.H.H.H.C.M.M.M.M.M.M.m.m.m.m.M.B.H.J.K.R.Q.W.W.[.[.[..XXX%X-X=X1X2X2X4X4X7X0X9XaXaXaXgXgXhXjXjXjXkXkXvXvXvXbXbXbXBXBXBXBXBXBXBXBXBXBXBXBXBXBXBXBXBXBXBXBXBXBXBXBXBXBXBXBXbXbXvXvXvXkXhXhXgXaXaXaXrXrXrXrXrXrXrXyXyXyXyXtXtXtXrXsXsXsXaXgXxXxXjXkXkXvXvXvXbXbXBXCXZXZXZXZXZXZXZXCXCXCXMXMXvXkXkXkXjXjXjXfXdXgXsXsXsXtXtXsXsXsXsXsXsXsXsXsXsXsXsXsXsXgXgXgXgXaXaXsXsXsXsXgXsXgXgXfXhXhXhXkXvXvXbXbXBXBXBXCXCXCXCXCXCXZXZXZXZXZXZXCXCXCXCXCXCXCXCXCXCXCXBXCXCXBXBXBXBXBXBXBXBXCXCXCXCXCXCXCXCXCXCXZXZXZXZXZXZXZXZXZXDXDXDXDXDXDXDXHXHXHXDXFXFXFXFXFXDXDXDXDXDXDXDXDXDXDXZXZXZXZXZXZXZXZXZXZXZXZXZXZXZXZXZXZXZXZXZXZXZXZXZXZXZXZXZXZXZXZXZXZXZXCXCXZXZXCXZXZXZXZXZXZXZXCXCXCXCXCXCXCXCXCXCXCXCXMXmXmXmXmXkXkXkXkXkXkXkXjXjXjXjXjXjXjXjXjXjXjXjXjXjXjXjXjXjXjXjXjXkXkXkXkXkXvXvXkXkXkXkXkXkXjXjXjXfXfXgXgXgXgXgXsXsXgXsXsXsXsXtXtXeXeXeXwX4X3X3X-X-X-X-X%X%XOX+X+X.X.X.X{.{.{.}.|.|._._._.`.`.`.`.`.E.E.E.E.E.K.K.H.M.M.M.N.n.n.n.j.n.j.l.j.j.k.k.d.a.a.a.a.a.a.p.e.p.e.e.e.e.e.p.p.p.p.p.p.a.a.d.d.j.j.l.l.n.n.n.N.V.V.B.B.B.B.S.S.S.S.B.B.B.B.B.N.M.M.N.n.j.j.k.d.g.a.a.p.a.e.e.e.e.e.e.e.e.e.e.e.e.e.r.r.r.r.r.r.q.q.8.8.8.8.7.7.8.8.8.8.8.8.8.8.8.8.8.8.8.8.8.8.8.8.7.7.7.7.7.7.7.7.8.8.8.8.8.8.r.r.r.r.e.e.e.e.e.e.r.r.r.q.q.8.8.8.7.6.6.6.6.6.6.=.=.=.=.=.=.*.*.*.*.*.*.%.%.%.+.+.+.+.O.o.o.o.o.o.o.{ { { ] ] ] ] ",
"u p a d f k k m m m m m l k s a i u u r r g z z g u 9 6 6 6 6 6 6 6 7 7 7 7 7 7 9 9 7 7 e e u 9 u u u u u i i i p a f k V U D B m m m m m m m m V V S D D D F F L L P P P I ~ ~ ^ ^ ^ ^ / / / / / / / ] ] ] [ [ [ X.o.O.O.@.@.=.9.w.q.p.p.i.d.d.j.j.j.j.l.j.j.j.j.j.N.M.H.K.E.W.`.].|.{.{.{.{.{.+X+X+X+X+X+X+X+X+X+X.X.X.X.X{.'.].].W.Q.E.K.K.H.H.H.C.M.M.M.M.M.M.M.M.M.M.M.S.H.K.K.E.Q.W.~.[.[..X.XXX%X=X=X1X2X4X4XeX7X9X9XiXiXiXgXdXhXjXhXkXkXkXvXvXvXbXbXbXBXBXBXBXbXBXBXBXBXBXBXBXBXBXBXBXBXBXBXBXBXBXBXBXBXBXBXBXbXbXbXvXvXvXlXhXdXgXaXsXaXrXrXrXrXtXtXsXsXtXrXsXsXaXaXgXgXgXgXfXhXhXkXkXvXvXbXbXBXBXBXZXZXZXZXZXZXZXZXZXBXCXMXmXvXkXkXkXjXjXjXfXdXgXgXsXsXtXtXsXsXsXsXsXsXsXsXsXsXsXsXsXsXsXsXsXsXsXsXgXgXsXsXtXtXdXdXhXhXhXkXvXvXvXbXbXBXBXBXCXCXCXCXCXCXCXCXZXZXZXZXZXZXZXZXCXCXCXCXCXCXCXCXCXCXCXCXBXBXCXCXCXCXCXZXZXCXZXZXZXZXZXZXZXZXZXZXZXZXDXDXDXDXDXDXDXDXDXFXFXFXFXFXFXFXFXFXFXFXDXDXDXDXDXDXDXDXDXDXDXDXDXDXDXZXZXZXZXZXZXZXZXZXZXZXZXZXZXZXZXZXAXAXAXAXZXZXZXCXZXCXCXCXCXCXCXCXCXCXCXCXCXCXZXCXCXCXCXCXCXCXCXCXCXCXCXCXMXmXmXmXmXkXkXlXkXkXkXkXkXkXkXjXjXjXjXjXjXjXjXjXjXjXjXjXjXjXjXjXkXkXvXkXvXvXvXvXvXvXvXvXvXvXkXkXjXjXjXjXfXfXfXfXfXfXfXfXgXsXsXuXtXeXeXeXwX4X3X3X-X-X-X-X%XOXOXOX+X+X.X.X{.{.{.}.|.|.].]._.`.`.`.`.`.`.E.E.E.E.K.K.H.M.M.M.M.M.N.n.n.n.n.n.j.j.j.k.d.a.a.a.a.a.a.a.i.i.e.e.e.p.p.p.p.p.p.p.p.a.a.d.d.d.j.j.j.n.n.n.N.V.V.B.B.B.B.B.B.B.B.B.B.B.B.V.M.M.n.n.n.j.k.k.d.g.a.p.p.p.p.e.e.e.e.e.e.e.e.e.e.e.e.r.r.r.r.q.q.q.q.q.q.8.8.8.8.8.8.8.8.8.7.8.8.8.8.8.8.8.8.8.8.8.8.7.7.7.7.7.7.7.7.7.7.8.8.8.8.q.q.q.q.e.e.e.e.e.e.e.e.e.q.8.8.8.6.6.6.6.6.6.=.=.=.=.=.=.=.*.*.*.*.*.*.*.%.%.%.&.&.&.&.&.o.o.o.{ { { } { { ] ] ] ] ",
"u p a d f k k m m l l l l k s a i u u r r a g g g u 9 6 6 6 6 6 6 7 7 7 7 7 7 7 9 9 7 7 u e u u u u u u u u i u u a s k V U G B m m m m m m m m V V S D D D F F F L L P P I ~ ~ ^ ^ ^ ^ / / / / / / ] ] ] [ [ [ [ X.O.O.@.@.=.=.9.0.t.p.i.a.d.d.j.j.j.j.j.j.j.k.j.j.N.M.H.K.E.W.`._.].}.{.{.{.{.{.+X+X+X+X+X+X+X.X.X.X.X.X{.'.[.].].W.E.E.J.K.H.H.H.C.C.M.M.M.M.C.C.C.M.M.S.H.H.K.E.Q.Q.W.~.[.[..X.XXX%X=X1X6X2X4X4XeX7X9XiXiXiXiXgXdXhXjXjXkXkXkXvXvXvXbXbXbXbXBXBXBXbXBXBXBXBXBXBXBXBXBXBXBXBXBXBXBXBXBXBXBXBXBXBXBXbXbXbXbXvXvXkXhXhXdXdXdXsXsXaXaXaXsXsXsXaXaXaXdXdXdXdXdXdXdXdXjXxXkXlXvXvXbXbXbXBXVXZXZXZXZXZXZXZXZXZXZXBXCXMXmXvXkXkXkXjXjXjXfXdXdXaXgXsXtXtXaXsXsXsXsXsXsXsXsXsXsXsXsXsXsXsXsXsXsXaXaXgXsXrXyXrXdXhXhXhXhXkXvXvXvXbXbXBXBXBXCXCXCXCXCXCXCXCXZXZXZXZXCXZXZXZXCXCXCXCXCXCXCXCXCXCXCXCXCXCXCXCXCXCXZXZXZXZXZXZXZXZXZXZXZXZXZXZXZXZXDXDXDXDXDXDXDXDXFXFXFXFXFXFXFXFXFXFXFXFXFXDXDXDXDXDXDXDXDXDXDXDXDXDXDXDXZXZXZXZXZXZXZXZXZXZXZXZXZXZXZXZXAXAXAXAXZXZXCXCXCXCXCXCXCXCXCXCXCXCXCXCXCXCXCXCXCXCXCXCXCXCXCXCXCXCXCXCXCXmXmXmXmXkXkXlXkXkXkXkXkXkXjXjXjXjXjXjXjXjXjXjXjXjXjXjXjXjXjXkXkXvXvXvXvXvXvXvXvXvXvXvXvXvXvXkXkXkXjXjXjXjXjXfXfXfXfXfXdXsXsXuXtXyXeXeXwX4X3X3X-X-X-X-X%X%XOXOX+X+X.X.X{.{.{.{.|.|.].]._.`.`.`.`.`.`.E.W.E.E.E.K.G.M.M.M.M.M.N.n.n.n.n.n.j.j.j.k.d.a.a.a.a.a.a.a.a.a.i.e.e.p.p.p.p.p.p.p.a.a.a.d.d.d.j.j.d.l.j.n.n.N.N.m.m.B.B.B.B.B.B.B.V.M.B.V.n.n.n.n.j.j.k.d.d.g.a.p.p.p.p.e.e.e.e.e.e.e.e.e.e.e.e.r.r.r.r.q.q.q.q.q.q.8.8.8.8.8.8.8.8.8.7.8.8.8.8.w.8.8.8.6.w.w.w.7.7.7.7.7.7.7.7.7.7.7.7.8.8.8.8.8.8.q.q.e.e.e.e.q.q.8.8.8.8.6.6.6.6.6.=.=.=.=.=.=.=.*.*.*.*.*.%.%.%.%.%.%.O.%.&.&.&.o.o.o.{ { } } { { ] ] ] ] ] ",
"u p a d f f n m m l l l l k s a i u u r r g g g d u 7 6 6 6 6 6 6 7 7 7 7 7 7 7 9 9 9 7 u u u u u u u u u u i u u p s k C U C m m m m m m m M m V V S D D D D F F L P P I P ~ ~ ^ ^ ^ ^ / / / / / / ] ] [ [ [ [ X.o.+.O.@.@.=.=.w.q.p.a.i.a.d.d.d.d.d.d.d.d.l.k.j.j.N.M.H.K.E.E.`.`.].|.}.}.}.{.{.{.oX+XoXoX+XoX.X.X{.{.{.{.'.'.'.W.W.E.E.K.K.J.H.H.H.C.C.C.C.C.C.C.C.C.S.S.H.K.K.Q.Q.Q.W.].[.[..XXX&X-X1X2X2X4X4X4XeX7X9XiXiXiXiXdXdXhXjXhXkXkXkXvXvXvXbXbXbXbXBXBXbXbXbXBXBXBXBXBXbXbXBXBXBXBXBXBXBXBXBXBXBXBXBXBXBXBXbXbXbXbXvXvXlXlXhXhXdXdXdXgXgXaXaXaXaXdXdXdXdXdXdXdXdXfXfXjXjXjXlXvXvXbXbXbXBXCXZXZXDXDXZXZXZXZXZXZXZXZXCXMXmXvXkXkXkXjXjXxXfXdXdXaXgXsXrXaXaXaXsXsXsXsXsXsXsXsXsXsXsXsXsXsXsXsXgXgXaXsXsX7X1XeXfXhXjXhXkXkXvXvXvXbXbXBXBXBXCXCXCXCXCXCXCXZXZXZXZXZXCXCXZXZXCXCXZXZXCXCXCXCXCXCXCXCXCXCXCXCXCXCXZXZXZXZXCXCXZXZXZXZXZXZXZXZXZXZXDXDXDXDXDXDXDXDXFXFXFXFXFXFXFXFXFXFXFXFXFXDXDXDXFXFXDXDXDXDXDXDXDXDXDXDXZXZXZXZXZXZXZXZXZXZXZXZXZXZXZXZXZXZXAXAXZXZXCXCXCXZXCXCXCXCXCXCXCXCXCXCXCXCXCXCXCXCXCXCXCXCXCXCXCXCXCXCXMXMXmXmXmXvXkXkXkXkXkXkXkXkXkXkXjXjXjXjXjXjXjXjXjXjXjXjXkXkXkXkXkXvXvXvXvXvXvXvXvXvXvXvXvXvXvXvXvXkXkXkXkXjXjXjXjXjXjXfXgXgXsXuXtXyXeXeXwX4X3X3X-X-X-X-X%X%XOXOX+X+X+X.X{.{.{.{.{.}.|.|.|._.`.`.`.`.`.`.`.W.E.E.K.H.H.M.B.M.B.M.V.V.n.n.n.n.j.j.j.d.d.d.a.a.a.a.a.a.a.a.a.a.a.a.p.p.p.p.a.a.a.a.d.d.d.d.k.j.j.j.n.n.n.N.m.m.m.m.B.B.B.B.B.M.M.N.n.n.n.n.j.j.j.d.d.d.d.a.p.e.p.p.a.a.e.e.e.e.e.e.e.e.e.e.e.e.e.e.e.e.r.r.r.r.q.q.q.q.8.8.8.8.8.7.8.8.8.8.6.8.6.8.6.6.w.w.7.7.7.7.7.7.7.7.7.7.7.7.7.8.q.q.q.q.q.q.e.e.e.e.q.q.q.8.8.w.6.6.6.6.6.=.=.=.=.=.=.=.*.*.*.*.*.%.%.O.O.O.&.o.o.o.o.o.o.o.{ { { } } } [ ] ] ] ] ] ",
"u p a d f k n m m l l l l k s a i u r r r a g g d u 7 6 6 6 6 6 9 6 7 7 7 7 7 7 9 9 9 7 u u u u u u u u u u i i u p s k C P G m m m m m m m m m V V S D D D D F F L P P I ~ ~ ~ ^ ^ ^ ^ / / / / / ] ] } [ [ [ [ +.o.O.@.@.#.=.9.0.t.p.i.a.d.d.d.d.d.d.d.d.d.l.d.j.j.N.M.G.K.E.W.`.`._.|.}.}.}.{.{.{.oXoXoXoXoXoX.X{.{.{.{.{.].'.].W.W.E.E.K.K.J.H.H.H.C.C.C.C.C.C.C.C.C.C.H.J.J.Q.Q.Q.W.~.[.[..X.XXX%X-X1X2X4X4X4X4XeXyX9XiXiXiXiXdXdXhXjXhXkXkXkXvXvXvXvXbXbXbXBXBXbXbXbXBXBXBXbXbXbXbXBXBXBXBXBXBXBXBXBXBXBXBXBXBXBXBXBXbXbXbXvXvXvXlXhXhXhXdXdXdXdXdXdXdXdXdXdXdXdXhXhXhXhXhXjXjXkXkXkXvXbXbXbXBXCXZXZXZXDXDXDXZXZXZXZXZXZXZXCXMXmXvXkXkXjXjXjXxXgXdXdXaXgXsXsXaXaXaXsXsXsXsXsXsXsXsXsXsXsXsXsXsXsXsXgXgXaXsXsX4X;XwXdXhXjXhXjXkXvXvXvXbXbXBXBXBXCXCXCXCXCXCXCXCXZXZXZXZXCXCXZXZXCXCXZXZXZXCXCXCXCXCXCXCXCXCXCXCXCXCXZXZXZXZXCXZXZXZXZXZXZXZXZXZXZXZXDXDXDXDXDXDXDXDXFXFXFXFXFXFXFXFXFXFXFXFXFXDXDXDXFXFXDXDXDXDXDXDXDXDXDXDXZXZXZXZXZXZXZXZXZXZXZXZXZXZXZXZXZXZXAXAXZXZXCXCXCXZXCXCXCXCXCXCXCXCXCXCXCXCXCXCXCXCXCXCXCXCXCXCXCXCXCXCXMXMXmXmXmXmXmXkXkXkXkXkXkXkXkXkXjXjXjXjXjXjXjXjXjXjXjXjXkXkXkXkXvXvXvXvXvXvXvXvXvXbXbXbXvXvXvXvXvXvXkXkXkXjXjXjXjXjXjXjXdXgXsXuXtXyXeXeXwXwXwX3X-X-X-X-X%X%XOXOX+X+X+X.X.X.X{.{.{.}.|.|.|._._.`.`.`.`.`.`.W.E.E.K.H.H.M.M.M.B.V.V.V.V.n.n.n.n.j.j.d.d.d.d.d.d.a.a.a.a.a.a.a.a.a.p.p.p.p.a.a.a.d.d.d.d.d.j.j.j.j.n.n.n.n.N.N.m.m.m.m.M.M.M.m.N.N.n.n.n.n.j.j.j.d.d.d.d.a.a.p.a.a.a.a.a.e.e.e.e.e.e.e.e.e.e.e.e.e.e.e.r.r.r.r.q.q.q.8.8.8.8.8.8.7.8.7.8.8.6.6.6.8.6.6.w.w.7.7.7.7.7.7.7.7.7.7.7.7.7.7.q.q.q.q.q.q.q.e.e.e.q.q.q.8.8.w.6.6.6.6.6.=.=.=.=.=.*.*.*.*.*.%.%.%.O.O.O.+.o.o.o.o.o.o.{ { { { } } } { ] ] ] ] ] ] ",
"u p a f f k n m l l k m k k f a i i r r r a g g g u 7 6 6 6 6 6 6 6 7 7 7 7 7 7 7 7 9 9 7 e u u u u u u u u u i p a s n C L S m m m m m m m m m M V S S D D F F F F P P P ~ ~ ~ ~ ~ ^ / / / / / / ] ] } [ } [ { +.+.@.@.@.#.9.0.q.p.i.f.f.d.d.d.d.d.d.d.d.d.n.n.j.n.M.M.G.K.E.`.T._._.].|.}.{.{.{.{.{.{.{.{.oX.X.X{.{.{.{.].].]._.W.W.E.E.J.K.J.H.H.H.G.S.C.C.C.C.C.C.C.C.H.K.K.R.Q.Q.W.].[.{..XXXXX%X-X1X6X2X4X4X4XeXrXrXaXaXaXgXdXdXhXhXhXkXkXkXvXvXvXvXbXbXbXbXbXbXbXbXbXbXbXbXbXbXbXBXBXBXBXCXCXCXCXBXBXBXBXBXBXBXBXBXBXbXbXbXvXvXlXlXhXhXhXhXhXdXdXdXdXhXhXdXhXhXhXhXhXjXjXjXjXkXkXnXvXbXbXCXBXCXZXZXZXDXDXDXDXZXZXZXZXZXCXCXMXmXvXkXkXjXjXjXfXgXdXgXgXgXsXsXsXsXaXsXsXtXtXtXtXtXsXsXsXsXsXsXsXsXsXsXgXgXfXsX4X;XwXgXhXjXhXjXkXkXvXvXbXbXBXBXCXCXCXCXCXCXCXZXZXCXCXZXZXZXZXZXZXZXZXZXZXCXCXZXZXZXZXBXBXZXZXCXCXCXCXZXZXZXZXZXZXZXZXZXZXZXZXZXZXZXDXDXDXDXDXHXDXDXFXFXFXFXFXFXFXFXFXFXFXFXFXFXFXFXFXDXDXHXHXDXDXDXDXDXDXDXDXZXZXZXZXZXZXZXZXAXAXZXZXZXZXZXZXZXZXZXCXCXCXCXCXCXCXCXCXCXCXCXCXCXCXCXCXCXCXCXCXCXCXCXCXCXCXCXCXCXCXCXCXMXbXmXmXmXvXmXvXkXkXkXkXkXkXkXkXkXkXjXjXjXjXkXkXkXjXkXkXkXkXkXkXvXvXvXvXvXvXbXbXmXmXbXbXbXbXbXvXvXvXvXvXkXkXkXjXjXjXjXjXfXgXsXsXtXeXeXeXwXwXwXwX3X-X-X-X&X%X%XOXOX+X+X.X.X.X{.{.|.|.|.|.|._._.`.`.`.`.`.`.W.E.E.K.H.C.M.M.M.M.M.M.M.n.n.n.n.j.j.j.j.j.j.d.d.d.a.a.a.a.a.a.p.p.p.p.a.a.a.a.a.a.a.d.d.d.d.d.d.j.j.n.n.n.n.N.N.V.V.V.m.V.m.V.V.V.N.n.n.n.j.n.n.n.d.d.d.a.a.i.i.p.a.p.p.e.e.e.e.e.e.e.e.e.e.e.e.e.e.e.e.r.r.r.r.q.q.q.q.q.q.q.q.q.8.8.8.7.7.7.7.7.7.w.w.7.7.6.7.7.7.7.7.7.7.7.7.8.8.8.8.8.8.8.8.q.q.q.q.q.q.8.8.8.8.8.6.6.6.6.6.=.=.=.=.*.*.*.*.*.*.*.%.%.%.%.O.O.o.o.o.o.o.{ { { { { { { [ ] ] ] ] ] ] ) ) ",
"u p a f f n n m l l l m z k f a a a a r r a g g g u 7 6 6 6 6 6 6 6 7 7 7 7 7 7 7 7 9 7 e e u u u u u u u u u i i a s n C F S m n m m m m m m m M V S D D D F F F F P P P ~ ~ ~ ~ ~ ^ / / / / / ` ] ] [ [ } { { o.+.@.@.*.=.9.0.p.a.i.f.d.d.d.d.d.d.d.d.x.x.n.n.j.n.N.M.G.K.E.`._._._._.|.}.{.{.{.{.{.{.{.{.oX.X.X{.{.}.{.}.]._.W._.W.E.E.E.J.J.H.H.H.G.S.C.C.C.C.C.C.C.C.H.K.K.E.Q.Q.~.].{..X.XXXXX%X-X2X6X4X4X4X7XyXrXrXaXaXaXgXdXdXhXhXhXkXkXvXvXvXvXvXvXbXbXbXbXbXbXbXbXbXbXbXbXbXbXBXBXBXBXCXCXCXCXBXBXBXBXBXBXBXBXBXBXbXbXbXbXvXvXkXhXhXhXhXhXhXhXhXhXhXhXhXhXhXhXhXhXjXjXjXjXkXvXvXvXbXbXBXBXZXZXZXDXDXDXDXDXZXZXZXZXZXCXCXMXmXvXkXkXjXjXjXfXgXdXgXgXsXsXsXsXsXsXsXsXtXtXtXsXtXtXsXsXsXsXsXsXsXsXsXgXgXsXsXeX;XwXsXjXjXxXjXkXkXvXvXbXbXBXCXCXCXCXCXCXCXCXZXZXCXCXZXZXZXZXZXZXZXZXZXZXCXCXZXZXZXZXBXBXZXZXCXCXCXCXZXZXZXZXZXZXZXZXZXZXZXZXZXZXZXDXDXDXDXDXHXHXDXDXFXFXFXFXFXFXGXFXFXFXFXFXFXFXFXFXDXDXDXHXDXDXDXDXDXDXDXDXZXZXZXZXZXZXZXZXAXAXZXAXZXZXZXZXZXZXZXZXCXCXCXCXCXCXCXCXCXCXCXCXCXCXCXCXCXCXCXCXCXCXCXCXCXCXCXCXCXCXCXCXMXbXmXmXmXvXvXvXkXkXkXkXkXkXkXkXkXkXjXjXjXjXkXkXjXjXkXkXkXkXkXvXvXvXvXvXvXbXbXbXmXMXbXbXbXbXbXbXbXvXvXvXvXvXkXkXkXjXjXjXfXfXsXsXtXtXeXeXeXwXwXwX3X-X-X-X-X%X%X%XOX+X+X.X.X.X.X{.|.|.|.|.|._._.`.`.`.`.`.`.W.E.E.K.F.C.M.M.M.M.M.M.M.n.n.n.n.j.j.j.j.j.j.d.d.d.d.a.a.a.a.a.p.p.p.p.a.a.a.a.a.a.d.d.d.d.d.d.d.j.j.j.j.n.n.N.N.N.N.N.N.m.N.N.N.N.N.n.n.n.j.n.n.n.d.d.d.a.a.i.i.a.a.p.p.e.e.e.e.e.e.e.e.e.e.e.e.e.e.e.e.r.r.r.r.q.q.q.q.q.q.8.8.q.8.8.8.7.7.8.8.7.7.w.w.7.7.6.6.7.7.7.7.6.6.7.7.8.8.8.8.8.8.8.8.q.q.q.q.q.q.q.8.8.8.8.6.6.6.6.6.=.=.=.=.*.*.*.*.*.*.%.%.%.O.O.O.o.o.o.{ { { { { [ [ ] ] ] ] ] ] ] ) ) / ) ) ",
"u p a f f n n m l l l m l z f s a a a a a a g g a e 6 6 6 6 6 6 6 6 7 7 7 7 7 7 7 7 9 7 e e u u u u u u u u u u p a s m D F V n n m m m m m m m V V S D D D F F F F P P P ~ ~ ~ ~ ~ ^ / / / / / ` ] ] [ [ { { { o.+.@.@.#.#.9.0.p.a.f.d.d.d.d.n.n.n.n.n.x.x.n.j.n.n.N.M.H.K.E.`._.`.`._.}.}.}.{.{.{.{.{.{.{.{.{.{.{.{.{.}.}.]._._._.W.E.E.E.J.J.J.J.J.G.S.C.C.C.C.C.C.C.C.H.K.K.Q.Q.Q._.}.{..X+XXX%X-X3X3X2X4X4X4X7XyXrXrXaXaXaXdXdXdXhXhXhXkXkXvXvXvXvXvXvXbXbXbXbXbXbXbXbXbXbXbXbXbXbXBXBXBXBXCXCXCXCXBXBXBXBXBXBXBXBXBXBXBXbXbXbXvXvXkXjXhXhXjXjXjXjXhXhXhXhXlXhXhXhXhXjXjXjXjXjXkXvXvXbXbXCXBXCXCXZXZXDXDXDXDXDXZXZXZXZXVXCXCXMXmXvXkXkXjXjXjXfXfXfXdXgXgXgXsXsXsXsXsXsXtXtXsXsXsXsXsXsXsXsXsXsXsXsXsXgXgXgXsXyX-XwXtXfXjXxXjXkXkXvXvXbXbXBXCXCXCXCXCXCXCXCXZXZXZXCXZXZXZXZXZXZXZXZXZXZXZXZXCXCXCXCXZXZXZXZXZXZXCXCXZXZXZXZXZXZXZXZXZXZXZXZXZXZXZXDXDXDXDXDXHXHXDXDXFXFXFXFXFXFXGXGXFXFXFXFXFXFXFXFXFXFXFXHXDXDXDXDXDXDXDXDXZXZXZXZXZXZXZXZXAXAXAXAXZXZXZXZXZXZXZXZXZXZXCXCXCXCXCXCXCXCXCXCXCXCXCXCXCXCXCXCXCXCXCXCXCXCXCXCXCXCXCXCXMXbXMXMXmXvXmXmXkXkXkXkXkXkXkXkXkXkXkXkXkXkXkXkXkXkXkXkXkXkXvXvXvXvXvXbXbXbXMXMXMXMXbXbXMXMXMXbXbXMXbXbXbXvXvXvXkXjXjXjXjXfXfXsXsXtXtXeXeXwXwXwX3X-X-X-X-X-X%X%XOX+X+X+X+X+X.X.X{.|.}.}.|.|._._.`.`.`.`.`.`.`.`.E.J.G.C.M.M.M.M.B.M.M.N.V.n.n.j.j.j.j.k.d.d.d.d.d.a.a.a.a.a.a.a.a.a.a.a.d.a.d.d.d.d.d.d.d.d.d.k.j.d.n.n.n.n.N.n.N.N.N.N.N.N.N.n.n.n.n.n.j.j.j.d.d.d.a.a.a.a.a.a.p.p.p.e.e.e.e.e.e.e.e.e.e.e.e.e.e.e.e.e.r.r.q.q.8.8.8.8.8.8.q.8.8.8.7.7.8.8.7.7.6.6.7.7.6.6.7.7.7.7.7.6.7.7.8.8.8.8.8.8.8.8.q.q.q.q.q.q.q.8.8.7.6.6.6.6.6.=.=.=.=.=.*.*.*.*.*.*.%.%.%.%.O.o.o.o.o.{ { { { { { [ ] ] ] ] ] ] ] ) ) / / / ",
"u p d f v n n m l l k k k k k s s a a a a a g g p e 7 6 6 6 6 6 6 6 6 7 7 7 7 7 7 7 9 7 u u u u u u u u u u u u p a s m D F V n n n m m m m m m V V S D D D F F F F P P P ~ ~ ~ ~ ~ ^ / / / / / ` ` ] } [ { { { o.+.@.@.-.9.9.0.p.i.d.d.d.d.n.n.n.n.n.n.n.n.n.j.n.N.M.M.C.K.K.E.`.`.`._._.}.}.}.}.}.{.{.{.{.{.}.{.{.}.{.}.}.]._._._.W.E.E.E.J.J.J.J.J.G.H.C.C.C.C.C.C.C.C.J.K.K.Q.Q.W._.}.oX+XOXOX%X-X3X3X4X4X4X4X7XyXrX9XaXaXaXdXdXdXhXhXhXkXkXvXvXvXvXvXvXvXbXbXbXbXbXbXbXbXbXbXbXbXbXBXBXBXBXCXCXCXBXBXBXBXBXBXBXBXBXBXBXBXBXbXbXbXvXkXhXhXhXjXjXjXjXhXlXlXhXjXjXjXjXkXkXkXkXkXkXvXvXvXbXbXCXBXCXCXZXZXDXDXDXDXDXZXZXZXZXVXCXCXMXmXvXkXkXjXjXfXfXfXfXdXdXgXgXsXsXsXsXsXsXtXtXsXsXsXsXsXsXsXsXsXsXsXsXsXgXgXgXgXyXwX2XeXdXdXxXjXkXvXvXvXbXbXBXCXCXCXCXCXCXCXCXZXZXZXZXZXZXZXZXZXZXZXZXZXZXZXZXZXZXZXZXZXZXZXZXZXZXZXZXZXZXZXZXZXZXZXZXZXZXZXZXZXDXDXDXDXDXDXDXHXDXDXDXFXFXFXFXFXFXGXGXFXFXFXFXFXFXFXFXFXFXFXHXDXDXDXDXDXDXDXDXZXZXZXZXZXZXZXZXAXAXAXAXZXZXZXZXZXZXZXZXZXZXCXCXCXCXCXCXCXCXCXCXCXCXCXCXCXCXCXCXCXCXCXCXCXCXCXCXCXCXCXCXMXbXMXMXmXvXmXvXvXkXkXkXkXkXkXkXkXkXkXkXkXkXkXkXkXkXkXkXkXvXvXvXvXvXbXbXmXMXMXMXCXCXbXbXCXCXCXCXBXBXBXbXbXbXvXvXvXkXkXjXjXjXfXgXsXtXtXtXeXwXwXwXwX-X-X-X-X-X%X%XOX+X+X.X+X+X.X.X{.|.}.}.|.|.]._.`.`.`.`.`.`.`.`.E.J.G.C.M.M.M.M.M.M.M.N.V.n.n.n.j.j.j.j.k.k.d.d.d.d.d.a.a.a.a.a.a.a.a.a.d.d.d.d.d.d.d.d.d.d.d.k.d.d.d.d.n.n.n.n.N.n.n.N.n.n.n.n.n.n.n.n.j.j.j.d.d.d.a.a.a.a.a.a.p.p.p.e.e.e.e.e.e.e.e.e.e.e.e.e.e.e.e.e.r.r.q.q.8.8.8.8.8.8.q.8.8.8.7.7.8.8.7.7.6.6.7.7.6.7.7.7.7.7.7.7.7.7.8.8.8.8.8.8.8.8.q.q.q.q.8.8.8.8.8.7.6.6.6.6.6.=.=.=.*.*.*.*.*.*.*.%.%.%.O.o.o.o.o.o.{ { { { [ { { [ ] ] ] ] ] ] ] ) / / / / ",
"i a d f v n n k l k k z z k k k s s s a s s f g u e 7 6 6 6 6 6 6 6 6 7 7 7 7 7 7 7 9 7 u u u u u u u u u u u i p i s m D L V n n n m m m m m m M V S S S D D F F F P P P ~ ~ ~ ~ ~ ^ / / / / / / ` ] [ [ { { { o.+.@.@.=.9.7.q.i.i.d.d.d.d.n.n.n.n.n.n.n.n.n.N.N.N.M.M.C.F.K.E.W.`.`._.].]._.}.}.].].}.].|.[.[.{.[.].].}.].]._.W.W.W.W.E.E.E.J.J.J.G.G.C.G.G.G.G.G.C.C.C.J.K.E.Q.Q.~.}.}..X+XOXOX%X-X3X3X5X5X4X7X7XyXyXrXaXaXdXdXdXdXhXhXhXkXkXvXvXvXvXvXvXvXbXbXbXbXbXbXbXbXbXMXMXbXbXMXbXBXBXBXBXBXBXCXCXBXBXBXBXBXBXBXBXBXBXbXbXbXvXvXkXjXjXhXhXhXhXhXkXkXhXkXkXhXkXkXkXkXkXkXkXvXvXvXbXMXCXBXBXZXZXZXDXDXDXDXDXZXZXZXZXZXCXCXMXMXvXkXkXjXjXjXfXfXfXsXdXdXdXdXsXsXsXsXsXtXtXtXtXtXtXsXsXsXsXsXsXsXsXsXaXgXaXaXrXwXwXeXsXdXjXjXkXvXvXvXbXbXBXCXCXCXCXCXCXCXCXZXZXZXZXZXZXZXZXZXZXZXZXZXZXZXZXZXZXZXZXZXZXZXZXZXZXZXZXZXZXZXZXZXZXZXZXDXDXDXDXDXDXDXDXFXFXFXDXFXFXFXFXFXFXGXGXFXFXGXGXGXGXGXGXFXFXFXFXFXFXFXHXDXDXDXDXDXDXDXDXDXDXZXZXZXZXZXZXAXAXAXCXCXCXZXZXZXAXZXAXZXZXZXCXCXCXCXCXCXCXCXCXCXCXCXCXCXCXCXCXCXCXCXCXCXCXCXCXCXCXCXCXMXbXMXMXmXmXmXmXvXkXkXkXvXvXvXkXkXkXkXkXkXkXkXkXkXvXvXvXvXvXvXvXmXbXmXMXMXMXMXCXCXCXCXCXCXCXCXCXBXBXBXBXBXbXbXbXvXvXkXkXjXjXjXfXdXsXtXyXeXwXwXwX3X3X-X-X-X-X-X&XOX+X+X.X+X.X.X.X.X{.}.}.}.|.]._._._._.`.`.`.`.`.E.K.H.C.C.M.M.M.M.M.B.M.M.M.N.n.n.n.n.n.j.j.j.j.d.d.d.d.d.a.d.a.a.a.a.a.d.d.d.d.d.d.d.d.d.d.d.d.d.d.d.d.d.x.n.n.n.n.n.n.n.n.n.n.n.n.j.j.d.d.d.d.d.a.a.a.a.a.a.a.p.p.e.e.e.e.e.e.e.e.e.e.e.e.e.e.e.e.e.e.e.e.q.q.8.q.q.q.q.q.q.8.8.7.7.7.8.8.8.8.8.8.8.8.8.8.8.8.8.8.8.8.8.8.8.8.8.8.8.8.8.8.q.q.8.8.8.8.8.8.8.6.6.6.6.=.=.=.=.=.*.*.*.*.*.*.%.%.O.O.%.o.o.o.o.{ { { [ [ [ { } ] ] ] ] ] ) ) ) ) ) / / / ",
"i a d f k n n k k k k k k k k k j j f s s f z g i e 7 7 6 6 6 6 6 6 6 7 7 7 7 7 7 7 9 7 u u u u u u u u u u u u p i s m D L V n n n m m m m m m M V S S S D D F F F P P P ~ ~ ~ ~ ~ ^ / / / / / / ` ] ] [ [ { { o.+.@.@.=.9.7.q.i.i.d.d.d.j.n.n.n.n.n.n.n.n.N.N.N.M.M.M.C.G.F.K.E.W.`.`._._.].].].].].].].].].].].].].].].].]._._.Q.`.W.E.E.K.J.K.J.G.G.C.C.G.G.G.G.C.C.C.J.J.Q.Q.Q._.].}..X+XOXOX%X*X3X3X5X5X7X7X7XyXtXaXaXaXdXdXdXdXhXhXhXkXkXvXvXvXvXvXvXvXvXbXbXbXbXbXbXbXbXMXMXbXbXbXbXBXBXBXBXBXBXCXCXBXBXBXBXBXBXBXBXBXBXbXbXbXvXvXkXkXkXkXkXkXkXkXkXkXkXkXkXkXkXkXkXkXkXkXvXvXvXvXbXMXCXBXVXZXZXZXZXDXDXDXDXZXZXZXZXCXCXCXMXMXvXkXkXjXjXfXfXfXfXfXsXsXdXdXsXsXsXsXsXtXtXtXtXtXtXsXsXsXsXsXsXsXsXsXaXaXgXdXsXyXwXeXyXdXjXkXlXvXvXvXbXbXBXCXCXCXCXCXCXCXCXZXZXZXZXZXZXZXZXZXZXZXZXZXZXZXZXZXZXZXZXZXZXZXZXZXZXZXZXZXZXZXZXZXZXZXZXDXDXDXDXDXDXDXDXFXFXFXFXFXFXFXFXFXFXGXGXFXFXGXGXGXGXGXGXFXFXFXFXFXFXFXDXDXDXDXDXDXDXDXDXDXDXZXZXZXZXZXZXAXAXAXCXCXCXCXZXZXAXAXAXZXZXCXCXCXCXCXCXCXCXCXCXCXCXCXCXCXCXCXCXCXCXCXCXCXCXCXCXCXCXCXCXMXbXbXmXMXmXmXmXvXkXkXkXvXvXvXvXkXkXkXkXkXkXkXkXvXvXvXvXvXvXvXvXbXbXMXbXMXCXCXCXCXCXCXCXCXZXZXZXZXZXVXBXBXBXbXbXbXvXvXkXkXjXjXhXdXgXsXtXeXeXwXwX3X3X3X-X-X-X-X&XOX+X+X.X+X+X.X.X{.{.{.}.}.|.]._._._._.`._.`.`.`.E.E.K.G.S.C.C.C.M.M.M.B.B.M.M.N.n.n.n.n.n.n.n.j.k.d.d.d.d.a.a.a.a.a.a.a.d.d.d.d.d.d.d.d.d.d.d.d.d.d.d.d.d.d.j.n.n.n.n.n.n.n.n.n.n.n.j.j.d.d.d.d.d.a.a.a.a.a.a.a.p.p.p.e.e.e.e.e.e.e.e.e.e.e.e.e.e.e.e.e.e.e.q.q.8.8.q.q.q.q.q.8.8.7.7.7.8.8.8.8.8.8.8.8.8.8.8.8.8.8.8.8.8.8.8.8.8.8.8.8.8.8.8.8.8.8.8.8.w.w.w.6.6.6.6.=.=.=.=.*.*.*.*.*.*.%.%.O.O.o.o.o.o.{ { { [ [ ] ] ] ] ] ] ] ] ] ) ) / / / / ^ ^ ^ ",
"p a f f n n m n z k k k k k k k z k k j z j z g i e 7 7 6 6 6 6 6 6 6 7 7 7 7 7 7 9 9 u u u u u u u u u u u u u p i s M G L V n n n n n m m m m M V S S S D D F F P P P P ~ ~ ~ ~ ~ ^ / / / / / ` ] ] [ [ { { o.o.O.@.=.9.9.q.r.i.d.d.n.n.n.M.V.M.n.n.n.M.M.M.M.M.B.M.M.C.G.F.K.E.W.`.`._._.].].].].].].].].].].].].].]._.]._._._.`.`.W.E.E.E.E.E.J.G.G.Z.Z.Z.Z.G.G.G.G.C.F.J.Q.Q.~.].[.oX.XXXXX%X%X=X3X5X5X5X7X7X7XyXtXaXaXaXaXdXdXdXhXhXhXkXkXkXkXvXvXvXvXvXvXbXvXvXbXbXbXbXbXbXbXbXbXbXbXBXBXCXBXCXCXCXCXCXCXCXCXCXBXBXBXBXBXbXbXbXbXvXvXvXvXvXvXvXvXvXvXvXvXvXvXvXvXvXvXvXvXvXvXvXvXMXbXMXCXCXBXZXZXZXZXZXZXDXZXZXZXZXZXZXCXCXMXMXvXkXjXjXfXfXfXfXsXsXfXdXdXdXsXsXsXsXsXtXtXtXtXtXtXaXaXsXsXsXsXsXsXsXgXaXdXfXgXtXeXeXtXgXjXjXkXkXvXvXbXbXBXCXCXCXZXCXZXCXCXZXZXZXZXZXZXZXZXZXZXZXZXZXZXZXZXZXZXZXZXZXZXZXZXZXZXZXZXZXZXZXZXZXZXZXZXDXDXDXDXDXDXDXDXHXDXDXDXFXFXFXFXFXFXGXGXFXFXFXGXFXFXFXFXGXGXFXFXFXFXFXDXHXDXDXDXDXDXDXDXDXDXDXZXZXZXZXZXAXAXCXCXCXCXCXCXCXCXCXCXCXCXCXCXCXCXMXMXMXMXMXMXMXMXMXMXMXMXMXMXMXMXCXCXCXCXCXCXCXCXCXCXMXbXbXbXMXvXmXmXvXvXvXvXvXvXvXvXkXkXkXkXkXkXkXkXvXvXvXvXvXvXvXmXmXMXbXMXCXCXCXCXCXZXZXZXZXZXZXZXZXZXZXVXCXCXCXBXbXbXvXvXkXkXjXjXdXdXgXtXyXeXwXwX3X3X3X-X-X-X-X&X&X+X+X+X+X+X+X.X{.{.{.{.|.|.|.|._._._._._._._.`.`.E.K.H.H.G.G.S.S.S.B.B.B.M.M.B.V.n.n.n.n.n.n.n.l.j.j.d.d.d.d.d.d.d.d.d.d.d.d.d.d.d.d.d.d.d.d.d.d.d.d.d.d.d.n.n.n.n.n.n.n.n.n.n.n.n.j.j.d.d.d.d.d.a.a.a.p.p.p.p.p.p.e.e.e.e.e.e.e.e.e.e.e.e.e.e.e.e.e.e.e.e.q.q.q.q.q.q.q.q.q.8.8.7.7.7.8.8.8.8.8.8.8.8.8.8.8.8.8.8.8.8.8.8.8.8.8.8.8.8.8.8.8.8.8.8.8.8.w.w.w.6.6.6.6.=.=.=.=.*.*.*.*.*.%.%.%.O.%.o.o.{ { { { [ ] ] ] ] ] ] ] ] ] ) ) ) / / / ^ ^ ^ ^ ^ ",
"a d f f n m m m n k k f j k k k k k k z z z z g i e 7 7 6 6 6 6 6 6 6 7 7 7 7 7 9 9 9 u u u u u u u u u u u u i p i s B D D M n k n n n n n m m M V S S S D D F F P P P P ~ ~ ~ ~ ~ ^ / / / / ] ] ] [ [ { { o.o.+.*.*.-.9.6.q.r.a.d.j.n.n.n.V.M.M.M.M.M.M.M.M.M.B.B.M.M.C.G.F.K.E.E.Q.`.`.`._._._._._._.].].].].].].].]._.]._._.`.`.`.W.E.E.E.E.J.J.G.G.Z.Z.Z.Z.G.G.G.G.G.F.J.Q.Q.W.].[.oX.XXXOX%X%X=X3X5X5X8X7X7X7XyXtXaXaXaXaXdXdXdXhXhXhXkXkXkXkXvXvXvXvXvXvXvXvXvXvXbXbXbXbXbXbXMXbXbXbXbXBXCXCXCXCXCXCXCXCXCXCXCXBXBXBXBXBXbXbXbXbXvXvXvXvXvXvXvXvXvXvXvXvXvXvXvXvXvXvXvXvXvXvXvXvXbXbXMXCXCXBXZXZXZXZXZXZXZXZXZXZXZXZXZXCXCXMXMXmXkXjXjXgXfXfXfXsXsXsXfXdXdXsXsXsXsXsXtXtXtXtXtXtXsXsXsXsXsXsXsXsXsXgXaXdXjXjXsXsXtXtXgXfXjXkXkXvXvXbXbXBXCXCXCXZXZXZXCXZXZXZXZXZXZXZXZXZXZXZXZXZXZXZXZXZXZXZXZXZXZXZXZXZXZXZXZXZXZXZXZXZXZXZXZXDXDXDXDXDXDXDXDXDXHXDXDXFXFXFXFXFXGXGXGXGXFXFXFXFXFXFXFXFXFXGXGXFXFXFXFXFXFXDXDXDXDXDXDXDXDXDXDXZXZXZXZXZXAXAXCXZXCXCXCXCXCXCXCXCXCXCXCXCXCXMXMXMXMXMXMXMXMXMXMXMXMXMXMXMXMXMXCXCXCXCXCXCXCXCXCXCXMXbXbXbXMXvXmXmXvXvXvXvXvXvXvXvXkXkXkXkXkXkXkXvXvXvXvXvXvXvXmXmXMXbXMXCXCXCXCXCXZXZXZXZXZXZXZXZXZXZXZXZXCXCXBXBXbXbXbXvXvXkXjXjXhXdXgXtXyXeXeXwX3X3X3X-X-X-X&X&X&X+X+X+X+X+X+X.X{.{.{.{.|.|.}.|._._._._._._._.`.`.`.K.K.H.H.H.H.H.H.H.B.L.B.B.B.B.V.V.V.V.V.V.n.n.l.j.k.d.d.d.d.d.d.d.d.d.d.d.d.d.d.d.d.d.d.d.d.d.d.d.d.d.d.n.n.n.n.n.n.n.n.n.n.n.d.d.d.d.d.d.d.a.a.a.a.p.p.p.p.p.p.e.e.e.e.e.e.e.e.e.e.e.e.e.e.e.e.e.e.e.e.q.q.q.q.q.q.q.8.8.7.7.7.7.7.8.8.7.7.7.7.7.7.w.w.w.w.w.w.8.8.8.8.8.8.8.8.8.8.8.8.8.8.8.w.w.w.6.w.w.6.6.6.=.=.=.=.*.*.*.*.*.%.O.O.O.O.o.o.o.{ { { { [ ] ] ] ] ] ] ] ) ) / ) / / ^ ^ ^ ^ ^ ^ ^ ",
"d f n n n N N m n k f s s s s s j k z j j s g g i e 7 7 7 7 7 6 6 6 7 7 7 7 7 9 u u u u u u u u u u u u u i i i i a k Z D D M n k n n n n n n n M M S S S D D F F P P P ~ ~ ~ ~ ~ ~ ~ / / / / ] ] ] [ [ { { { o.O.*.;.;.9.6.q.r.p.d.j.n.V.V.B.B.M.M.L.L.M.M.M.M.B.B.M.M.C.F.F.K.E.E.E.W.W.W.W.`.`.`.`.`._._._.].].].].].].].]._.`.`.`.W.W.E.E.E.E.F.J.G.G.G.G.G.G.G.G.G.G.F.K.E.Q._.].[..X.XXXXX%X*X1X5X5X5X8X7X7X9XtXtXsXsXaXdXdXdXdXjXjXhXjXjXkXkXkXvXvXvXvXvXvXvXvXvXbXbXbXbXbXbXbXbXbXbXbXbXCXCXBXBXBXBXBXBXBXBXBXBXBXCXCXCXMXMXMXMXvXvXvXvXvXvXvXvXvXvXvXvXvXvXvXvXvXvXvXvXvXvXvXbXbXbXBXCXCXZXZXZXZXZXZXZXZXZXZXZXZXZXZXCXCXCXMXmXkXjXfXgXgXsXsXsXsXfXfXsXdXsXsXsXsXsXaXsXsXsXsXsXsXsXsXsXsXsXsXsXsXgXaXgXjXjXjXdXgXgXgXfXjXkXvXvXvXbXBXBXCXCXZXZXAXAXZXZXZXZXZXZXDXZXZXZXDXDXDXDXDXDXDXDXDXDXDXZXZXZXZXZXDXDXZXZXZXZXDXDXDXDXDXDXDXDXDXDXDXDXDXDXFXFXFXFXFXFXFXFXGXGXGXGXFXFXFXFXGXGXGXGXFXFXFXGXFXFXFXFXDXDXDXDXDXDXDXDXZXZXZXZXZXZXZXZXZXZXZXCXCXCXCXCXCXCXCXMXMXCXCXMXMXMXMXMXMXMXMXmXvXvXMXMXMXMXMXMXMXMXMXMXCXCXCXCXCXCXCXCXMXbXbXbXMXvXvXvXvXvXvXvXvXvXvXmXvXvXmXvXvXvXmXvXvXvXbXbXmXmXmXmXMXCXCXCXCXCXCXCXZXZXZXZXZXZXZXZXZXZXZXZXZXCXBXBXBXbXbXbXvXvXkXjXjXdXdXgXtXyXeXwXwX3X3X-X-X-X-X&X&X+X+X+X+X+X+X.X{.{.{.{.{.{.}.}._._._._._._._.`.`.`.E.K.H.H.H.H.H.H.H.S.L.B.L.M.V.V.V.V.V.V.V.n.j.j.j.j.j.j.k.d.d.d.d.d.d.d.d.d.d.d.d.d.d.d.d.d.d.d.d.d.d.d.j.j.n.n.n.n.n.n.n.n.d.d.d.d.d.d.a.a.a.a.a.a.p.e.e.e.e.e.e.r.r.r.r.r.r.r.r.r.r.e.e.e.e.e.e.e.e.e.e.e.q.q.q.q.8.8.8.8.7.7.7.7.6.7.7.7.6.6.6.8.8.8.8.8.6.6.6.8.w.w.w.w.8.8.8.8.8.8.8.8.8.6.6.6.6.w.6.6.6.;.=.=.=.=.*.*.*.%.O.O.O.O.O.o.o.o.{ { { [ [ ] ] ] ] ] ] ) ) ) ) / / / ^ ^ ^ ^ ^ ^ ^ ^ ",
"f n n N N N N m N k f s s s s s s s j s s s g a i e 7 7 7 7 7 7 7 7 7 7 7 7 9 9 u u u u u u u u u u u u u i i i i a k Z G G m k f n n n n n n n M M S S S D D F F P P P ~ ~ ~ ~ ~ ( ~ / / / / ] ] ] [ [ { { o.o.O.*.;.;.9.6.q.r.p.d.d.n.N.N.M.B.M.L.L.M.M.M.M.M.B.B.M.C.G.F.J.K.E.E.E.E.W.W.`.`.W.W.`.`.`.`._._.].].].].].].]._._.`.`.W.W.E.E.E.K.F.J.G.G.G.G.G.G.G.G.F.F.K.E.Q.Q._.].[..X.XXX#X%X*X3X6X5X8X8X8X7X9XtXsXsXaXdXdXdXdXhXjXjXjXjXjXkXkXkXvXvXvXvXvXvXvXvXvXbXbXbXbXbXbXbXMXbXbXbXbXCXCXBXBXBXBXBXBXBXBXBXMXCXCXCXMXMXMXMXbXvXvXvXvXvXvXbXvXvXvXbXbXvXvXvXvXvXvXvXvXvXbXbXbXbXbXCXCXBXZXZXZXZXZXZXZXZXZXZXZXZXZXZXZXCXCXMXmXkXjXfXgXsXtXsXsXsXsXdXdXsXsXsXsXsXsXaXaXsXsXsXsXsXsXsXsXsXsXsXsXsXgXgXgXjXzXzXjXdXgXfXfXjXkXvXvXvXbXbXBXCXCXZXZXAXAXZXZXZXZXZXZXZXZXZXZXDXDXDXDXDXDXDXDXDXDXDXDXZXZXZXZXDXDXZXZXZXZXDXDXDXDXDXDXDXDXDXDXDXDXDXDXFXFXFXFXFXFXFXFXGXGXGXGXFXFXFXFXGXGXGXGXFXFXFXFXFXFXFXFXHXDXDXDXDXDXDXDXZXZXZXZXZXZXZXZXZXZXZXCXCXCXCXCXCXCXMXMXMXMXMXMXMXMXMXMXmXmXmXmXvXvXMXMXMXMXMXMXMXMXMXMXCXCXCXCXCXCXCXCXMXbXbXbXMXvXvXvXvXvXvXvXvXvXvXvXvXvXmXmXvXvXvXvXvXvXbXbXmXmXmXMXCXCXCXCXCXCXCXCXZXZXZXZXZXZXZXZXZXZXZXZXZXCXBXBXBXBXbXbXvXvXkXjXjXgXdXgXtXyXeXwXwX3X3X-X-X-X-X&X&X+X+X+X+X+X.X.X{.{.{.{.{.{.}.}._._.]._._._._._.`.Q.E.K.J.H.H.H.H.H.H.S.L.B.L.M.N.V.V.V.V.V.V.M.j.j.j.j.j.j.k.d.d.d.d.d.d.d.d.d.d.d.d.d.d.d.d.d.d.d.d.d.d.d.j.j.d.d.n.n.n.n.n.d.d.d.d.d.d.d.a.a.a.a.a.a.p.e.p.e.e.e.e.r.r.r.r.r.r.r.r.r.r.r.q.q.e.e.e.e.e.e.e.e.q.q.q.q.8.8.8.7.7.7.7.7.6.6.6.6.6.6.6.6.6.6.6.6.6.6.6.6.6.w.w.w.8.8.8.8.8.8.8.w.8.6.6.6.6.6.6.6.;.=.=.=.=.*.*.*.*.O.O.O.O.o.O.o.o.{ [ [ [ [ ] ] ] ] ] ] ) ) ) / / / / ^ ^ ^ ^ ^ ^ ~ ~ ~ ",
"n n N N N N N N N n f a a s s s s s s s a a a a p e 7 7 7 7 7 7 9 9 9 9 9 9 9 9 u u u u u u u u u u u u i i p p d f m Z G Z M n f n n n n n n n M M S S S D D F F F F P P ~ ~ ~ ~ ( ^ / / / / ] ] ] [ { { o.o.o.O.*.;.=.6.6.q.r.p.d.j.n.N.M.B.B.M.M.M.M.M.M.M.M.B.B.M.C.G.F.J.K.E.K.E.E.W.W.W.W.`.`.`.`.`.`.`._._._._._._._._._._._.`.W.W.E.E.K.J.F.J.J.F.G.G.G.F.F.F.F.K.E.W.W.Q._.].[..X.XOX%X%X*X1X6X5X8X0X0X9X9XtXsXsXaXdXdXdXdXhXjXjXjXjXjXkXkXvXvXvXvXvXvXvXvXvXvXbXbXvXvXbXbXbXbXMXMXbXbXCXCXCXCXbXMXMXCXCXCXCXMXMXMXMXMXMXMXMXbXMXvXvXvXbXbXbXbXvXvXvXvXbXbXvXvXbXbXvXvXbXbXbXMXbXBXCXCXZXZXZXZXZXZXZXZXZXZXZXZXCXZXZXZXCXCXMXmXzXjXdXaXrX7XyXyXrXrXtXtXtXtXtXtXsXsXsXsXsXsXaXaXaXaXaXaXsXsXsXsXgXgXgXxXjXmXmXkXjXfXfXfXjXkXvXvXvXbXCXCXCXCXZXZXZXZXZXZXZXZXZXZXDXDXDXDXDXDXDXDXDXDXDXDXDXDXDXDXDXDXZXDXDXDXDXDXZXDXDXDXDXDXDXDXDXDXDXDXDXDXDXDXFXFXFXFXFXFXFXFXGXGXGXGXFXFXFXFXGXGXGXGXFXFXFXFXFXFXFXFXFXDXDXDXDXDXZXZXDXDXDXZXZXZXZXZXZXZXZXCXCXCXCXCXMXMXMXMXMXMXMXmXMXMXmXmXmXmXmXmXmXmXmXmXmXmXmXMXMXMXMXMXCXCXCXCXCXCXCXCXMXMXbXbXMXvXvXvXvXvXvXvXvXvXvXvXvXvXvXvXvXvXmXmXvXvXbXbXmXbXMXMXMXCXCXCXCXCXCXCXAXAXAXAXZXZXZXZXZXZXZXZXZXZXCXBXCXBXbXbXvXvXkXjXjXdXdXgXtXyXeXwXwXwX3X-X-X-X-X&XOX+X+X+X+X+X.X.X{.{.{.{.{.{.}.}.}._.|._.].]._._.`.`.E.K.J.H.J.H.H.H.H.H.H.L.L.C.B.M.N.V.V.V.M.N.n.n.j.j.j.j.j.j.j.k.d.d.d.d.d.d.d.d.d.d.d.d.d.d.d.d.d.d.d.k.j.j.j.j.j.j.j.j.j.d.d.d.d.d.d.d.a.a.a.a.a.a.a.e.p.p.p.e.e.e.e.e.r.r.r.r.r.r.r.r.q.q.e.e.e.e.q.q.q.q.q.q.q.q.8.8.8.8.8.6.6.6.6.6.6.6.6.6.6.6.6.6.6.6.6.6.6.6.6.6.w.w.w.w.w.w.8.8.w.w.w.w.w.w.6.6.6.6.;.=.=.=.=.*.*.*.%.%.O.O.O.o.o.o.{ { { [ [ [ ] ] ] ] ] ] ) ) ) ) / / / ^ ^ ^ ^ ^ I I I I ",
"n n N N N N N N n k f a a a a s a a a a a a i i u e e 7 7 7 7 9 9 9 9 9 9 9 9 u u u u u u u u u u u i i i i p p d f N Z G Z M n k n n n n n n n m M M S S D D F F F F P P ~ ~ ~ ~ ( ~ / / / / ] ] ] [ { { o.o.o.O.*.*.=.6.6.q.r.p.d.j.n.N.M.B.B.M.M.M.M.M.M.M.M.B.B.M.C.G.F.J.K.K.K.E.E.E.W.W.W.W.`.`.`.`.`.`.`._._._._._._._._._._.`.W.W.E.E.K.J.F.J.J.G.G.G.G.F.F.K.K.E.E.W.`.`._.].[..X.XXX%X%X*X1X5X5X8X0X0X9X9XtXsXsXaXdXdXdXdXhXjXjXjXjXjXkXkXvXkXvXvXvXvXvXvXvXvXbXbXvXvXbXbXbXbXbXbXMXbXCXCXCXCXbXbXMXCXCXCXMXMXMXMXmXmXMXMXMXMXbXbXbXbXbXbXbXbXvXvXvXvXbXbXbXbXbXbXbXbXbXbXbXbXBXBXCXCXZXZXZXZXZXZXZXZXZXZXZXZXCXCXZXZXCXCXMXmXkXjXgXrX7X7X7X7X7X7XyXrXyXtXtXtXsXsXsXsXaXsXaXaXaXaXaXaXsXsXsXgXgXgXgXfXzXmXmXzXjXfXfXfXjXkXvXvXvXbXCXCXCXZXZXZXZXZXZXZXZXZXZXDXDXDXDXDXDXDXDXDXDXDXDXDXDXDXDXDXDXDXDXDXDXDXDXDXZXZXDXDXZXZXDXDXDXDXDXDXDXDXDXDXFXFXFXFXFXFXFXFXGXGXGXGXFXFXFXFXGXGXGXGXFXFXFXFXFXFXFXFXFXDXDXDXDXZXZXZXHXHXDXZXZXZXZXZXZXZXCXCXCXCXCXCXMXMXMXMXMXMXmXmXmXmXmXmXmXmXmXmXmXmXmXmXmXmXmXmXMXMXMXMXCXCXCXCXCXCXCXCXMXMXbXbXMXvXvXvXvXvXvXvXvXvXvXvXvXvXvXvXvXvXmXvXvXbXbXbXbXbXMXCXCXCXCXCXCXCXCXZXAXAXAXAXZXZXZXZXZXZXZXZXZXZXCXCXCXbXbXbXvXvXkXjXjXgXdXgXtXyXeXeXwXwX3X-X-X-X-X&XOX+X+X+X+X+X.X+X{.{.{.{.{.{.}.}.}.|.|.|.].]._._.`.`.E.K.J.J.J.H.H.H.H.H.H.L.L.L.B.M.N.N.V.V.M.M.n.n.j.j.j.j.j.j.j.k.d.d.d.d.d.d.d.d.d.d.d.d.d.d.d.d.d.d.d.k.j.j.j.j.j.j.j.j.j.d.d.d.d.d.d.d.a.a.a.a.a.p.a.e.e.e.p.e.e.e.e.e.r.r.r.q.q.q.q.q.q.q.q.q.q.q.q.q.q.q.q.q.8.8.8.7.7.7.6.6.6.6.6.6.6.6.6.6.6.6.6.6.6.6.6.6.6.6.6.6.6.6.w.w.w.w.w.w.w.w.w.w.w.w.6.6.6.=.=.=.=.*.*.*.*.%.%.O.O.o.o.o.o.o.{ [ { [ [ ] ] ] ] ) ) ) ) ) ) / ^ ^ ^ ^ ^ ~ ~ I I P P P ",
"f n n N N n N N n f f a a a a a a a a y r r i i u u u u u u u u 9 9 u u u u u u u u u u u u i u i i p p p p p p d f N Z Z B m n n n n n n n n n m M V S S D F F F P P P P ~ ~ ~ ~ ~ ~ ^ / / / ] ] ] [ [ { o.o.o.O.*.*.=.6.6.0.r.p.d.n.n.N.M.M.L.C.C.M.M.C.C.S.B.S.S.S.C.G.J.J.K.K.K.K.E.E.E.E.E.E.E.E.E.W.W.`.`.`.`._._._._._._._._._.W.W.W.W.E.R.R.J.F.J.G.G.G.F.F.E.E.W.T.W.`._.].[.[..XXX#X#X%X-X3X6X8X8X0X9X9XyXsXsXaXaXdXfXdXfXhXhXjXjXjXjXkXkXkXkXvXvXvXvXvXvXvXvXbXbXvXvXvXvXbXbXbXbXbXbXbXbXbXbXbXbXbXbXbXbXbXbXbXbXbXbXbXbXbXbXMXMXbXbXbXbXbXbXbXbXbXbXbXbXbXbXbXbXbXbXbXbXBXBXBXBXCXCXZXZXZXZXZXZXZXZXZXZXZXZXCXCXCXZXCXCXMXmXkXfXgXrX7X4X4X4X4X7X7X7XyXtXtXsXsXsXsXsXaXaXsXsXsXsXsXsXsXsXaXaXaXgXgXjXzXmXmXzXjXfXfXfXjXjXvXvXvXbXCXCXCXZXZXZXZXZXZXZXZXDXHXDXHXDXDXFXHXDXDXDXDXHXDXDXDXDXDXDXDXDXDXDXDXDXDXDXDXDXDXDXDXDXDXDXDXDXDXFXFXFXFXFXFXFXFXFXGXGXGXGXGXGXGXGXFXFXFXFXGXGXGXGXFXFXFXFXGXFXFXFXDXDXDXDXDXDXDXDXDXDXDXDXZXZXZXZXZXZXCXCXCXCXCXCXMXMXbXMXbXbXbXvXvXvXvXvXmXmXmXmXvXvXvXvXmXmXmXMXMXbXbXbXBXBXCXCXMXMXMXMXMXbXbXbXmXvXvXvXmXmXmXmXmXmXmXvXvXbXbXMXMXMXMXbXbXbXbXMXMXbXCXCXCXCXCXZXZXZXAXAXZXZXZXZXZXZXZXZXZXZXZXZXZXZXCXCXCXCXMXbXvXkXkXjXjXdXdXgXsXyXeXeXwXwX3X3X-X-X-X&XOXOX+X+X+X+X+X+X{.{.{.{.{.{.}.}.|.|.|.].]._._._.`.`.E.K.J.J.J.J.J.J.H.H.H.H.L.B.B.M.M.M.V.V.V.V.n.n.n.n.n.j.j.j.j.j.d.d.d.d.d.d.d.d.d.d.d.d.d.d.d.d.d.d.d.d.d.d.d.d.j.j.d.d.d.d.d.d.d.a.a.a.a.a.a.p.p.e.p.e.e.e.e.e.e.e.r.r.q.q.q.q.q.q.q.8.8.8.q.q.q.q.q.q.q.q.q.q.w.8.8.6.6.6.6.6.6.6.6.6.6.6.6.6.6.6.6.6.6.6.6.6.6.6.6.6.w.w.6.6.6.6.w.w.w.6.w.w.6.;.6.;.6.=.=.=.*.*.*.*.%.O.O.o.o.o.o.o.o.{ { { { ] ] ] ] ) ) ) ) / ) / / ^ ^ ^ ^ ^ ^ I I I P P P P ",
"f f n n n n n n k f a a a a a a a a a r r i i i u u i i u u u u u u u u u u u u u u u u u u i u i i p p p p p d d f n Z B l k k k f n n n n n n m M M S S D F F F P P P P ~ ~ ~ ~ ~ ~ ^ / / / ] ] ] [ [ { o.o.o.O.*.*.=.9.6.0.r.p.g.x.n.N.M.M.L.C.C.C.C.C.C.S.S.S.S.S.C.G.F.J.K.K.K.K.K.E.E.E.E.E.E.E.E.W.W.W.W.Q.Q._._._._._._._._._.W.W.W.W.E.R.R.J.F.J.J.J.J.F.F.E.E.E.T.W.W._.].[.[..XXX#X#X%X-X3X6X8X0X9X9XyX9XsXsXaXdXdXfXdXhXhXhXjXjXjXjXjXjXkXkXvXvXvXvXvXvXvXvXvXvXvXvXvXvXbXbXbXbXbXbXbXbXbXbXbXbXbXbXbXbXbXbXbXbXbXbXbXbXbXbXMXMXbXbXbXbXbXbXbXbXbXbXbXbXbXbXbXbXbXbXbXbXBXBXBXBXCXCXCXCXZXZXZXZXZXZXZXZXZXZXCXCXCXCXCXCXMXmXkXdXsX7X4X4X4X4X4X4X7X7XeXyXtXtXsXsXsXsXsXaXsXsXaXaXsXsXsXsXaXaXaXgXfXzXzXmXmXzXjXjXfXfXjXjXvXvXvXbXCXCXCXZXZXZXZXZXZXZXDXDXDXDXDXDXDXDXDXHXDXDXHXHXDXDXDXDXDXDXDXDXDXDXDXDXDXDXDXDXDXDXDXDXDXDXDXDXDXDXFXFXFXFXFXFXFXFXGXGXGXGXGXGXGXGXFXFXFXFXGXGXGXGXGXFXFXFXFXFXFXFXDXDXDXDXDXDXDXDXDXDXDXDXZXZXZXZXZXZXCXCXCXCXCXCXMXMXMXMXbXbXvXvXvXvXvXvXmXmXmXmXvXvXvXvXmXmXmXmXMXMXbXbXCXBXCXCXMXMXMXMXMXbXbXbXmXvXvXvXmXmXmXmXmXmXmXmXbXbXMXmXMXMXMXbXbXbXMXMXCXbXCXCXCXCXZXZXZXZXAXAXZXZXZXZXZXZXZXZXZXZXZXZXZXZXCXCXCXCXMXbXvXvXkXjXjXdXdXgXsXyXeXeXwXwX3X3X-X-X-X-X&XOX+X+X+X+X+X+X{.{.{.{.{.{.}.}.|.}.|.].]._._._.`.`.E.K.J.J.J.J.J.J.H.H.H.H.C.M.B.M.M.M.V.V.V.V.n.n.n.n.n.j.j.j.j.j.d.d.d.d.d.d.d.d.d.d.d.d.d.d.d.d.d.d.d.d.d.d.d.d.j.j.d.d.d.d.d.d.d.d.d.a.a.a.a.p.p.p.p.e.e.e.e.e.e.e.r.r.r.r.q.q.q.q.8.8.8.8.8.8.8.8.w.w.q.w.8.8.w.6.6.6.6.6.6.6.6.6.6.6.6.6.=.=.6.6.6.6.6.6.6.;.6.6.6.6.6.6.6.6.6.6.6.6.6.6.w.;.;.;.;.;.;.=.=.=.*.*.*.%.%.O.O.o.o.o.o.o.o.{ { { [ ] ] ] ] ) ) ) / / / / ^ ^ ^ ^ ^ ^ I I I L P P L L ",
"a f f n k f f f f f s a a a a a a a i u r u i i i p d p i u u u u u u u u u u u u u u u u u u u p p p p p p d d d a k m m k k f f f n n n n n n m M M S S D F F F F F P P P ~ ~ ~ ~ ~ ^ / / / / ] } [ { o.o.o.o.O.@.*.=.9.6.0.r.p.g.d.n.V.B.B.L.C.C.C.C.C.C.S.S.S.S.S.C.G.J.J.K.K.K.K.K.E.E.E.E.E.E.W.W.W.W.W.W.W.W._._._._._._._._._.W.W.W.W.E.E.R.E.R.J.J.J.J.F.F.E.W.W.W.`._._.].[.[. XXX#X#X%X-X3X6X8X0X9X9XrXrXsXsXaXdXfXfXfXhXhXhXjXjXjXkXjXjXkXkXvXvXvXvXvXvXvXvXvXvXvXvXvXvXvXvXbXbXbXbXbXbXbXbXbXbXbXbXbXbXbXbXbXvXbXbXbXbXbXbXMXbXbXbXbXbXbXbXbXbXbXbXbXbXbXbXBXBXCXCXBXBXCXCXCXCXZXZXZXCXZXZXZXZXZXZXZXZXZXZXCXCXCXZXCXCXMXmXkXdXaX7X4X2X4X4X4X4X4X7X7XyXtXtXtXtXsXsXsXsXsXsXaXaXaXsXsXsXtXaXgXdXjXzXmXmXmXzXjXfXfXfXjXjXvXvXvXbXCXCXCXZXZXZXZXZXZXZXDXDXDXDXDXDXFXDXDXDXDXDXHXHXHXDXDXDXDXDXDXDXDXDXDXDXDXDXDXDXDXDXDXDXDXDXDXDXDXDXFXFXFXFXFXFXFXFXGXGXGXGXGXGXGXGXFXFXFXFXGXGXGXGXGXGXFXFXFXFXFXFXDXDXDXDXDXDXDXDXZXZXZXZXZXZXZXZXCXCXCXCXCXCXCXCXMXMXmXmXbXbXmXvXbXvXmXmXmXmXvXvXvXvXvXvXvXvXvXvXvXvXbXbXbXbXMXMXMXMXMXMXMXbXbXbXmXmXMXvXMXMXMXMXmXmXmXmXbXbXmXmXmXMXMXMXbXbXMXMXCXCXCXCXCXCXZXZXZXZXAXZXZXZXZXZXZXZXZXZXZXZXZXZXZXZXCXCXCXCXMXmXvXkXkXjXjXdXdXgXsXyXeXeXwXwX3X-X-X-X-X-X&XOX+X+X+X+X.X.X{.{.{.{.{.{.}.}.}.}.}.].].]._._.`.`.Q.E.J.J.J.J.K.J.H.H.H.H.H.B.L.L.M.M.B.V.V.V.V.n.n.n.n.n.n.j.j.j.j.k.d.d.d.d.d.a.a.a.d.d.d.d.d.d.d.d.d.d.d.d.d.d.j.j.d.d.d.d.d.d.d.d.a.a.a.a.p.p.p.p.p.e.e.e.e.e.e.e.r.r.r.r.q.q.q.8.8.8.8.8.8.8.8.8.w.8.w.w.w.6.w.6.6.6.6.6.6.6.6.6.6.6.6.6.=.=.=.=.=.6.6.=.=.=.6.6.6.6.6.6.;.6.6.6.6.6.6.6.;.;.;.;.;.;.;.=.=.*.*.*.*.%.%.O.%.o.o.o.o.o.o.{ { { ] ] ] ] ] ) ) ) / / ^ ^ ^ ^ ^ ^ ^ ~ I P I L P L L L ",
"a f f f f f f f f f s a a a a a a a i i u i i a a a d d p i u u e u u u u u u u u u u u u u u i p p p p p p p d g f f k k k k f f f n n n n n n m M M S S D F F F F F P P P ~ ~ ~ ~ ~ ^ / / / ` ] [ [ { o.o.o.o.O.*.*.=.9.6.0.0.p.d.d.n.V.B.B.L.C.C.C.C.C.C.S.S.S.S.S.M.C.G.J.K.K.K.K.K.E.E.E.E.W.W.W.W.W.W.W.W.W.`._._._._._._._._._.W.W.W.Q.E.E.R.E.R.R.J.J.F.F.F.E.W.W.W.`._._.'.[.{..XXX#X#X%X*X3X6X8X0X9X9XrXrXsXaXdXdXdXfXhXhXhXhXfXfXjXkXjXjXkXkXvXvXvXvXvXvXvXvXvXvXvXvXvXvXvXvXvXbXbXbXbXbXbXbXbXbXbXbXbXbXbXbXbXbXbXbXbXbXbXbXMXMXbXbXbXbXbXbXbXbXbXbXbXbXbXbXBXBXCXBXBXBXCXCXCXCXZXZXZXCXZXZXZXZXZXZXZXZXZXZXCXCXCXCXCXCXMXmXjXdXaX7X4X2X2X2X4X4X4X7X7XeXtXtXtXtXsXsXsXsXsXsXaXaXaXaXsXtXtXrXgXfXzXzXmXmXmXzXjXfXfXfXjXjXvXvXvXbXCXCXCXCXZXZXZXZXZXZXDXDXDXDXDXDXFXDXDXDXDXDXHXHXHXDXDXDXDXDXDXDXDXDXDXDXDXDXDXDXDXDXDXDXDXDXDXDXDXDXFXFXFXFXFXFXFXFXGXGXGXGXGXGXGXGXFXFXFXFXGXGXGXGXFXGXFXFXFXFXFXFXDXDXDXDXDXDXDXDXZXZXZXZXZXZXZXZXCXCXCXCXCXCXCXMXMXMXmXmXbXbXmXmXmXvXmXmXvXvXvXvXvXvXvXvXvXvXvXvXvXvXMXbXbXbXMXMXMXMXMXMXMXbXbXbXmXMXbXbXMXMXMXMXmXmXmXMXbXbXmXmXmXbXbXMXbXbXMXCXCXCXCXCXCXZXZXZXZXZXAXZXZXZXZXZXZXZXZXZXZXZXZXZXZXZXCXCXCXMXMXbXvXkXkXjXjXdXdXgXsXyXeXeXwXwX3X-X-X-X-X&X&X+X+X+X+X.X.X.X.X{.{.{.{.{.}.}.}.}.}.].]._._._.`.`.Q.E.J.J.J.J.J.J.H.H.H.H.H.B.L.B.B.B.B.V.V.V.V.n.n.n.n.n.n.j.j.j.j.j.d.d.d.d.d.a.a.a.d.d.d.d.d.d.d.d.d.d.d.d.d.d.j.j.d.d.d.d.d.d.d.d.a.a.a.a.p.p.p.p.p.e.e.e.e.e.e.e.r.r.r.r.q.q.q.8.8.8.8.6.8.w.w.w.w.w.w.6.6.6.6.6.6.6.6.6.6.6.6.6.6.6.6.=.=.=.=.=.6.6.6.=.=.=.=.=.6.6.6.6.;.=.=.=.=.=.=.=.;.=.=.=.;.=.=.=.*.*.*.*.*.%.%.+.%.o.o.o.o.o.{ { } [ ] ] ] ] ] ) ) ) / / ^ ^ ^ ^ ^ ^ ^ I I P P L P L L L ",
"a d f f f f g g f f a a a a a a a a p i i p p p p p a d d d p u u u u u u u u u u u u u u i i i i i p p p p p d d d f s f f k f f f n n n n n m m M M S S G F F F F F P P P P ~ ~ ~ ( ~ ~ / / ` ] [ [ [ o.o.o.o.O.*.*.=.9.w.0.p.p.d.g.n.B.B.B.B.L.L.H.C.S.S.C.C.S.S.M.M.C.G.H.K.K.K.K.K.E.E.E.E.E.E.Q.Q.Q.W.`.`.`.`._._._.]._._._._._.W.Q.W.W.W.E.E.K.E.R.R.R.Y.Y.E.E.Q.`.`.`._.].'.[. X.XXX%X%X*X=X2X5X8X0X0X9XyXtXsXaXdXdXdXhXhXhXhXhXdXgXjXkXkXkXkXkXkXvXkXkXkXkXkXvXvXvXvXvXvXvXvXvXvXvXvXvXbXbXbXbXbXbXbXbXbXvXvXvXbXbXbXbXbXbXbXbXbXbXbXbXbXbXbXbXbXbXbXbXbXbXCXCXBXBXBXBXBXBXCXCXCXCXZXZXZXAXAXAXZXZXZXZXZXZXZXZXZXZXZXZXCXCXmXmXjXdXtX7X4X4X2X4X4X4XeXeX7XeXtXtXtXsXsXsXsXsXgXgXgXgXgXaXsXsXrXaXgXjXzXzXmXmXzXkXjXjXfXfXjXkXvXvXvXbXCXCXZXZXZXZXZXDXDXDXDXDXDXDXDXDXFXFXFXDXDXDXFXFXFXFXDXDXDXDXDXDXDXDXDXDXDXDXDXDXDXDXDXDXDXDXFXFXFXFXFXFXHXDXFXFXFXFXGXGXGXGXGXGXGXGXGXGXGXGXFXFXFXFXFXFXFXFXFXFXFXDXDXDXDXDXDXZXZXZXDXZXDXZXZXZXZXCXCXCXCXCXCXMXMXMXMXMXMXMXvXvXvXvXvXvXvXvXvXvXvXkXkXkXvXvXvXvXvXvXvXvXmXvXmXbXbXbXMXMXMXMXMXMXMXMXMXMXMXMXMXMXMXMXmXmXmXMXMXMXMXMXMXMXMXMXMXCXCXCXCXCXCXCXZXZXZXZXZXZXZXZXZXZXZXZXZXZXZXZXZXZXZXZXZXZXCXCXCXbXbXvXvXkXkXjXjXdXdXgXtXyXeXeXwXwX2X-X-X-X-X&XOX+X+X+X+X+X+X{..X{.{.{.{.{.{.}.}.|.|.].]._.|._.`.`.`.K.K.K.K.J.J.J.H.H.H.H.H.H.H.H.B.B.B.B.M.M.n.n.n.n.n.n.n.j.l.j.j.j.d.k.d.a.a.a.a.a.a.a.a.a.d.a.a.a.d.d.d.d.d.d.d.d.d.d.d.d.d.a.a.a.a.a.a.a.p.p.p.e.e.e.e.e.e.e.e.e.r.r.r.q.q.q.q.8.8.7.6.6.w.w.w.6.6.6.6.6.6.6.6.6.6.6.6.6.=.=.=.=.=.=.=.=.=.=.=.=.=.=.=.=.=.=.;.;.6.6.6.6.=.6.=.=.=.=.=.=.;.;.=.=.=.=.=.*.*.*.%.%.%.%.&.+.o.o.o.o.o.{ { { } [ ] ] ] ] ) ) ) ) ^ ^ ^ ^ ^ ^ ^ I I I P P P L L L L L ",
"a d f f f f f f f f a a a a a a p i i i i u u u p p p p d p i u u e u u u u u u u u u u i i i i i i p p p p p d d a f s f f f f f f k n n n n m m M M S S S D D F F F P P P ~ ~ ~ ~ ( ~ ~ / ` ` ] [ [ [ o.o.o.O.O.*.*.=.9.w.0.p.p.d.d.n.B.B.B.B.L.L.H.H.S.S.C.C.S.S.M.M.C.C.H.J.K.K.K.K.E.E.E.E.E.E.Q.Q.Q.Q.`.`.`.`._._.].]._._._._._.W.Q.W.W.W.E.E.K.K.E.E.E.Y.Y.E.E.Q.W.`.`._.].'.[.{..XXX%X%X*X=X2X5X8X0X0X9XtXsXsXaXdXdXdXhXhXhXhXhXgXgXfXjXjXkXkXkXvXvXkXkXkXkXkXkXvXvXvXvXvXvXvXvXvXvXvXvXvXvXvXvXvXvXvXvXvXvXvXvXbXbXbXbXbXbXbXbXbXbXbXbXbXbXbXbXbXbXbXbXbXbXCXCXBXBXBXBXBXBXCXCXCXCXZXZXAXAXAXZXZXZXZXZXZXZXZXZXZXZXZXZXCXCXmXmXjXfXtX0X4X4X4X4X4X4XeXeXeXyXtXtXtXsXsXsXsXsXgXgXgXgXaXaXgXsXrXaXdXjXzXzXzXzXzXjXjXjXfXfXjXkXvXvXvXbXCXCXZXZXZXZXDXDXDXDXDXDXDXDXDXDXFXFXFXDXDXDXDXFXFXFXDXDXDXDXDXDXDXDXDXDXDXDXDXDXDXDXDXDXDXDXDXDXFXFXFXFXHXHXFXFXFXFXGXGXGXGXGXGXGXGXGXGXGXGXGXGXFXFXFXFXFXFXFXFXFXDXFXDXDXDXDXAXZXZXDXDXDXZXZXZXZXCXCXCXCXCXCXMXMXMXmXmXMXMXbXvXvXvXvXvXvXvXvXvXvXkXkXkXvXvXvXvXvXvXvXvXmXvXmXMXvXvXMXMXMXMXMXMXMXMXMXMXMXMXMXMXMXMXmXmXmXMXMXMXMXMXMXMXMXMXCXCXCXCXCXCXCXCXZXZXZXZXZXZXZXZXZXZXZXZXZXZXZXZXZXZXZXZXZXZXZXBXBXbXbXvXvXkXkXjXjXdXdXgXtXrXeXeXwXwX2X-X-X-X-X&XOX+X+X+X+X+X+X{.{.{.{.{.{.{.|.}.}.|.|.|.]._.|._.`.`.`.K.K.K.K.J.J.J.H.H.H.H.H.H.H.H.B.B.B.B.M.M.n.n.n.n.n.n.n.j.n.j.j.j.d.d.d.a.a.a.a.a.a.a.a.a.d.a.a.a.d.d.d.d.d.d.d.d.d.d.d.d.g.a.a.a.a.a.a.p.p.p.p.e.e.e.e.e.e.e.e.e.r.r.r.q.q.q.q.8.8.7.6.6.w.6.6.6.6.6.6.6.6.6.6.6.6.6.6.6.=.=.=.=.=.=.=.=.=.=.=.=.=.=.=.=.=.=.=.=.6.6.6.6.=.=.=.=.=.=.=.;.=.=.=.=.*.*.*.@.O.O.%.O.O.O.+.o.o.o.{ { { { { [ [ ] ] ] ] ] ) ) ) ^ ^ ^ ^ ^ ^ ^ ^ ^ I I P P P L L L L L ",
"a a f f v f f f d d d d a a p i i u i r e e u u u u i i p p u u e e e e 9 u u u u u u u u u u u i i i i p p p d a a d f f f f f f f k n n n n n m M M S S S D D F F F F F P P ~ ~ ~ ( ~ ~ / ` ` ] [ [ [ o.o.o.O.O.*.=.=.9.w.0.p.i.d.d.n.B.B.B.B.L.L.H.H.S.S.C.S.S.S.M.M.M.H.H.J.J.K.K.K.E.E.E.E.E.E.E.Q.W.W.`.`.`._._._.].].]._.].]._._.`.Q.Q.Q.Q.E.E.E.E.E.E.Y.Y.E.Q.Q.`.`._._.].].{..X.XXX%X%X*X=X2X5X8X0X9XyXtXsXaXdXdXdXhXhXjXjXjXjXfXgXdXdXhXjXkXkXkXkXkXkXkXkXkXkXvXvXvXkXvXvXvXvXvXvXvXvXvXvXvXvXvXvXvXvXvXvXvXvXvXbXbXbXbXbXbXbXbXbXbXbXbXbXbXbXCXCXBXBXBXBXCXCXCXCXCXCXCXCXCXCXZXZXZXZXAXAXZXZXZXZXZXZXZXZXZXZXZXZXZXZXCXCXmXvXjXfXsXeX4X4X4X4X4X4X4XeXyXtXtXtXtXtXtXsXtXsXsXgXgXgXaXaXgXsXgXgXfXkXzXzXzXzXzXjXxXjXjXxXjXkXvXvXvXbXCXCXZXZXZXZXDXDXDXDXDXDXDXDXFXFXFXFXFXFXDXDXDXDXFXFXDXDXDXDXDXDXDXDXDXDXDXDXDXDXDXDXDXDXDXDXDXDXDXDXFXDXDXHXFXFXFXFXGXGXGXGXGXGXGXGXGXGXGXGXGXGXGXGXFXFXFXFXFXFXFXHXFXDXDXDXDXZXZXZXZXZXZXZXZXZXZXCXCXCXCXCXMXMXMXMXmXMXMXMXbXvXvXvXvXvXmXmXvXvXvXvXkXkXkXkXvXvXvXvXvXvXmXmXmXvXvXvXvXvXmXmXMXMXMXMXMXMXMXMXMXMXMXMXMXMXmXmXMXMXMXMXMXMXMXMXBXCXBXCXCXCXCXCXCXZXZXZXZXZXAXAXZXZXZXZXZXZXZXZXZXZXZXZXZXZXZXCXBXbXbXvXvXkXkXjXjXdXdXgXsXrXeXeXwXwXwX2X-X-X-X&X&X+X+X+X+X+X{..X{.{.{.{.{.{.|.}.}.|.|._.]._._._.`.`.`.K.K.K.K.J.J.J.H.H.H.H.H.H.H.H.B.B.B.B.M.B.V.V.V.n.n.n.n.n.n.j.j.j.k.d.d.a.a.a.a.a.a.a.a.a.d.d.a.a.d.d.d.d.d.d.d.d.d.d.d.d.g.a.a.a.a.a.a.p.p.e.e.e.e.e.e.e.e.e.e.e.r.r.r.q.q.8.8.7.7.6.6.6.w.6.6.6.6.6.6.=.=.=.=.=.=.=.=.=.=.=.=.=.=.=.=.=.=.=.=.=.=.=.=.=.=.=.=.=.;.;.=.;.=.=.=.=.=.=.;.;.;.*.*.*.=.*.*.@.O.O.%.O.%.O.&.o.o.o.{ { { { } [ [ ] ] ] ] ] ) ) ^ ^ ^ ^ ^ ^ ^ ^ I I I I P L L L L D D D ",
"a a f f f v n n f f d d a p i i r e e e 7 e e e e u u i p p u u e e e 7 9 u u u u u u u u u i u i i i i p p p a d d d f f f f f f f f k n n n n m M M S S S S S D F F F F P P ~ ~ ~ ( ~ ~ / ` ` ] [ [ { o.o.o.O.O.*.=.=.9.w.0.p.p.d.d.n.N.B.B.B.L.H.H.H.H.S.S.S.S.S.M.M.M.C.G.H.J.K.K.K.E.E.E.E.E.E.E.E.W.W.`.`.`._._.].].]._._.].].]._.W.Q.Q.Q.Q.E.E.E.E.E.E.E.E.E.Q.Q.`.`._._.].].{..X.XXX%X%X*X=X2X5X8X0X9XyXtXsXaXdXdXdXhXhXjXkXkXkXjXaX0X9XdXjXkXkXkXvXkXkXkXkXkXkXvXvXvXkXkXkXkXkXkXkXkXkXkXkXkXkXkXkXkXkXvXvXvXvXvXbXbXvXbXbXbXbXbXbXbXbXbXbXbXbXCXCXBXBXbXBXCXCXCXCXCXCXCXZXZXZXZXZXZXZXAXAXZXZXZXZXZXZXZXZXZXZXZXZXZXZXCXCXmXvXjXfXsXtXwX4X4X4X4X4X4XeXtXtXtXtXyXtXtXtXtXtXtXaXaXaXaXaXgXfXjXkXkXkXzXzXzXzXjXjXjXjXjXjXjXkXvXvXbXbXCXCXZXZXZXDXDXDXDXDXDXDXDXFXFXFXFXFXFXFXDXDXDXDXFXFXDXDXDXDXDXDXDXDXDXDXDXDXDXDXDXDXDXDXDXDXDXDXDXDXDXDXHXHXFXFXFXFXGXGXGXGXGXGXGXGXGXGXGXGXGXGXGXGXFXFXFXFXFXFXFXHXFXDXDXDXDXAXAXDXZXZXZXZXZXZXZXCXCXCXCXCXMXMXMXMXmXMXMXMXbXvXvXvXvXvXmXvXvXvXvXvXkXkXkXkXvXvXvXvXvXvXmXmXvXvXvXvXvXvXvXvXMXMXMXMXMXMXMXMXMXMXMXMXMXMXmXmXMXMXMXMXMXMXMXCXCXBXBXCXCXCXCXBXCXZXZXZXZXZXZXZXZXZXZXZXZXZXZXZXZXZXZXZXZXZXZXCXCXbXbXvXvXkXkXjXjXdXdXgXsXyXeXeXwXwXwX2X-X-X-X&XOX+X+X+X+X+X{..X{.{.{.{.{.{.|.}.}._.|.]._._._._.`.`.Q.K.K.K.K.K.J.J.H.H.H.H.H.H.H.S.S.B.B.B.B.B.V.V.V.n.n.n.n.n.n.j.j.j.k.k.d.a.a.a.a.a.a.a.a.a.d.d.a.a.d.d.d.d.d.d.d.d.d.d.d.d.g.a.a.a.a.a.a.p.p.e.e.e.p.e.e.e.e.e.e.e.q.q.q.8.8.8.8.7.6.6.6.6.6.=.6.6.=.=.=.=.=.=.=.=.=.=.=.=.=.=.=.=.=.=.=.=.=.=.=.=.=.=.=.=.=.=.=.=.=.=.=.=.=.=.=.=.=.=.*.*.*.*.*.*.*.*.*.O.O.O.%.%.O.o.&.o.o.{ { { { } { [ ] ] ] ) ) ) ) ) ) ^ ^ ^ ^ ^ ^ ^ I I L P P L P L L D D D ",
"a d f f f n S S M f d d a i i r e e 7 7 7 7 7 7 7 7 9 u u u u u e e 7 7 9 9 u u u u u u u u u u u u i i p p a a d d d f f f f f f f f n k n n n m M M S S S S S D F F F F F P P ~ ~ ( ~ ~ / / ` ` [ [ [ o.o.o.O.O.*.=.=.9.9.0.t.i.s.d.n.V.B.B.B.H.H.S.S.S.S.S.S.S.S.C.C.C.C.G.H.K.K.K.K.E.E.E.E.Q.Q.Q.Q.W.W.W.`._._.].].].].].].].].].]._.W.W.Q.W.E.W.W.E.E.E.R.R.W.W.W._.].].].].].{..XXXXX%X%X*X=X3X8X8X0X9XyXtXsXaXdXdXhXjXhXkXkXkXkXjXgXqXqXsXjXjXkXkXkXkXkXkXkXlXlXlXlXlXkXkXhXjXkXkXkXkXkXkXkXkXkXjXkXkXkXkXvXvXvXvXvXvXvXvXvXbXbXbXbXbXbXbXbXMXMXCXCXCXBXCXCXCXCXCXCXCXCXZXZXZXZXZXZXZXZXZXZXZXZXZXZXZXZXZXZXZXZXZXZXZXZXCXMXmXkXjXfXdXtX7X4X4X4X4X4X7XeXtXyXyXyXyXyXyXyXtXtXtXtXrXrXrXaXdXjXkXvXkXzXzXzXzXjXjXjXjXjXjXjXjXkXvXvXvXbXCXCXZXZXZXDXDXDXFXFXFXFXFXFXFXFXFXFXFXFXFXDXDXDXDXDXDXDXDXDXDXDXDXDXDXDXDXDXDXDXDXDXDXDXDXDXFXFXDXDXFXFXFXFXFXFXFXFXGXGXGXGXGXGXGXGXGXGXGXGXGXGXGXGXFXFXFXFXFXFXFXHXDXDXDXDXDXDXDXDXDXDXZXZXZXZXZXCXCXCXCXCXMXMXMXMXMXMXvXvXvXvXvXvXvXvXvXvXkXkXkXkXkXkXkXkXkXkXkXkXkXkXkXkXkXvXmXvXvXvXvXmXMXMXMXMXMXMXMXMXMXMXMXMXMXMXMXMXMXMXMXMXMXCXCXCXCXCXCXCXCXCXZXZXZXZXZXZXZXZXZXZXDXDXDXDXZXZXZXZXZXZXZXZXZXZXZXCXMXbXbXvXvXkXkXjXjXfXdXdXsXtXyXeXwXwXwX2X-X-X-X-XOX+X+X+X+X+X+X.X.X{.{.{.{.{.}.|.|.|._._._._._._.`.`.E.K.J.J.K.H.J.H.H.H.H.H.L.B.B.B.B.B.B.B.B.B.B.B.V.M.n.n.n.n.n.j.j.j.j.d.d.d.a.a.a.a.a.a.a.a.a.a.a.a.d.d.d.d.d.d.d.d.d.d.d.d.g.a.a.a.a.a.p.p.p.e.p.e.e.e.e.e.q.q.q.q.q.q.q.8.8.8.8.6.6.6.6.6.=.=.=.=.=.=.=.=.=.=.=.=.=.=.*.*.=.=.*.*.*.=.*.*.*.*.*.*.*.*.=.=.*.*.*.=.=.=.=.*.*.*.*.*.*.*.*.*.*.*.*.*.*.*.*.%.O.O.O.&.o.o.o.o.{ { { { [ } } ] ] ] ) ) ) ) ) ^ ^ ^ ^ ^ ^ ^ ^ ^ I I D I I P L L D D D D ",
"a d f f v M F E G M d d a i p p u 7 7 8 6 6 6 6 6 7 7 9 9 9 9 9 9 9 7 7 9 9 u u u u u u u u u u u u i i p p a a d d d d d f f f f f n n k n n n m M M S S S S S D F F F F F P P ~ ~ ~ ~ ~ / / ` ` [ [ o.o.o.O.O.@.*.=.=.6.9.0.i.i.f.d.j.N.B.M.B.H.H.S.S.S.S.S.S.S.S.C.C.C.C.G.H.K.K.K.K.E.E.E.E.W.Q.Q.Q.W.W.W._._._.].].].].].].].].].].].W.W.Q.W.W.W.W.R.R.R.R.R.W.W._.].].].].].[.{..XXXXX%X%X*X=X3X5X8X0X9XtXaXsXgXdXdXhXjXkXkXkXvXvXkXdXqXqXtXjXjXkXkXkXkXkXkXkXlXkXkXkXkXjXjXjXjXjXjXjXjXjXjXjXjXjXjXjXjXjXkXvXvXvXvXvXvXvXvXvXvXbXbXbXbXbXbXbXMXMXCXCXCXBXCXCXCXCXZXZXCXCXZXZXZXZXZXZXZXZXZXZXZXZXZXZXZXZXZXZXZXZXZXZXZXCXCXMXvXkXjXfXsXtX7X4X4X4X4X4X7XeXeXyXyXyXyXyXyXyXyXyXyXyXrXrXrXrXgXkXbXbXvXkXzXfXfXfXfXjXjXjXjXkXkXkXkXvXvXbXCXZXZXZXZXDXDXDXFXFXFXFXFXFXFXFXFXFXFXFXDXDXDXDXDXDXDXDXDXDXDXDXDXDXDXDXDXDXDXDXDXDXDXDXDXDXFXFXDXDXFXFXFXFXFXFXFXFXGXGXGXGXGXGXGXGXGXGXGXGXGXGXGXGXFXFXFXFXFXFXFXHXDXDXDXDXDXDXDXDXDXDXZXZXZXZXZXCXCXCXCXCXMXCXMXMXMXMXvXvXvXvXvXvXvXvXvXkXkXkXkXkXkXkXkXkXkXkXkXkXkXkXkXkXkXkXmXmXvXvXmXvXmXMXMXMXMXMXMXMXMXMXMXMXMXCXMXMXMXMXMXMXCXCXCXCXCXCXCXCXCXCXZXZXZXZXZXZXZXZXZXZXDXDXDXDXZXZXZXZXZXZXZXZXZXZXZXCXMXbXbXvXvXkXkXjXjXfXdXdXsXtXyXeXwXwXwX2X-X-X-X-XOX+X+X+X+X+X{..X.X{.{.{.{.{.|.|.|.|.]._._._._._.`.`.E.K.J.K.K.H.J.H.H.H.H.H.L.B.B.B.B.B.B.B.B.B.B.B.V.M.n.n.n.n.j.j.j.j.j.d.d.d.a.a.a.a.a.a.a.a.d.d.a.a.d.d.d.d.d.d.d.d.d.d.d.d.g.a.a.a.a.a.p.p.p.e.e.e.e.e.e.e.q.q.q.q.8.8.8.8.8.6.w.6.6.6.6.=.=.=.=.=.=.=.=.=.=.*.*.*.*.*.*.*.*.*.*.*.*.*.*.*.*.*.*.*.*.*.*.*.*.*.*.*.*.*.=.*.*.*.*.*.*.*.*.*.*.*.*.*.%.%.O.O.O.O.o.o.o.o.o.{ [ [ ] ] ] ] ] ] ) ) / / / ^ ^ ^ ^ ^ ^ ^ ^ ^ ^ ^ I I L I U P L L D D C C ",
"i g f f n F ( ( ( S f d d p p p e 7 7 6 6 6 6 6 6 6 6 6 9 7 9 9 9 9 9 9 9 9 u u u u u u u u u u i i i i p p a a d d d d d d f f f f v n k n n n m M M S S S S S D F F F F F P P ~ ~ ~ ~ ~ / / ` ` [ [ o.o.o.O.*.*.=.=.6.w.w.0.i.i.f.d.n.N.V.M.B.L.H.H.H.S.S.S.S.M.M.M.M.C.S.H.H.K.K.K.K.E.E.E.E.W.W.W.W.Q.`._._.].].].].}.}.].].].].].].].]._._.W.W.W.W.E.E.E.R.T.W.W._.].].].].[.[.{..XXXXX%X%X*X-X3X5X0X0XyXtXsXgXdXdXhXhXhXkXvXvXvXkXkXjXqXqX9XjXjXkXkXkXkXkXkXkXhXjXjXjXjXjXjXjXjXjXjXjXjXjXjXjXjXjXjXjXjXjXkXvXvXvXvXvXvXvXvXvXvXvXbXbXbXbXbXbXMXbXCXCXCXCXCXCXCXCXZXZXZXZXZXZXZXZXZXZXZXZXZXZXZXZXZXZXZXZXZXZXZXZXZXZXZXZXCXMXvXjXfXdXtX8X5X4X4X4X4X4XeXeXeXeXeXeXeXeXeXeXyXeXeXeXyXyXyX7XiXjXCXBXbXkXzXfXfXfXfXjXjXjXkXxXkXkXvXvXvXbXCXZXZXZXZXDXDXDXDXDXFXFXFXFXFXFXFXFXFXFXDXDXDXDXDXDXDXDXDXDXDXDXDXDXDXDXDXDXDXDXDXDXDXDXDXDXFXFXFXDXFXFXFXFXFXFXFXFXGXGXGXGXGXGXGXGXGXGXGXGXGXGXGXGXFXFXFXFXFXFXFXDXDXDXDXDXDXDXDXDXDXDXZXZXZXZXZXCXCXCXCXMXMXMXMXmXMXmXvXvXvXvXvXkXkXkXkXkXkXkXkXkXkXkXjXjXjXjXkXkXkXkXkXkXkXkXzXkXkXkXvXvXmXMXMXMXMXMXMXMXMXMXMXMXCXCXCXCXMXMXMXMXCXCXCXCXCXCXCXCXCXCXZXZXZXZXZXZXZXZXZXZXDXDXDXDXZXZXZXZXZXZXZXZXZXZXZXCXMXbXbXvXvXkXkXjXfXgXdXdXtXrXyXeXwXwXwX2X-X-X-X-X&X+X+X+X+X+X+X.X.X{.{.{.{.{.}.|.|._._._._._._.`.`.`.E.K.K.K.J.J.J.H.H.H.H.S.B.B.B.H.B.B.B.B.B.B.B.B.V.N.V.n.n.n.n.j.j.j.j.d.d.d.a.d.a.a.a.a.a.a.d.d.a.a.d.d.d.d.d.d.d.d.d.d.d.d.g.d.a.a.a.a.p.p.p.e.e.e.e.q.e.e.q.q.q.q.8.8.8.8.8.6.w.6.6.6.6.=.=.=.=.=.=.=.=.=.*.*.*.*.*.*.*.*.*.*.*.*.*.*.*.*.*.*.*.*.*.*.*.*.*.*.*.*.*.*.*.*.*.*.*.*.*.*.*.*.*.*.O.O.%.%.O.O.O.O.o.o.o.o.{ { { [ ] ] ] ] ] ] ) ) / / / ^ ^ ^ ^ ^ ^ ^ ^ ^ ^ ^ ^ ( ( I L L L L D D C C ",
"p g f k M ~ | | ( S f d a i p p 7 8 6 6 6 6 6 6 6 6 6 6 6 6 7 7 9 9 9 9 9 9 u u u u u u u u u u u u i i p p a a a d d d d d f f f f v n n n n n m M M S S S S S D F F F F F P P ~ ~ ~ ~ ~ / / ` ` [ [ [ o.O.O.*.*.=.6.w.w.9.0.i.i.f.d.n.N.V.M.B.C.C.H.H.S.S.S.S.C.C.M.M.C.H.H.H.K.K.K.E.E.E.E.Q.W.W.Q.Q.`._._.].].].}.}.}.}.].].].].].].].].]._.W.W.W.W.W.E.E.T.T.W.W._.].].].].].[.{..XXXXX%X%X*X-X3X5X0X0XyXtXsXgXdXdXhXhXhXkXvXvXvXvXkXjXqX1X9XfXkXkXkXkXkXjXkXkXjXjXjXjXjXjXhXjXjXjXjXjXjXjXjXjXjXjXjXjXjXkXkXkXkXvXvXvXvXvXvXvXvXvXbXbXbXbXbXbXbXBXCXCXCXCXCXCXCXCXZXZXZXZXZXZXZXZXZXZXZXZXZXZXZXZXZXZXZXZXZXZXZXZXZXZXZXCXMXvXkXhXdXsXtX8X5X5X4X4X4X4XeXeXeXeXeXeX0XeXeX0X0XeXeXyXeXeXeX4X7XfXbXBXMXmXzXfXgXsXgXfXjXxXkXxXkXkXvXvXvXbXCXCXZXZXZXDXDXDXDXDXFXFXFXFXFXFXFXFXFXFXDXDXDXDXDXFXDXDXDXDXDXDXDXDXDXDXDXDXDXDXDXDXDXDXDXDXFXFXFXFXFXFXFXFXFXFXFXFXGXGXGXGXGXGXGXGXGXGXGXGXGXGXGXGXFXFXFXFXFXFXFXDXDXDXDXDXDXDXDXDXDXDXZXZXZXZXZXCXCXCXCXMXMXMXmXmXmXmXvXvXvXvXkXkXkXkXkXkXkXkXkXkXjXjXjXjXjXjXjXjXjXjXkXkXkXkXkXkXkXkXmXvXmXvXMXMXMXMXMXMXMXMXMXMXCXCXCXCXMXMXMXMXCXCXCXCXCXCXCXCXCXCXZXZXZXZXZXZXZXZXZXZXDXDXDXDXZXZXZXZXZXZXZXZXZXZXZXCXMXmXvXvXvXkXkXjXfXgXdXsXtXrXyXeXwXwXwX2X-X-X-X-X&XOX+X+X+X+X+X.X.X{.{.{.{.{.}.|.|._.]._._._._.`.`.`.E.K.K.K.J.J.J.H.H.H.H.S.B.B.L.L.B.B.B.B.B.M.B.B.V.N.V.n.n.n.n.j.j.j.j.d.d.d.d.a.a.a.a.a.a.a.a.a.a.a.d.d.d.d.d.d.d.d.d.d.d.d.g.a.a.a.a.a.p.p.p.e.e.e.q.q.q.q.8.8.8.8.8.8.8.7.6.6.6.6.6.=.=.=.=.=.=.=.=.=.=.*.*.*.*.*.*.*.*.*.*.*.*.*.*.*.*.*.*.*.*.*.*.*.*.*.*.*.*.*.*.*.*.*.*.*.*.*.*.*.*.*.%.%.%.O.O.O.O.O.O.o.o.o.{ { { [ ] ] ] ] ] ] ] ] ) ) / ^ / ^ ^ ^ ^ ^ ^ ^ ^ ^ ^ ^ ~ ( | ~ F L L L D C C C ",
"g d f n G | } } ' S d d d p u e 7 8 6 6 6 6 6 6 6 6 6 6 6 6 9 9 7 7 7 7 9 9 u u u u u u u u u u u u i i i i p p a a d d d d f f f f f f k n n n m M M M S S S S D F F F F P ~ ~ ~ ~ ~ ~ ~ / ` ` ` [ [ X.o.O.%.*.*.=.w.w.w.9.0.i.i.i.d.d.n.N.M.M.M.M.C.C.C.C.C.C.C.C.C.C.C.C.H.K.K.K.K.K.E.W.W.`.`.`.`.`._.].].].}.].{.].{.[.[.].}.}.].].].].]._.`.W.W.W.W.T.T.W.W.W._.].].].].].[.[..X.XXX#X%X*X=X2X5X8X8X9XtXtXsXgXdXfXhXhXkXvXvXvXvXvXkXjXqX1X9XfXjXkXkXkXjXkXjXjXjXjXjXjXjXjXjXfXfXfXfXfXfXfXfXfXfXjXjXjXjXkXkXkXkXvXvXvXvXvXvXvXvXvXbXbXbXbXbXBXBXCXCXCXCXCXCXCXZXZXZXZXZXZXZXZXZXZXZXDXDXZXZXZXZXZXDXDXDXDXDXDXZXZXZXZXBXbXvXkXjXdXiX9X8X8X5X5X4X4X4X4X4X4X8X7X7X7X8X8X8X8X8X8X8XeXeXwXwXwX7XiXvXBXMXvXjXsXsXsXgXfXjXjXjXkXkXkXvXvXvXbXCXCXZXZXZXDXDXDXDXDXFXFXFXFXFXFXFXFXHXHXHXDXDXDXFXFXDXDXDXDXDXDXDXDXDXDXDXDXDXDXDXDXDXDXDXDXFXFXFXFXFXFXFXFXFXFXFXFXGXGXGXGXGXGXGXGXGXGXGXGXGXGXGXGXFXFXFXFXFXFXFXFXFXDXDXDXDXDXZXZXZXZXZXZXZXZXCXCXCXCXMXMXmXmXvXvXvXvXvXvXkXkXkXkXkXkXkXkXjXjXjXjXjXjXjXjXjXjXjXjXjXjXjXkXkXkXkXkXkXkXkXvXvXvXbXbXMXMXMXMXMXMXMXMXMXMXMXMXCXCXCXCXCXCXCXCXCXCXCXCXCXZXZXZXZXZXZXZXZXZXZXZXDXDXDXDXZXZXZXZXZXZXZXZXZXZXCXCXbXbXvXvXvXkXjXjXfXfXsXsXtXrXyXeXwXwXwX-X-X-X-X&XOX+X+X+X+X+X+X.X{.{.{.{.}.}.|.].|.|.|._._._.`.`.`.`.E.K.J.J.J.H.H.H.H.H.H.H.L.L.B.S.B.B.B.B.B.M.B.B.B.M.N.N.n.n.j.j.j.j.j.k.d.d.a.a.a.a.a.a.a.d.d.d.a.a.d.d.d.d.d.d.d.d.d.d.d.d.g.a.a.a.a.a.i.p.p.e.e.r.r.r.r.r.q.8.8.8.8.8.8.6.6.6.6.6.=.=.=.=.=.=.=.*.=.*.*.*.*.*.*.*.*.*.*.*.*.*.*.*.*.*.*.*.*.*.*.*.*.*.*.*.*.*.*.*.*.*.*.*.*.*.*.%.%.%.%.%.%.%.%.O.O.O.%.O.&.o.o.o.{ { { [ } ] ] ] ] ] ) ) ) / / ^ ^ ^ ^ ^ ^ / ^ _ _ _ ^ ( E U.$X( F F L D D C C C ",
"h a f M G | } } | M d d d p u 7 6 6 4 4 6 6 6 6 6 6 6 6 6 7 9 9 7 7 7 7 9 9 u u u u u u u u u u u u i i i i p p a a d d d d f f f f f f k n n n n M M M S S S S D F F F F P ~ ~ ~ ~ ~ ~ ~ / ` ` ` [ [ X.o.O.%.*.=.=.w.w.w.7.0.i.i.i.d.d.n.N.M.M.M.M.C.C.C.C.C.C.C.C.C.C.C.C.G.K.K.K.K.E.W.W.W.`.`.`.`._._.].].].{.{.{.{.{.{.[.[.}.}.].].].].]._.`.W.W.W.W.W.W.W.W.W._.].].].].].[.[..X.XXX#X*X*X=X2X5X8X8X9XtXtXsXgXdXfXhXhXkXvXvXvXvXvXmXjXqX1X9XfXjXkXkXkXkXkXjXjXjXjXjXjXfXfXfXfXfXfXfXdXfXfXfXfXfXfXjXjXjXjXkXkXkXkXvXvXvXvXvXvXvXvXbXbXbXbXbXbXBXBXCXCXCXCXCXCXZXZXZXZXZXZXZXZXZXZXDXDXDXDXZXZXZXZXDXDXDXDXDXZXZXZXCXCXbXvXjXhXdXiX9X8X4X5X5X5X4X4X4X4X4X4X4X4X4X4X4X7X4X4X4X4X4X4X4XwXwX4X4X0XiXkXkXhXdXsXsXsXgXfXjXjXjXkXkXkXvXvXvXbXCXCXZXZXZXDXDXDXDXDXFXFXFXFXFXFXFXFXHXHXDXDXDXDXFXFXDXDXDXDXDXDXDXDXDXDXDXDXDXDXDXDXDXDXDXDXFXFXFXFXFXFXFXFXFXFXFXFXGXGXGXGXGXGXGXGXGXGXGXGXGXGXGXGXFXFXFXFXFXFXFXFXFXFXDXDXDXDXZXZXZXZXZXZXZXCXCXCXCXMXMXmXmXmXmXmXvXvXvXvXkXkXkXkXkXkXkXkXjXjXjXjXjXjXjXjXjXjXjXjXjXjXjXjXjXjXjXjXkXkXkXvXvXvXbXbXbXbXMXMXMXMXMXMXMXMXMXMXCXCXCXCXCXCXCXCXCXCXCXCXCXCXZXZXZXZXZXZXZXZXZXZXDXDXDXDXZXZXZXZXZXZXZXZXZXZXCXCXbXbXvXvXkXkXjXjXfXfXsXsXtXeXeXwXwXwXwX-X-X%X-X&XOX+X+X+X+X+X{..X{.{.{.{.}.}.|.|.|.|.|._._._.`.`.`.`.E.K.J.J.J.J.H.H.H.H.H.H.L.L.B.B.B.B.B.B.B.M.B.B.B.M.N.N.n.n.j.j.j.j.j.k.d.d.a.a.a.a.a.a.a.d.d.d.a.a.d.d.d.d.d.d.d.d.d.d.d.d.g.a.a.a.a.a.i.p.p.e.e.r.r.q.8.q.8.8.8.8.8.8.7.6.6.6.6.=.=.=.=.=.=.=.*.*.*.*.*.@.*.*.*.*.*.*.*.*.*.%.%.%.O.O.O.O.%.*.*.*.*.*.*.*.*.*.*.*.*.*.*.*.%.%.%.%.O.O.%.%.%.&.O.o.o.O.%.o.o.o.{ { { [ [ ] ] ] ) ) ) ) ) ) ) ^ ^ ^ ^ ~ ^ / ) ) _ _ _ _ _ ( ~ (.U.E E F L D C C C C ",
"r i f G T ( ] ..| S d g d i u 7 6 6 4 4 6 6 6 6 6 6 6 6 7 7 7 7 7 7 7 7 u u u u u u u u u u u u i u i i i i p p p a d d d d d d f f f v k n n n m M M M S S S S D F F F F P ~ ~ ~ ~ ~ ~ / / ` ` ] [ [ X.o.O.%.*.=.=.9.w.0.7.r.i.i.f.d.j.N.M.M.M.M.M.M.C.C.C.C.C.C.C.C.C.C.G.K.K.K.K.E.E.`.`.`.`.`.`._._.|.}.{.{.}.{.{.{.{.{.{.{.{.{.{.].].].].]._._.W.W.W.W.W.T.W._.].].].].].|.{.{..XXXXX%X*X*X=X2X5X8X8X9XtXtXsXgXdXdXhXhXkXvXvXvXvXvXmXjXqX1XtXfXjXkXkXkXkXkXjXjXjXjXjXjXfXfXfXfXfXfXfXfXdXdXfXfXfXfXfXjXjXjXkXkXkXkXkXkXkXkXkXvXvXvXvXbXbXbXbXbXCXCXCXCXCXCXCXCXZXZXZXZXZXZXZXZXZXZXDXDXDXDXZXZXZXZXDXDXDXDXZXZXZXCXCXbXkXjXxXaXsX0X7X4X4X5X4X4X4X4X4X8X4X4X4X4X4X4X4X4X4X4X4X4X4X4X4X4X4X2X2X7XtXdXdXdXgXgXgXgXgXfXjXjXjXjXkXkXvXvXvXbXCXCXZXZXZXDXDXDXFXFXFXFXHXHXDXDXDXDXFXFXFXFXDXFXFXFXDXDXDXDXDXDXDXDXDXDXDXDXDXDXDXDXDXDXDXDXFXFXFXFXFXFXFXFXFXFXFXFXFXGXFXFXGXFXGXGXGXGXGXGXGXGXGXGXFXFXFXFXFXFXFXFXFXFXDXDXDXDXZXZXZXZXZXZXCXCXCXCXCXMXMXmXmXmXmXmXvXvXvXkXkXkXkXkXkXjXkXjXjXjXjXjXjXjXjXjXjXjXjXjXjXjXjXjXjXjXjXjXjXkXkXkXvXvXbXbXbXbXMXMXMXMXMXMXCXCXCXCXCXCXCXCXCXCXCXCXCXCXCXCXZXZXZXZXZXZXZXZXZXZXZXZXDXDXDXDXZXZXZXZXZXZXZXZXZXZXCXCXMXMXvXvXkXkXjXjXfXfXsXsXtXeXwXwXwXwX-X-X%X%XOXOXOX+X+X+X+X+X{..X{.{.{.{.}.}.}.|.|.|._.`._._.`.`.`.`.E.K.K.K.J.J.H.H.H.H.H.S.H.H.B.H.B.B.B.B.B.M.V.V.V.N.V.N.n.n.n.n.n.j.j.j.j.d.d.d.d.d.a.a.a.a.d.a.a.a.d.d.d.d.d.d.d.d.d.d.d.d.g.a.a.a.a.a.a.p.p.e.e.r.r.q.8.8.8.8.8.8.8.8.7.6.6.6.6.=.=.=.=.=.=.=.*.*.*.*.*.@.*.*.*.*.*.*.*.*.%.O.O.%.O.O.O.O.%.%.%.%.%.%.*.*.*.%.%.%.*.*.*.*.%.%.%.%.%.O.O.O.%.&.&.o.o.o.o.o.o.{ { { [ [ [ ] ] ] ] ] ) ) ) ) ) ^ ^ ^ ^ ~ &.[ ] ) ] ] ) ) ] | | 6XU.E E F L D D C C C ",
"u r g H | U / ..| S d g p u u 7 6 6 4 4 6 6 6 6 6 6 6 6 7 7 7 7 7 7 7 7 u u u u u u u u u u u u i u i i i i p p p d d d d d d d f f f v k n n n m M M S S S S S D F F F F P ~ ~ ~ ~ ~ ~ / / ` ` ] [ [ X.o.O.%.*.=.=.9.w.0.7.i.i.i.f.d.j.N.M.M.M.M.M.M.M.C.C.C.C.C.C.C.C.C.G.G.K.K.K.E.E.`.`.`.`._._._.].}.}.{.{.{.{.{.{.{.{.{.{.{.{.{.[.[.].].]._._._._.W.W.'.W.].].].].].].|.{.{.{..XXXXX%X*X*X=X2X5X8XeXyXtXtXsXgXdXdXhXhXkXvXvXvXvXvXvXjXqXqXtXjXjXkXjXjXjXjXjXjXjXhXhXhXfXfXdXdXdXdXdXdXdXdXdXdXdXdXdXdXdXfXjXjXjXkXkXkXkXkXkXkXvXvXvXbXbXbXbXbXCXCXCXCXCXCXCXCXZXZXZXZXZXZXZXZXZXZXDXDXDXDXDXDXDXDXZXDXDXDXZXZXZXCXvXkXhXgXtX9X9X7XqXqX4X8X4X4X4X4X4X8X7X4X4X4X4X4X4X4X4X4X4X4X4X4X4X4X4X4X2X4XeXtXsXdXsXgXgXdXfXfXjXjXjXjXkXkXvXvXvXbXCXCXZXZXZXDXDXFXFXFXFXFXHXHXDXDXDXDXFXFXFXFXDXDXFXFXDXDXDXDXDXDXDXDXDXDXDXDXDXDXDXDXDXDXDXDXFXFXFXFXFXFXFXFXFXFXFXFXFXFXFXFXGXGXGXGXGXGXGXGXGXGXGXGXFXFXFXFXFXFXFXFXFXFXDXDXDXDXDXZXZXZXZXZXCXCXCXCXMXMXmXmXmXmXmXmXvXvXkXkXkXkXkXjXjXjXjXjXjXjXjXjXjXjXjXjXjXjXjXjXjXjXjXjXjXfXjXjXjXjXkXkXvXvXMXbXbXbXMXMXMXMXMXMXCXCXCXCXCXCXCXCXCXCXCXCXCXCXCXCXZXZXZXZXZXZXZXZXZXZXZXDXDXDXDXDXZXZXZXZXZXZXZXZXZXCXCXCXMXMXvXvXkXkXjXfXfXsXsXtXeXeXwXwXwX-X-X&XOXOX+X+X+X+X+X+X+X+X{.{.{.{.{.{.{.}.|.|.|.|._.`._.`.`.`.`.Q.E.K.K.K.K.J.H.H.H.H.H.S.H.H.H.H.B.B.B.B.B.M.V.V.V.V.V.N.N.n.n.n.n.j.j.j.j.d.d.d.d.d.a.a.a.a.d.a.a.a.d.d.d.d.d.d.d.d.d.d.d.d.g.a.a.a.a.a.a.p.p.e.e.r.r.8.8.8.8.8.8.8.7.6.6.6.6.=.=.=.=.=.=.*.@.*.*.*.*.*.@.*.%.O.O.O.O.%.%.%.O.O.O.O.O.O.O.O.O.O.O.O.O.O.%.%.%.%.%.%.*.*.*.*.%.%.%.%.%.%.%.%.&.&.o.o.o.o.o.o.o.{ { [ [ [ ] ] ] ] ] ) ) ) ) ) ) ^ ^ ^ / ` D.o.] } | | } } } | ( U.6XU.F F L D D C C C ",
"e e f H | P ~ } | S d d i u 9 6 6 6 6 6 6 6 6 6 6 6 6 6 7 7 7 7 7 7 9 9 9 9 u u u u u u u u u u i i u u i i p p p p d d d d d d f f v v n n n n m M M S S S S D F F F F P P ~ ~ ~ ~ ( / / / ` ` ] [ [ X.o.O.*.*.;.=.w.0.0.0.i.i.i.d.d.n.N.M.M.M.M.M.M.M.C.C.L.L.C.C.C.C.G.G.F.F.K.K.E.`.`.`._._._.].|.}.{.{.{.{..X.X.X{..X{..X{.{.{.{.[.[.[.].].].'.'.'.'.'.'.'.].].].[.{.{.{.{.{..X.XXX#X%X=X=X=X2X5XeXtXyXtXsXgXdXdXjXjXjXvXvXvXvXvXvXvXkXqXqXtXfXjXjXjXkXjXjXjXjXhXhXhXhXdXdXdXdXdXdXdXdXdXdXdXdXdXdXdXdXfXdXhXhXjXjXkXkXkXkXkXkXvXvXvXbXbXbXBXBXCXCXCXCXCXCXZXZXZXZXZXZXZXZXZXDXDXDXDXDXDXDXDXDXDXDXDXDXDXDXZXZXCXbXkXxXaX9X8X5X4X4X4X7X7X7X7X4X4X4X8X8X8X8X4X4X4X4X5X5X5X5X5X5X4X4X4X4X4X4X4X4XeXtXtXsXsXsXgXdXfXhXhXhXkXkXkXkXvXvXvXbXCXCXZXZXZXDXDXFXFXFXFXFXHXHXDXDXDXDXDXDXDXFXFXFXFXFXDXDXDXDXDXDXDXDXDXDXDXDXDXDXDXDXDXDXDXDXFXFXFXFXFXFXFXFXFXFXFXFXGXGXGXGXGXGXGXGXGXGXGXGXGXGXGXGXFXFXFXFXFXFXFXFXFXFXDXDXDXDXDXDXZXZXZXZXCXCXCXCXCXMXMXMXmXvXvXvXvXvXkXkXjXjXjXjXjXjXjXjXjXjXfXfXfXfXfXfXjXfXfXfXfXfXfXfXfXfXfXjXjXjXkXkXvXvXbXbXbXbXMXMXMXMXMXMXMXMXMXMXCXCXCXCXCXCXCXCXCXCXCXCXZXZXCXZXZXZXZXZXDXDXDXZXDXDXDXDXZXZXZXZXZXZXZXZXZXZXCXCXMXMXmXvXkXkXjXfXfXdXsXtXeXwXwXwX-X-X-X&X+X+X+X+X+X+X+X.X.X.X}.|.|.|.{.{.}.}.|.]._._.`.`.`.`.`.`.`.E.K.H.J.J.J.H.H.H.H.H.S.S.B.B.B.B.B.B.B.B.M.M.M.M.M.M.B.B.M.N.n.n.n.n.n.j.j.j.d.d.d.a.a.a.a.a.a.a.a.a.d.d.d.d.d.d.d.d.d.d.d.d.d.d.d.a.a.a.a.p.p.e.e.r.8.8.8.7.8.6.6.6.6.6.6.6.=.=.=.=.*.*.*.*.*.*.*.*.*.*.*.*.%.O.O.O.%.%.%.%.%.%.O.O.O.%.O.O.O.O.O.O.%.&.&.&.%.%.%.%.%.%.%.%.%.%.%.%.%.&.&.o.o.o.o.o.o.{ { { { { { ] ] ] ] ] ] ) ) ) ) ) ) ) ) ^ ^ ^ / / b.:.} } ] ` ) ] ) ( ( | U.1.P P L D D C C C ",
"p t s T ,.U F / ~ S d p i u 7 6 6 6 6 6 6 6 6 6 6 6 6 6 7 7 7 7 7 7 9 9 9 9 u u u u u u u u u u i i i i p p p p p p d d d d d d f f v v k n n n m M M V S S S D F F F F P P ~ ~ ~ ~ / / / / ` ` ] [ [ X.o.%.*.*.=.=.w.q.0.0.i.i.i.d.d.n.N.M.M.M.M.M.L.L.L.L.L.L.C.C.C.C.G.G.F.F.K.K.E.`.`.`._._.].].|.{.{.{.{.{..X.X.X{..X{.{..X{.{.{.[.[.[.].].].'.'.].'.'.].'.].].[.{.{.{.{.{..X.XXX+X%X*X=X=X2X3X5XeXeXtXtXsXgXdXdXjXjXjXkXvXvXvXvXvXvXkX7XqXtXfXjXjXkXjXhXhXhXhXdXdXdXdXdXdXdXdXdXdXdXdXgXgXdXdXgXdXdXdXdXdXhXhXjXxXjXjXjXjXkXkXkXvXvXbXbXbXBXBXCXCXCXCXCXCXZXZXZXZXZXZXZXZXDXDXDXDXDXDXDXDXDXDXDXDXDXDXDXDXZXCXbXkXxXiX7X4X3X3X3X2X4X7XyX7X7X4X4X4X8X8X8X8X7X7X4X4X5X5X5X5X5X5X4X4X4X4X4X4X7XyXeXtXsXsXsXgXdXdXfXhXhXhXlXkXkXkXvXvXvXbXCXCXZXZXZXDXDXFXFXFXFXFXHXHXDXDXFXFXDXDXDXFXFXFXFXFXDXDXDXDXDXDXDXDXDXDXDXDXDXDXDXDXDXDXDXDXFXFXFXFXFXFXFXFXFXFXFXFXGXGXGXGXGXGXGXGXGXGXGXGXGXGXGXGXFXFXFXFXFXFXFXFXFXFXDXDXDXDXDXDXZXZXZXZXCXCXCXCXMXMXMXMXmXvXvXvXvXvXvXkXjXjXjXjXjXjXjXjXjXfXfXfXfXfXfXfXfXfXfXfXfXfXfXgXgXgXfXfXjXjXjXkXvXvXbXbXbXbXMXMXMXMXMXMXMXMXMXMXCXCXCXCXCXCXCXCXCXBXCXCXCXCXCXZXZXZXZXZXDXDXDXDXDXDXDXDXDXZXZXZXZXZXZXZXZXZXCXCXMXmXmXmXkXkXjXfXdXsXtXeXwXwX-X-X&X&X+X.X.X{.{..X.X.X.X.X.X.X{.|.|.{.{.{.}.}.|._._._.`.`.`.`.`.`.`.E.K.K.J.J.J.H.H.H.H.H.S.S.B.B.B.B.B.B.B.B.M.M.M.M.M.M.M.B.M.N.n.n.n.n.n.j.j.j.d.d.d.a.a.a.a.a.a.a.a.a.d.d.d.d.d.d.d.d.d.d.d.d.d.d.d.a.a.a.a.p.p.e.e.q.8.8.7.8.6.6.6.6.6.6.6.=.=.=.=.*.*.@.@.*.*.@.*.*.*.*.*.%.O.O.O.O.O.O.O.O.O.O.O.O.O.O.O.O.O.o.O.O.+.o.O.+.+.+.&.&.O.O.O.O.%.%.%.o.&.o.o.o.o.o.{ { { { } } { ] ] ] ] ] ] ) ) ) ) ) ) ) / / ^ ^ ^ ^ I F :.b.] ] ( ^ ^ ^ ~ ~ ^ | ( / ^ P L D D C C C ",
"p t s H | T F ~ ~ S f a u u 7 6 6 4 4 4 6 6 6 6 6 6 6 6 7 7 7 7 9 9 9 9 u u u u u u u u u u u u i u i i p p p p p d d d d d d d f f v v n n n n m M M S S S S D D F F P P P ~ ~ ~ ~ / / / / ` ` ] [ [ o.O.%.*.=.=.6.w.q.t.i.i.a.f.d.d.n.M.M.B.L.L.C.L.L.L.L.L.L.C.C.H.G.G.F.F.K.E.E.`.`.`._._.|.|.|.{.{.{.{.oX.X.X.X.X.XoX.X.X.X}.}.{.{.{.{.{.{.].].].].{.].[.].].].{.{.{.{.{..X.X.XOX%X%X=X3X1X2X3X5XeXtXtXtXsXdXdXfXjXjXkXkXvXvXvXvXvXvXkX0X7XsXfXjXjXkXkXjXjXhXhXhXhXdXdXdXdXdXaXaXgXaXaXgXgXgXgXgXgXgXdXgXdXdXdXhXxXjXjXjXjXkXkXkXvXvXbXbXbXBXBXCXCXCXCXCXCXZXZXZXZXDXZXZXZXDXDXDXDXDXDXDXDXDXDXDXDXDXDXDXZXZXbXvXhXsX7X4X1X=X*X-X2XeXeXtXyX0X7XeXwX8X8X0X8X8X8X4X4X5X5X5X5X5X5X4X4X4X4X4X7X7XtXdXdXdXdXdXgXdXdXfXhXhXhXkXkXkXkXvXvXvXbXCXCXZXZXZXDXDXFXFXFXFXFXHXHXFXFXFXFXDXDXDXHXFXFXDXDXDXDXDXDXDXDXDXDXDXDXDXDXDXDXDXDXDXDXDXDXFXFXFXFXFXFXFXFXFXFXFXFXGXGXGXGXGXGXGXGXGXGXGXGXGXGXGXGXFXFXFXFXFXFXFXFXFXFXDXDXDXDXDXDXZXZXZXZXCXCXCXCXMXMXMXmXmXbXvXvXvXvXvXkXjXjXjXjXjXjXjXjXfXfXfXfXfXfXfXfXfXfXgXgXfXgXgXgXgXgXgXfXjXjXjXkXkXvXvXvXbXbXMXMXMXMXMXMXMXMXMXMXCXCXCXCXCXCXCXCXZXZXZXZXZXZXZXZXZXZXZXZXDXDXDXDXDXDXDXDXDXZXZXZXZXZXZXZXZXZXCXCXMXmXmXvXkXkXjXfXsXtXeXwX3X-X&XOX+X+X+X+X{.{.{.{..X.X.X.X.X.X{.|.|.{.{.{.}.|.|._._.`.`.`.`.`.`.`.`.K.K.K.J.J.J.H.H.H.H.H.S.S.B.B.B.B.B.B.B.B.M.M.M.M.M.M.M.N.N.N.n.n.n.n.n.j.j.j.k.k.k.d.a.a.a.a.a.a.a.a.d.d.d.d.d.d.d.d.d.d.d.d.d.d.d.d.a.a.a.p.e.e.e.q.8.8.7.7.6.6.6.6.6.6.6.=.=.=.*.*.@.@.@.@.*.*.*.*.*.*.*.%.O.O.O.O.O.O.O.O.O.O.o.o.O.O.O.O.&.o.o.o.&.&.&.&.o.o.o.o.o.o.o.o.o.o.o.o.o.{ { { { { { { { { ] ] ] ] ] ] ] ) ) / ) ) ) ) / / / / ^ ^ ^ ^ ^ P ) ..} ^ ~ ~ I P L F L ( } ~ L P L L D C C C ",
"h e a Z G G P / ~ S d p u u 6 6 4 4 4 4 6 6 6 6 6 6 6 6 7 7 7 7 7 9 9 9 u u u u u u u u u u u u i u i i p p p p p d d d d d d f f f v n n n n n m M M S S S S D D F F P P P ~ ~ ~ ~ ~ / / / ` ` ] [ [ o.O.%.*.*.=.6.w.q.t.i.i.a.d.d.d.n.M.M.L.L.L.L.L.H.H.H.H.H.C.H.H.G.F.F.F.K.E.E.`.`._._._.|.|.|.{.{.{.{..X.X.X.X.X.XoX.X.X.X}.}.{.{.{.{.{.{.{.{.{.{.{.[.[.[.].[.{.{.}.oX.X.X.X.XOX%X%X=X3X3X2X3X5XeXtXtXtXsXdXdXfXjXjXkXkXvXvXvXvXvXvXjX0X7XtXjXjXjXkXlXjXjXhXhXhXhXdXdXdXdXaXaXgXgXgXgXgXgXgXgXgXgXgXdXgXgXdXdXfXxXjXjXjXjXkXkXkXvXvXbXbXbXBXBXCXCXCXCXCXCXZXZXZXZXDXZXZXZXDXDXDXDXDXDXDXDXDXDXDXDXDXDXZXZXCXvXkXfX0X2X1X*X%X&X-X3XeXtXtXtXyX7X7XwXeX8XeX0X8X8X4X4X5X5X5X5X5X5X4X4X4X4X7X7XrXsXdXfXfXfXdXdXdXdXfXhXhXhXkXkXkXkXvXvXvXbXCXCXZXZXZXDXDXFXFXFXFXFXFXFXFXFXFXFXDXDXDXHXHXFXDXDXDXDXDXDXDXDXDXDXDXDXDXDXDXDXDXDXDXDXDXDXDXFXFXFXFXFXFXFXFXFXFXFXGXGXGXGXLXLXGXGXGXGXGXGXGXGXGXGXFXFXFXFXFXFXFXFXFXFXDXDXDXDXDXDXDXZXZXZXCXCXCXCXMXMXMXmXmXbXvXvXvXvXvXkXjXjXjXjXjXjXjXjXfXfXfXfXfXfXfXfXfXfXgXfXfXgXgXgXgXgXgXfXjXjXjXkXkXvXvXvXbXbXMXMXMXMXMXMXMXMXMXCXCXCXCXCXCXCXCXCXZXZXZXZXZXZXZXZXZXZXZXZXDXDXDXDXDXDXDXDXZXZXZXZXZXZXZXZXZXCXCXCXMXmXmXvXkXkXjXfXtXeXwX3X-X&X+X+X+X+X{.+X.X.X.X{..X.X.X.X.X.X{.|.|.|.{..X}.|.|._.`.`.`.`.`.E.`.`.I.K.K.K.J.H.J.H.H.H.H.H.S.S.B.B.B.B.B.B.B.B.M.M.M.M.M.M.N.N.N.N.V.n.n.n.n.j.j.j.k.k.k.d.a.a.a.a.a.a.a.a.d.d.d.d.d.d.d.d.d.d.d.d.d.d.d.d.a.a.a.p.p.e.e.q.8.8.7.7.6.6.6.6.6.=.6.=.=.=.*.*.@.@.@.@.*.O.O.O.O.O.%.%.O.O.O.O.O.O.O.O.O.o.o.o.o.O.o.o.o.o.o.o.&.o.o.o.o.o.o.o.o.o.o.o.o.o.o.{ { { [ [ [ [ [ ] ] ] ] ] ] ] ] ] ) ) ) / ) / ) ) / / / / ^ ^ ^ ^ ^ ^ ^ ) ^ P I I L L L D L ^ ^ I I P L L D C C C ",
"p i a k m M F ( ( S f p u 9 6 6 4 4 4 4 4 4 4 4 6 6 6 6 6 7 e u u u 9 9 u u u u u u u u u u i i i i p p p p a a d d d d d d f f f f n n n n m m M M V S S D D D D F F P P ~ ~ ~ ~ ^ / / / ` ` ] [ [ X.o.O.%.*.=.=.6.w.0.i.i.i.d.d.d.d.n.M.M.L.L.C.C.H.L.G.H.H.H.H.H.J.H.F.F.K.E.E.E.`.`._.].|.|.|.|.{.{.{.{..X.X.X.X.X.X.X.X.XoX.X.X{.{.{.{.{.{.}.}.{.{.{.{.{.{.{.{.{..X.X.XoX.X.X+XOX%X%X-X3X3X3X5X5XeXeXyXsXdXdXfXfXjXjXkXvXvXkXkXkXvXvXjX0X7XtXfXjXjXjXjXhXhXhXhXdXdXdXdXdXdXdXaXaXgXsXsXsXsXsXsXsXsXsXsXgXgXgXdXdXdXjXjXjXjXkXkXkXvXvXbXbXbXBXbXCXCXCXCXCXCXZXZXZXZXZXZXDXDXDXDXDXDXDXDXDXDXDXDXDXDXDXDXDXAXBXnXhXsX5X=X*X%X%X&X-X3X5XeXtXsX9X7X8XeXeXeXeXeXeX8X8X4X5X5X4X4X4X4X4X4XeXyXeXtXtXaXdXfXfXfXdXdXdXdXfXjXjXjXkXkXkXkXvXvXvXbXCXCXZXZXZXDXDXFXFXFXFXFXFXFXFXFXFXFXFXFXFXFXHXHXHXDXDXDXDXDXDXDXDXDXDXDXDXDXDXDXDXDXDXDXDXDXDXDXDXDXFXFXFXFXFXFXFXGXGXGXGXGXGXLXGXGXGXGXFXFXFXFXFXFXFXFXFXFXFXFXHXHXDXDXDXDXDXDXDXDXDXZXZXCXCXCXCXMXMXMXmXmXbXvXvXvXvXvXkXkXkXjXjXjXjXjXfXfXfXgXgXfXfXfXfXfXfXfXfXfXfXfXgXgXgXfXfXfXjXjXjXkXkXvXvXvXvXvXbXbXMXMXMXMXMXMXCXCXCXCXCXCXCXCXCXCXZXZXZXZXAXAXZXZXZXDXDXDXDXDXZXDXDXDXDXZXDXZXZXZXZXZXZXZXZXCXCXMXbXvXvXvXkXjXjXsXeXwX-X%XOX+X+X+X{.}.}.{..X{.{.{.oX+X+X+X{.{.{.|.|.|.{.{.}.|._._._.`.`.`.`.`.`.`.I.K.K.K.H.H.H.H.H.H.H.H.H.B.B.B.B.B.B.B.B.B.B.B.N.N.N.N.M.M.M.N.n.n.n.n.n.n.n.n.j.j.j.d.d.d.d.d.a.d.d.d.d.d.d.d.d.d.d.d.d.d.d.d.d.d.d.d.a.a.p.p.p.p.e.e.8.7.8.w.6.6.6.6.6.6.=.=.=.=.*.@.@.@.@.@.%.%.%.%.O.%.%.O.O.O.O.O.O.O.O.O.o.o.o.o.o.o.o.o.o.o.o.o.o.o.o.o.{ { o.o.o.o.o.o.{ { { { { [ [ [ [ ] ] ] ] ] ] ] ] ] ] ) ) / / / ) / / / / / ^ / ^ ^ ^ I ~ ^ I I P P P P P L D D D I _ I P P P L D C V V ",
"a g f s s f M ( ( S f p u 7 6 6 4 4 4 4 4 4 4 4 6 6 6 7 7 7 u u u u 9 9 u u u u u u u u u u i i i i p p p p a a d d d d d d f f f f n n n n m m m M V S S D D D D F F P P ~ ~ ~ ~ ^ / / / ` ] [ [ X.o.O.%.*.*.=.w.w.q.t.p.i.d.d.d.n.n.n.M.B.L.L.C.C.H.H.H.H.H.H.J.J.K.J.F.J.K.E.`.`.`._._.].|.}.|.}.{.{.{.{..X.X.X.X.X.X.X.X.X.X.X.X.X.X{.{.{.{.}.}.{.{..X{..X.X{..XoX+X+X.X+X+X+XOX%X%X-X-X3X3X3X5XwXeXeXtXsXdXdXfXfXjXjXkXvXvXkXkXkXvXvXjX0X7XtXfXjXjXjXjXhXhXhXhXdXdXdXdXdXdXdXaXgXsXtXtXsXsXsXsXsXsXsXsXgXgXgXdXdXdXjXjXjXjXkXkXkXvXvXbXbXbXbXbXCXCXCXCXCXCXZXZXZXZXZXZXDXDXDXDXDXDXDXDXDXDXDXDXDXDXDXDXDXZXMXkXaX8X1X=X%X%X&X%X-X1X2X8X9XtX9X7X8X5XeXeXeXeXeX8X8X4X5X5X4X4X4X4X4X4XeXrXrXtXaXdXdXhXfXfXdXdXdXdXfXjXjXjXkXkXkXkXvXvXvXbXCXCXZXZXZXDXDXFXFXFXFXFXFXFXFXFXFXFXFXFXFXFXHXDXHXDXDXDXDXDXDXDXDXDXDXDXDXDXDXDXDXDXDXDXDXDXDXDXFXFXFXFXFXFXFXGXGXGXGXGXGXGXLXLXGXGXGXGXFXFXFXFXFXFXFXFXFXFXFXFXHXHXDXDXDXDXDXDXDXDXDXDXZXZXCXCXCXMXMXMXmXmXbXvXvXvXvXvXkXkXjXjXjXjXjXjXfXfXgXgXgXgXfXfXfXfXfXfXfXfXfXgXgXfXfXfXfXfXjXjXjXkXkXvXvXvXvXvXbXbXMXMXMXMXMXMXCXCXCXCXCXCXCXCXCXZXAXAXZXZXAXAXZXZXDXDXDXDXDXDXZXZXDXDXZXZXZXZXZXZXZXZXZXZXCXCXCXMXbXvXvXvXkXkXfXtXeX2X*XOX+X+X+X+X{.}.}.}.{.{.{.{.oX+X+XoX{.{.{.|.|.|.{.{.}.|.`._.`.`.`.`.`.E.`.E.K.K.K.K.K.H.H.H.H.H.H.H.H.B.B.B.B.B.B.B.B.B.B.B.N.N.N.N.M.M.M.N.n.n.n.n.n.n.n.n.j.j.j.d.d.d.d.d.a.a.a.d.d.d.d.d.d.d.d.d.d.d.d.d.d.d.d.d.a.a.p.p.p.p.e.e.8.8.8.w.w.6.w.=.6.=.=.=.=.*.*.*.@.@.@.*.%.%.%.%.O.O.O.O.O.o.o.o.o.o.o.o.o.o.o.o.o.o.o.o.o.o.o.o.o.o.o.{ { { { { { { { [ { [ { [ [ [ [ ] ] ] ] ] ] ] ] ] ) ) ) ) / / / / ^ ^ ^ ^ ^ ^ ^ ^ ^ ^ ^ I ~ I I I I I I I I L D D D I _ ^ I P P L D C V V ",
"a N n f a a k G ( S f u e 7 6 4 4 4 4 4 4 4 4 6 6 8 7 7 7 u p p u u u u u u u u u u u u u u i i p p p p p p d d d d d d d d f f f n n n n n m m M V V S D D D F F F F F P ~ ~ / ^ ^ / / ` ] [ [ [ o.o.%.%.*.;.;.w.w.y.p.a.i.d.j.n.n.n.n.B.B.L.L.C.C.H.H.H.H.H.H.J.J.K.H.K.K.E.E.E.E.`._._.].].}.}.}.{.{.{.{.+X+X.X.X+X+X+X+X.X.XoXoXoXoX.X.X{.{..X.X.X.X.X.X.X.X.X.X.XXX+X+X+X+XOXOX&X&X=X3X3X5X3X5XwXeXeXyXsXdXfXfXfXjXjXkXvXvXkXkXkXvXvXhX0X7XsXfXjXjXjXhXhXhXhXdXdXdXdXdXaXaXsXsXsXsXtXtXtXtXaXaXrXrXsXsXsXsXrXaXdXdXjXjXjXjXkXkXkXvXvXbXbXbXBXbXCXCXCXCXCXCXZXZXZXZXZXZXZXDXZXZXDXDXDXDXDXDXDXDXDXDXDXDXDXAXCXlX0X1X$X=X%X%XOX%X%X*X1X6X8X8X0X0X8X5X4X4X7X7X8X8X8X8X5X5X4X4X4X4XeXeXyXtXaXsXaXdXdXfXfXfXdXdXdXdXfXjXjXjXkXkXkXvXvXvXvXbXCXCXZXZXZXDXDXFXFXFXFXFXFXFXFXFXFXFXFXFXFXFXHXDXFXFXDXDXDXDXDXDXDXDXDXDXDXDXDXDXDXDXDXDXDXDXFXFXHXHXFXFXFXFXGXGXGXGXGXGXLXGXLXLXLXGXGXGXFXFXFXFXFXFXFXFXFXFXFXFXHXHXDXDXDXDXDXDXDXDXDXDXZXZXCXCXCXMXMXMXMXMXbXbXvXvXvXvXkXkXkXjXjXfXfXfXfXfXgXgXgXgXgXgXgXgXfXfXfXfXfXfXfXfXfXfXfXfXfXjXjXkXkXvXvXvXvXvXbXbXMXMXMXMXCXMXCXCXCXCXCXCXCXCXCXZXZXZXZXZXZXZXZXZXDXDXDXDXDXDXZXZXDXDXZXZXZXZXZXZXZXZXZXZXCXCXCXMXbXvXvXkXkXjXgXrX4X;X%XOXOX+X+X.X.X{.{.{.{.{..X.X+X+X+XoX{.{.{.|.|.|.{.{.|.|._.`.`.`.`.`.`.E.`.E.K.K.K.K.K.H.H.H.H.H.H.H.H.H.L.B.B.B.B.B.B.B.B.B.N.N.N.N.N.N.N.N.n.n.n.n.n.n.n.n.j.j.j.d.d.d.d.d.a.a.a.d.d.d.d.d.d.d.d.j.j.j.j.j.d.d.d.d.a.a.p.p.p.p.e.e.8.8.8.6.6.6.6.=.=.=.=.=.=.*.*.@.@.@.@.O.O.O.%.%.O.O.O.O.O.o.o.o.o.o.o.o.o.o.o.o.o.o.o.o.o.o.o.o.o.o.{ { { { { { [ [ [ [ [ [ [ [ [ [ [ ] ] ] ] ] ] ] ] ] ) ) ) ) / / / / ^ ^ ^ ^ ^ ^ ^ ^ ^ ~ ^ I ~ ~ I I I P P P I P D D D I _ ^ I P P U L C V V ",
"d A S f a a n G ( A f u 7 6 6 4 4 4 4 4 4 4 4 6 6 8 7 7 e u p p u u u u u u u u u u u u u u i i p p p p p a d d d d d d d f f f f k n n n n m m M V S S D D D F F F F F ~ ~ ~ / ^ / / ` ] ] [ [ X.o.O.%.*.;.;.;.w.w.y.p.a.f.d.l.n.n.n.V.B.M.L.L.C.C.H.H.H.H.K.K.J.J.K.J.K.K.E.`.`.`.`._._.].].}.}.{.{.{.{.oXoX+X.X.X+X+X+X+X.X.XoXoXoXoX.X.X.X.X.X.X.X.X.X.XXXXX.XXXXXOXOXOXOXOXOX%X&X-X1X3X5X5X5X5XeXeXeXyXsXdXfXfXfXjXjXkXvXvXkXkXvXvXvXhX0X7XsXfXjXjXhXhXhXhXdXdXdXdXdXaXaXaXsXsXsXtXtXtXtXtXtXsXtXtXtXtXtXtXtXaXdXdXfXjXjXjXkXkXkXvXvXvXbXbXbXbXBXCXCXCXCXCXZXZXZXZXZXZXZXDXZXDXDXDXDXDXDXDXDXDXDXDXDXDXDXDXCXhXqX@X$X$X&X%X%X%X%X%X*X6X6X5X8X8X5X4X4X4X4X4X4X4X8X8X5X5X4X4X7X7XeXyXtXsXgXaXdXdXfXfXfXfXdXdXdXdXfXjXjXkXkXkXkXvXvXvXbXbXCXCXZXZXZXDXDXFXFXFXFXFXFXFXFXFXFXFXFXFXFXFXHXFXFXFXDXDXDXDXDXDXDXDXDXDXDXDXDXDXDXDXDXDXDXDXFXFXFXHXFXFXFXFXGXGXGXGXGXGXGXLXLXLXLXLXGXGXGXFXFXFXFXFXFXFXFXFXFXFXHXHXDXDXDXDXDXDXDXDXDXDXZXZXCXCXMXMXMXMXMXMXbXbXvXvXvXvXkXkXkXjXjXfXfXfXgXgXgXgXgXgXgXgXgXgXfXfXgXgXfXfXfXfXfXfXfXfXfXfXjXkXkXkXvXvXvXvXbXbXbXMXMXMXCXCXCXCXCXCXCXCXZXCXCXZXZXZXZXZXZXZXZXZXDXDXDXDXDXDXDXDXDXDXZXZXDXZXZXZXZXZXZXCXCXCXCXbXbXvXvXkXjXfXsXyX2X;X*X%X+X+X+X.X.X.X.X{.{.+X.X.X+XoXoX.X{.{.{.|.|.|.{.{.|.|._._.`.`.`.E.E.E.K.K.K.K.K.K.K.K.H.H.H.H.H.H.H.H.L.B.B.B.B.B.B.B.B.B.N.N.N.N.N.N.N.N.n.n.n.n.n.n.n.n.n.j.j.d.d.d.d.d.a.a.a.d.d.d.d.d.d.d.d.d.j.j.j.j.d.d.d.d.a.a.p.p.p.p.e.q.q.8.8.6.6.6.6.=.=.=.=.=.*.*.*.*.*.*.*.O.O.O.O.O.O.O.O.O.O.o.o.o.o.o.o.o.o.o.o.o.o.o.o.o.o.o.o.{ { { { { { { { [ [ [ [ [ [ [ [ ] ] ] ] ] ] ] ] ] ] ] ) ) ) _ _ / / / / / ^ ^ ^ ^ ^ ^ ^ ^ ^ ~ ^ I ~ ~ I I I P P P P P D D D I _ ^ I P P L D D C V ",
"a G E M f f M G G A d e 7 6 6 4 4 4 6 4 4 4 6 6 6 8 7 7 u i p i u u u u u u u u u u i i i p p p p a a a d a d d d d f f f f f f k n n n m m m m M V S S D F D F F F P P ~ ~ ^ ^ / / / ] ] [ [ [ o.o.O.%.*.;.;.w.w.w.y.a.i.a.d.l.n.n.V.V.M.M.C.C.G.H.H.H.H.H.J.J.J.J.J.J.K.E.Q.W.W.`.`.`._.].].}.}.}.{.{.{.{.oXoXoXoX.X.X.X.X.X.X.X.X.X.X.X.X.X.X.X.X.X.X.XXXXX+XXXXXXX#X&X&X&X&X&X&X&X-X3X3X3X5X5X5XeXeXyXtXsXdXgXgXfXjXjXhXkXkXkXkXkXvXvXhX0XyXsXfXjXjXhXhXfXfXdXdXaXaXaXsXsXsXiXtXtXtXyX9XyXyXyX9X9X9XtXtXtXyXyXrXsXgXdXdXjXjXjXjXkXkXvXvXbXbXbXbXBXBXCXCXCXCXCXCXZXZXZXZXDXDXDXDXDXDXDXDXDXDXDXDXDXDXDXDXDXDXCXlX0X@X@X$X%X%XOX%X%X%X*X*X1X2X2X5X5X5X4X4X4X4X5X5X5X5X5X5X7X4X7X0X9XtXsXaXdXdXfXfXfXdXdXdXdXfXfXfXjXjXjXkXvXvXvXvXvXvXvXbXCXZXZXZXZXDXDXFXFXFXFXFXFXFXFXFXFXFXFXFXFXFXDXDXDXFXDXDXDXDXDXDXDXDXDXDXDXDXDXDXDXDXDXDXDXDXFXFXHXHXDXDXFXFXFXFXGXGXGXGXGXLXGXGXGXGXGXGXFXFXFXFXFXFXFXFXGXGXFXFXHXHXDXDXDXDXDXDXDXDXDXDXZXZXCXCXMXMXMXmXmXMXmXvXvXvXvXvXkXkXkXjXjXfXfXgXgXgXdXdXdXdXfXgXgXgXgXgXgXgXdXdXfXfXfXfXfXfXfXfXjXjXjXkXvXvXvXvXbXbXMXbXMXMXMXMXCXCXCXCXCXCXZXZXZXZXZXZXZXZXZXDXDXDXDXDXDXDXDXDXDXDXDXDXZXZXZXZXZXZXZXZXCXCXCXCXCXbXvXvXkXkXjXfXsXyX2X1X-X*X%XOXOX+X+X+X+X+X+X+X+X+X.X.XoX.X{.{.|.|.|.|.{.{.|._._.T.`.`.`.`.E.K.K.K.K.K.K.K.K.K.H.H.H.S.H.H.B.B.B.B.B.B.B.B.B.B.B.V.N.N.N.N.N.N.N.n.n.n.n.n.n.n.n.n.l.l.j.j.k.d.d.d.f.a.f.f.d.d.d.d.d.d.n.n.j.j.d.d.d.d.d.d.a.p.p.p.p.p.p.q.8.w.w.6.6.;.=.=.=.=.=.*.*.*.*.%.%.%.%.O.O.O.O.O.O.%.%.&.o.o.o.o.o.o.o.o.o.{ { { { { { { { { { { { { { { [ ] ] ] ] ] ] ] ] ] ] ] ] ] ] ] ] ) ) ) ) ) / / / / / / ^ ^ ^ ^ ^ ^ ^ ^ ^ ^ ^ ( ^ ~ ~ I ~ I I I P P P I I I D D D I ( ^ I I P L C C C C ",
"a G ( S M M S F F A d e 6 6 6 4 4 4 6 6 4 4 6 6 8 7 7 e e u u u u u u u u u u u u u i i p p p p a a a a a a d d d d f f f f f f k n n n m m m m M V S S D D F F F P ~ ~ ~ ^ / / / ) ] } [ [ [ { o.O.%.*.;.;.w.w.w.w.p.a.a.a.d.l.n.n.V.V.M.M.C.C.G.H.H.H.H.H.J.J.J.J.J.J.K.E.W.W.`.`.`._.].].].}.}.}.{.{.{.{.oXoXoXoX.X.X.X.X.X.X.X.X.X.X.X.X.X.X.X.X.X.XXXXXXXOXXX#X&X&X&X&X&X&X&X&X-X-X3X5X5X5X5X8XeXeXyXtXdXdXdXdXfXjXjXjXkXkXkXkXkXvXvXhX0XyXsXsXfXhXhXfXdXdXdXgXaXsXsXsXtXtXtXtXtXtX9X9XyXyXyXyX9X9XtXyXyXyXyXyXsXsXgXdXfXjXjXjXkXkXvXvXbXbXbXbXBXBXCXCXCXCXCXCXZXZXZXZXZXDXDXDXDXDXDXDXDXDXDXDXDXDXDXDXDXDXCXkXtX1X$X*X%X%X%X%X%X%X*X*X*X*X-X3XwX5X4X4X4X4X5X5X5X5X5X5X7X7X7X7X9XsXdXdXfXfXfXfXdXdXdXdXfXfXfXjXjXjXjXkXvXvXvXvXvXvXbXbXCXCXZXZXZXDXDXFXFXFXFXFXFXFXFXFXFXFXFXFXFXFXDXDXDXDXDXDXDXDXDXDXDXDXDXDXDXDXDXDXDXDXDXDXDXDXFXFXHXFXHXDXFXFXFXFXGXGXGXGXLXGXGXGXGXGXGXGXFXFXFXFXFXFXFXFXFXGXFXFXHXHXDXDXDXDXDXDXDXDXDXZXZXZXCXMXMXMXmXmXmXMXmXvXvXvXvXvXkXkXkXjXjXfXgXgXgXgXdXdXdXsXsXsXgXgXdXgXgXdXdXdXdXdXgXgXfXfXfXfXjXjXjXkXvXvXvXvXbXbXMXMXMXMXMXMXCXCXCXCXCXCXZXZXZXZXZXZXZXZXDXDXDXDXDXDXDXDXDXDXDXDXDXDXZXZXDXDXZXZXZXCXCXCXCXBXMXbXvXkXkXjXjXfXuXeX4X2X2X=X*X*X%XOXOX+X+X+X+X+X+X+X.X.X.X.X{.{.}.|.|.|.{.{.|._._._.`.`.`.E.E.K.K.K.K.K.K.K.H.H.H.S.S.B.B.B.B.B.B.M.B.B.M.M.V.V.N.N.n.n.n.n.n.n.n.n.n.n.n.n.n.n.n.n.l.l.j.j.k.d.d.d.f.a.f.f.d.d.d.d.d.d.n.n.j.j.d.d.d.d.d.d.a.p.p.p.p.p.q.w.w.6.6.6.=.=.=.=.*.*.*.*.*.%.%.%.O.O.O.O.O.o.o.o.o.o.o.o.o.o.o.o.o.o.o.o.{ { [ [ [ [ [ [ [ [ [ [ { { { [ ] ] ] ] ] ] ] ] ] ] ] ) ) ) ) ) ) ) / / ^ ^ ^ ^ ^ ^ ^ ^ ^ ^ ^ ^ ^ ^ ^ ^ ^ ^ ^ ^ ~ ~ ~ I ~ I I I P P P I I I D D D I ( ^ I I P D C C C C ",
"a H ( S M S F ( ( A d e 8 6 4 4 4 4 6 6 4 4 6 6 6 7 7 e u i i u i i u u u i i i i i i i p p p p a a d d d d d d d d f f f f f v n n n m m M M B V V S S D D D L P ~ ~ ^ ~ ~ / / ` ] } } [ { +.o.O.%.*.*.;.;.w.w.w.q.p.a.d.d.j.n.n.n.V.B.M.M.H.G.G.H.H.H.H.H.J.J.J.J.K.J.K.E.W.W.`.`.`._.].].].}.}.{.{.}.{.{.+X+X+X+X.X.X.X.X.X.X.X.X+X+X+X+X+X+X+X+XXX+XOXOX&X&X&X%X&X=X=X=X=X-X-X-X-X3X3X5X5X5X5XeXeXeXyXtXgXgXdXdXfXjXjXjXjXkXkXkXkXvXvXhX0XyXsXfXfXfXfXdXdXdXgXgXsXsXtXtXtXtXtXyXyXyX9X9X9XyX9X9X9X9XyXyXtXtXtXyXtXsXgXdXfXjXjXjXjXkXvXvXvXbXbXbXbXbXCXCXCXCXCXCXCXZXZXZXZXDXZXDXDXDXDXDXDXDXDXDXDXDXDXDXHXAXCXmXfX4X*X%X%X%X%X%X%X%X%X%X%X%X*X-X3X5X5X4X3X3X5X5X5X5X5X5X7X7X7X9XtXsXdXdXfXfXhXhXdXdXfXfXfXfXfXjXjXjXjXkXvXvXvXvXvXvXbXbXCXCXZXZXZXZXDXFXFXFXFXFXFXFXFXFXFXFXFXFXDXDXDXDXHXDXDXDXDXDXDXDXDXDXDXDXDXDXDXDXDXDXDXDXDXDXDXDXDXFXHXDXFXFXFXFXGXGXGXGXGXGXGXGXGXGXGXGXFXFXFXFXFXFXFXFXFXFXFXFXHXGXDXDXDXDXDXDXDXDXDXZXZXCXCXMXMXmXmXmXmXmXmXvXvXvXvXvXkXkXjXjXjXfXgXgXgXgXsXsXsXsXsXsXgXsXgXgXgXdXdXdXdXdXgXgXgXgXfXfXjXjXjXkXvXvXvXvXvXvXmXmXMXMXMXMXCXCXCXCXCXCXZXZXZXZXZXZXZXZXDXDXDXDXDXDXDXDXDXDXDXDXDXDXDXDXDXDXZXZXZXCXCXCXCXbXMXvXvXkXkXjXjXfXyXwX4X4X4X2X2X-X-X-X%XOX+X+X+X+X+X+XoX{..X{.{.}.|.|.|.|.}.+X{.|.'._.`.`.`.K.K.K.K.K.K.K.K.H.H.H.H.B.L.B.B.B.B.B.B.M.B.B.M.M.V.V.N.N.n.n.n.n.n.n.n.n.n.n.n.n.j.j.j.n.n.l.j.j.k.d.d.d.f.f.d.d.d.d.d.d.d.n.n.n.j.j.j.j.d.d.d.d.a.p.p.p.p.p.q.w.w.6.6.=.=.=.=.=.*.*.*.*.%.%.O.O.O.O.O.o.o.o.o.o.o.o.o.o.o.{ { o.o.o.o.{ { [ [ [ [ [ [ [ [ [ [ [ { { { ] ] ] ] ] ] ] ] ] ) ) ) ) ) ) ) / / / / / ( ( ^ ( ^ ^ ^ ^ ^ ^ ^ ^ ^ ^ ^ ^ ^ ^ ^ ^ ~ ~ ~ I I I I I I P I I I I L D F I ( ^ ^ I P L D C C Z ",
"a H ( F S S F ( E N d e 8 6 4 4 4 4 6 6 4 4 6 6 6 7 7 u i a i i p p u u u i i i i p p p p p p p a a d d d d d d d d f f f f f k n n n m m M m B V C D D D F F P ~ ~ ^ ^ ^ / / / ] } } } { X.+.o.O.*.*.*.;.;.w.w.q.q.p.a.d.d.j.n.n.n.V.B.M.C.G.G.H.H.H.H.H.H.J.J.J.J.K.J.K.E.E.W.`.`.`._.].].].}.}.}.{.{.{.{.+X+X+X+X.X.X.X.X.X.X.X.X+X+X+X+X+X+X+X+X+XXXOXOX&X&X%X%X=X=X-X-X-X=X-X-X3X3X5X5X5X5X5XeXeXeXyXtXgXgXdXdXfXjXjXjXjXkXkXkXkXkXkXhX0XtXsXsXfXfXdXdXdXdXsXtXtXtXtXyXyXyX9XeXeXeX0X0X0X0X0X0X0X0XeXeXeXeXyXtXtXtXsXdXdXfXfXhXjXkXkXvXvXvXbXbXbXbXbXbXCXCXCXCXCXCXZXZXZXZXZXZXDXDXDXDXDXDXDXDXDXDXDXDXHXAXCXmXjX9X=X%X#X*X%X%X%X%X%X%X%X%X*X*X-X2X2X2X3X3X3X5X5X5X5X5X7X7X7X9XtXsXdXfXfXfXhXhXdXdXfXfXfXfXfXjXjXjXjXkXvXvXvXvXvXvXbXbXCXCXZXZXZXZXDXDXFXFXFXFXFXFXFXFXFXFXFXFXDXDXDXDXDXDXDXDXDXDXDXDXDXDXDXDXDXDXDXDXDXDXDXDXDXDXDXDXDXFXDXDXDXFXFXFXFXGXGXGXGXGXGXGXGXGXGXGXFXFXFXFXFXFXFXFXFXFXFXFXHXGXDXDXDXDXDXDXDXDXDXZXZXCXCXMXMXmXmXmXmXmXmXvXvXvXvXkXkXjXjXfXfXfXgXgXgXgXgXaXaXgXgXgXsXsXgXdXgXgXdXdXgXgXgXgXgXgXfXfXjXjXjXjXkXvXvXvXvXvXMXmXMXMXMXMXCXCXCXCXCXCXZXZXZXZXZXZXZXZXDXDXDXDXDXDXDXDXDXDXDXDXDXDXDXDXDXDXZXZXCXCXCXMXMXmXmXvXvXkXkXkXjXfXeXwX3X3X5X4X2X2X-X-X%XOX+X+X+X+X+X+XoX.X.X{.{.}.|.`.`.|.}.+X+X.X{.|.`.E.E.K.K.K.K.K.K.K.K.K.H.H.H.B.B.B.B.B.B.B.B.B.B.B.M.M.V.V.N.N.n.n.n.n.n.n.n.n.n.n.n.n.j.j.j.j.j.j.j.j.d.d.d.d.d.f.d.d.d.d.d.d.d.d.n.n.j.j.j.d.j.d.d.g.a.p.p.p.p.q.w.w.6.6.6.=.=.=.*.*.*.*.@.O.O.O.O.O.O.O.O.o.o.o.o.o.o.o.o.o.{ { { { { { { [ [ [ [ [ [ [ ] ] ] ] ] ] } } } ] ] ] ] ] ] ] ] ] ) ) ) ) ) / / / / / ( ( ( ( ( ( ^ ^ ~ ~ ^ ^ ^ ^ I I I I I I ~ I ~ ~ ~ I I I I I I I I I I I D D F U ( ^ ^ I P L D C Z Z ",
"s N ( F S F F G G N p 7 8 6 4 4 4 4 4 4 4 4 6 6 6 8 e d v f f f d p u u i p p p p p p p a p a a a a d d d d f f f f f f f k n n n n m m m M B B C D D ~ ( ~ P I ^ ^ ^ ~ / / / ] } } } { [ X.+.O.O.*.*.;.;.w.w.w.q.e.a.a.d.d.n.N.N.N.V.M.M.C.G.H.H.H.H.H.J.J.J.J.K.J.K.J.E.E.W.W.`.`.`._.].].}.}.}.}.{.{.{.{.oXoX+X+X+X+X+X+X+X+X+X+X+X+X+X+X+X.XXXXXOX+XOXOX%X%X%X%X-X-X-X-X=X=X1X2X3X3X5X5X5X7XeXeXeXyXyXtXgXgXdXdXfXjXjXjXkXkXkXkXkXkXkXhX0XtXsXsXfXfXdXsXsXtXtXtXtXyX9XeXeXeX0XeXeXeX7X7X7X7X7X7XeXeXeXeXeXeXeXeXyXtXsXgXdXdXdXhXjXjXkXkXvXvXvXvXbXbXbXbXCXCXCXCXCXCXZXZXZXZXZXDXDXDXDXDXDXDXDXDXDXDXHXHXHXZXCXmXjX9X1X%X%X%X%X%X%X%X%X%X%X*X%X*X*X1X2X2X3X3X3X5X5X5X4X4X4X4X7X9XtXdXdXdXdXdXhXhXdXdXfXfXfXfXfXjXjXjXkXkXvXvXvXvXvXvXbXbXCXCXCXZXZXZXHXHXFXFXFXFXFXFXFXFXDXDXFXFXFXDXDXDXHXFXDXDXDXDXDXDXDXDXDXDXDXDXDXDXDXDXDXDXDXDXDXDXDXDXDXDXDXDXDXDXDXFXFXFXGXFXFXFXGXGXFXFXFXFXFXFXFXFXFXFXFXFXFXFXDXDXDXDXDXDXDXDXDXDXDXZXZXCXCXCXMXMXmXmXmXmXmXvXkXkXkXkXkXjXjXjXfXfXgXgXgXaXaXsXsXsXgXgXgXgXdXdXdXdXdXdXdXdXgXsXfXfXfXfXjXjXjXjXkXkXkXvXvXvXbXbXMXMXbXbXCXCXCXCXCXZXZXZXZXZXZXDXZXZXDXDXDXDXDXDXDXDXDXDXDXDXDXDXDXDXDXDXZXZXCXCXMXmXmXvXvXkXkXkXkXxXxXfXwX X X=X5X5X5X3X-X%X%XOX+X+X+X+X+X{.{.{.{.{.{.|.`._.`.|.+X+X+XXX.X.X`.I.I.K.K.K.K.K.K.H.H.H.H.L.B.B.B.B.B.B.B.B.B.V.V.V.M.M.N.N.n.n.n.n.n.n.n.n.n.n.n.n.n.n.j.j.j.j.j.j.j.d.d.d.d.d.d.d.d.d.d.d.d.d.x.n.n.n.j.j.j.j.d.d.d.d.p.p.p.p.t.0.6.6.6.=.=.=.*.*.*.*.*.*.*.O.O.O.O.O.o.o.o.o.o.{ { { { { { { [ [ [ [ [ [ [ [ ] ] ] ] ] ] ] ] ] ] ] ] ] } ] ] ] ] ) ) ) ) ) ) ) ) ) / / / / / ^ ^ ^ ^ ( ( ^ ^ ^ ^ ^ ^ ^ ^ ~ ~ I ~ ~ ~ I I I ~ I I I I I U U I P P I I I L L D D U I ^ ^ I U L D C C Z ",
"s N ( F S F G G N d e 7 6 6 4 4 4 4 4 4 4 6 6 6 6 7 i v H H N n f d p u p p p p p p p a a a a a a a d d d d f f f f f f k k n n n n m m m m B V C D D ( | ' P ^ ^ ^ ^ / / ` ] [ [ { [ [ X.X.O.O.@.*.=.=.;.w.w.h.h.e.a.g.d.d.n.N.N.N.M.M.M.C.G.H.H.H.H.J.J.J.J.J.K.K.K.K.E.E.E.W.`.`._._.].].}.}.}.}.{.{.{.{.oXoXoXoX+X+X+X+X+X+X+X+X+X+X+X+X+X+XXXXXOXOXOX%X%X&X%X%X-X-X-X-X-X1X3X2X3X5X5X4X7X7XeXeXeXyXyXtXgXgXdXdXfXjXjXjXkXkXkXkXkXkXhXhXqXtXsXsXfXdXdXsXtXtXyXyXyXyX0X0X0XeX7XeX7XeX7X7X7X7X7X7X7X7XeXeXeXeXeXeXyXtXsXsXdXdXdXdXjXhXkXkXvXvXvXvXbXbXbXbXBXBXCXCXCXCXZXZXZXZXZXZXDXDXHXDXDXDXDXDXDXDXHXHXHXZXCXmXjX9X1X%X%X%X*X%X%X%X%X%X*X*X*X*X-X-X2X2X3X3X3X2X5X5X4X4X4X4X7XyXsXdXdXdXdXdXhXhXdXdXfXfXfXfXfXjXjXjXkXkXvXvXvXvXvXvXbXBXCXCXCXCXZXZXHXFXFXFXFXFXFXFXFXFXDXDXFXFXFXHXDXDXFXFXDXDXDXDXDXDXDXDXDXDXDXDXDXDXDXDXDXDXDXDXDXDXDXDXDXDXDXDXDXDXDXDXFXFXGXFXFXFXFXFXFXFXFXFXFXFXFXFXFXFXFXFXFXFXDXDXDXDXDXDXDXDXDXDXZXZXZXCXCXMXMXMXmXmXmXmXmXkXkXkXkXkXkXjXjXjXjXfXjXjXjXfXdXgXgXgXgXgXsXgXdXdXdXdXdXdXdXdXsXsXfXfXfXfXjXjXjXjXkXkXkXkXvXvXvXbXMXMXMXMXCXCXCXCXZXCXZXZXZXZXDXDXZXZXDXDXDXDXDXDXDXDXDXDXDXDXDXDXDXDXDXDXZXZXCXCXMXmXkXkXjXjXjXjXjXxXxXfX=XT.Y.[.=XwXwX-X%X%XOX+X+X+X+X+X+X{.{.{.{.{.{.|.`.`.`.|.+X&X&X&X%X+X|.`.I.K.K.K.K.K.K.H.H.H.L.L.B.B.B.M.M.M.B.B.B.M.V.M.n.n.n.n.n.n.j.n.j.j.j.j.j.j.d.d.n.n.j.j.j.j.j.d.d.d.d.d.d.d.d.d.d.d.d.d.d.d.d.d.j.j.j.j.k.d.d.d.d.a.r.0.0.q.0.w.6.6.=.=.=.@.@.@.*.O.@.@.O.O.O.O.o.o.o.o.X.{ { { [ [ [ [ [ [ [ ] ] ] ] ] ] ] ] ] ` ` ] ] ] ] ) ) ] ] ] ] ] ] ] ) ) / / / / / / / / / / ( ( ( ^ ^ ^ ^ ^ ^ ^ ^ I I I I I I I I P P P I I I P P I P P P P P P P L P L P P L L L D L I ^ ^ I P D D C C Z ",
"s m ( S S S S A N i e 7 6 6 6 6 4 4 6 6 6 6 6 6 7 u v H W G G G n v d p a a a a a a a a a a d d d d f f f f f f f f n n n n m m m m m m m V V V S D F E b.$.E ^ ^ ^ / / / ] [ [ { { [ X.X.O.O.@.*.=.=.;.w.w.h.h.e.p.a.d.j.k.n.V.B.M.N.M.C.G.H.G.G.H.K.K.J.J.J.J.K.K.K.K.E.E.E.W.W.`.`._.].].].|.}.}.{.{.{.{.oXoXoXoX.X.X+X+X+X+X+X+X+X+X+X+X+X+X+X+XOXOX%X%X%X%X&X&X-X-X=X-X-X3X3X3X5X5X5X5XeXeXyXyXyXyXyXsXgXgXdXdXfXjXjXjXkXkXkXkXkXjXhXhXqXyXsXsXfXfXdXsXtXyXyXyXyXyX0X0X0XeX7X7XeXeX4X4X4X4X4X4X4X4X7X7X8X8XeXeXtXyXtXsXdXdXdXdXfXjXjXkXkXkXvXvXvXbXbXbXbXBXCXCXCXCXCXZXZXZXZXZXZXDXHXHXHXHXDXDXDXDXHXHXHXHXZXmXjXrX2X*X%X*X*X*X%X%X%X%X%X*X*X*X=X=X2X2X3X3X3X3X3X5X4X4X4X4XeXtXsXdXdXdXdXdXfXfXfXfXfXfXfXjXfXjXjXjXkXkXvXvXvXvXvXbXbXBXCXCXCXCXZXZXHXDXHXHXFXFXFXFXFXFXDXDXHXHXDXDXDXDXHXHXDXDXDXDXDXDXDXDXDXDXDXDXDXDXDXDXZXZXDXDXDXDXDXDXDXDXDXDXFXFXFXFXFXFXFXFXFXFXFXFXFXFXFXFXFXFXFXFXFXFXFXFXFXFXDXDXDXDXDXDXDXDXDXDXZXZXCXCXCXMXmXmXmXmXmXmXmXkXkXkXkXkXkXjXjXjXjXjXkXjXjXjXjXfXfXfXsXsXsXsXdXdXsXsXdXdXsXdXsXsXsXfXfXfXjXjXjXjXkXkXkXkXvXvXvXvXMXMXMXbXCXCXCXCXZXZXZXZXZXZXDXDXZXZXDXDXDXDXDXDXDXDXDXDXDXDXDXDXDXDXDXDXZXZXCXMXmXmXkXjXjXhXhXjXjXjXhXsX^.#.D.Q.XX-X=X&XXX.X+X+X+X+XoX{.{.{.{.}.{.{.{.|.`.`.`.|.+X&X&X&XwXOX_.I.K.K.K.K.K.H.K.H.H.L.L.B.B.B.B.M.M.M.B.B.B.M.V.M.n.n.n.n.n.n.j.j.j.j.j.j.j.j.j.j.j.j.j.j.j.j.j.d.d.d.d.d.d.d.d.d.d.d.d.d.d.d.d.d.j.j.j.d.d.d.d.d.a.a.p.q.q.q.0.w.6.6.=.=.*.*.@.@.*.O.O.@.%.O.O.O.o.o.o.o.X.{ { [ [ [ [ [ [ [ [ ] ] ] ] ] ] ] ] ] ] ] ] ] / / ) ) ) ) ) ) ) ) ) ) / / / / / / / / / ^ ^ ^ ( ( ^ ^ I I ^ ^ ~ ~ I I I I I I P P P P P P P P P L P P P P P L L L L L L L L L L L L D L I I P L D D C C Z ",
"s m T S S S S M f e 7 7 6 6 6 6 4 4 6 6 6 6 6 6 7 u v W | | E H N v d d a a a a a a a a a a d d f f f f f f f f f f n n n n m m m m m B V V V V S F F E /.$.E / ^ / / / ] [ [ { { X.X.X.X.O.@.@.*.=.=.;.w.w.w.q.e.e.a.d.d.d.n.M.M.B.M.M.C.G.G.G.G.G.K.K.J.J.J.J.K.J.K.K.E.E.E.E.W.`.`.`._.].].|.}.}.{.}.{.{..X.XoXoX.X.X+X+X+X.X+X+X+X+X+X+X+X+X+XOXOXOX%X%X%X&X&X-X-X-X=X=X-X2X3X2X4X5X5X8XeXeXyXyXyXyXtXsXgXgXdXdXfXjXjXjXjXkXkXkXjXjXhXdXqXyXsXsXfXdXsXtXyXyXyXyXyX7X7X0X8X8X4X4X4X4X4X4X4X4X4X4X4X4X4X4X5X8X8X7XeXeXtXsXsXdXgXdXgXfXjXjXjXkXkXvXvXvXbXbXbXbXMXCXCXCXCXCXZXZXZXZXZXZXHXHXHXDXDXDXDXDXHXHXHXHXZXmXjXyX2X*X%X*X*X*X%X%X%X%X%X%X*X%X-X=X=X=X3X3X3X3X3X3X5X4X4XeXeXtXsXdXdXdXdXdXfXfXfXfXfXfXfXfXjXjXjXjXkXvXvXvXvXvXvXbXbXBXCXCXCXZXZXZXDXDXHXHXFXFXFXFXFXFXDXDXHXHXDXDXDXDXDXDXDXDXDXDXDXDXDXDXDXDXDXDXDXDXDXDXZXZXDXDXDXDXDXDXDXDXDXDXFXFXFXFXFXFXFXFXFXFXFXFXFXFXFXFXFXFXFXFXFXFXFXFXFXFXDXDXDXDXDXDXDXDXDXDXZXZXCXCXCXMXmXmXmXmXmXmXmXkXkXkXkXkXkXjXjXjXkXkXkXkXkXkXjXjXfXfXfXfXgXdXdXdXsXsXdXdXdXsXsXsXsXsXgXfXfXjXjXjXkXkXkXkXvXvXvXvXMXMXbXMXCXCXCXCXZXZXZXZXZXZXDXDXZXZXDXDXDXDXDXDXDXDXDXDXDXDXDXDXDXDXDXZXZXZXCXCXMXkXfXsXtXtXsXsXsXsXfX8Xb.E b <.!.&X+XoX{.{.{.}.}.oX{.{.{.{.{.{.{.{.{.|.`.`.`.|.}.+X&X-XuXOX_.K.K.H.K.K.H.H.H.H.H.L.L.B.B.M.M.M.M.M.B.B.B.M.N.n.n.n.n.n.n.n.j.k.k.k.k.k.k.d.d.d.j.k.j.j.j.j.j.d.d.d.d.d.d.d.d.d.d.d.d.d.d.d.x.d.n.j.d.d.d.d.d.a.a.p.p.q.q.q.q.w.6.=.=.*.*.*.@.*.*.O.%.%.%.O.O.o.o.o.o.o.X.{ { { [ [ [ [ [ [ [ ] ] ] ] ] } ] ] ] ] ] / / / / / ^ / / / / / ^ / / / / / / / / / ^ ^ ^ ^ ( ( ^ ^ ^ I I ^ ^ ~ ~ I I I I P I P P P P P P L P P P P P P P P L L L L L L L L P L L D D L I I L D D C V B B ",
"s N G S S S S N d e 7 7 6 6 6 6 4 4 6 6 6 6 8 6 7 p A | | ( F S N v d d d a a a a a a a a f f f f f f f f f f f k k n n n m m m m M B B Z Z V C S F L E z.^.' / / / / ] [ [ { o.o.X.X.X.O.O.@.@.=.=.6.w.w.w.h.e.e.e.a.d.k.k.n.M.B.B.B.M.C.G.G.G.K.J.K.K.K.J.J.J.J.J.J.J.E.E.E.E.W.`.`._._._.].].].}.{.{.{.{.{.{..X.X.X.X+X+X+X+X+X+X+X+X+XOXOXOXOXOX%X%X%X%X&X&X-X-X-X-X3X3X3X3X5X5X5XeX8X7XeX0XeXyXyXtXsXsXdXdXgXdXfXhXjXjXjXjXjXjXjXjXjXiXqXeXtXsXdXgXsXyXyXeXeXeXyX0X8X8X8X8X5X5X5X5X5X5X5X5X5X5X5X5X5X5X5X5X5XwXeXeXtXtXsXsXsXgXdXdXjXjXjXkXkXkXvXvXvXbXbXbXbXCXCXCXCXCXZXZXZXZXZXZXHXDXDXDXHXHXHXHXHXHXDXDXCXmXfXyX2X*X*X*X*X*X%X%X%X%X%X%X%X%X*X*X=X=X=X=X2X2X3X3X5X4X4X4XeXsXsXdXdXdXhXhXdXdXjXjXjXjXjXjXjXjXjXjXkXvXvXvXvXvXvXbXbXbXCXZXZXZXZXZXDXDXDXDXFXFXFXFXFXFXHXHXHXDXDXDXDXDXDXDXDXDXDXDXDXDXDXDXDXDXDXZXDXDXDXDXZXZXZXDXDXDXDXDXDXDXDXDXFXDXDXDXFXFXFXFXFXFXFXFXFXFXFXFXFXFXFXFXHXHXDXDXDXHXFXHXDXDXDXDXDXDXDXDXZXZXCXCXCXMXmXmXmXmXmXmXmXvXvXkXkXkXkXkXjXjXkXkXkXvXvXkXkXjXjXfXfXdXdXdXdXdXsXsXdXdXsXsXsXsXdXdXgXgXfXfXjXjXkXkXkXkXvXvXvXvXbXMXMXCXCXCXCXCXZXZXZXZXZXZXDXDXDXZXDXDXDXDXDXDXDXDXDXDXDXDXDXDXDXDXDXDXZXAXCXCXMXjXwX;X+X&X&X+X%XwXeX6Xb.A 5 b <.~.}._.Q._._.}.{.{.{.{.{.{.{.{.{.{.}.]._._._._.}.{.+X-XuX%X_.K.H.H.K.K.K.K.H.H.L.B.B.B.B.B.V.V.V.V.M.M.M.N.N.n.n.n.j.j.j.j.j.k.k.k.d.d.d.d.d.d.d.d.j.j.j.j.j.j.j.j.d.d.d.d.d.d.d.d.d.d.x.x.x.x.x.d.d.d.d.i.a.p.p.p.q.w.w.w.w.w.6.=.=.*.*.*.*.%.%.O.O.O.O.O.o.o.o.o.o.{ { [ [ [ [ [ [ [ [ ] ] ] ] ] ] ] ] ) ) ) / / / / / / ( ( ( ^ ^ ^ ^ ^ ^ ^ ^ ^ ^ ^ ( ( ^ ^ ^ ^ ^ ^ ^ ^ I I I I I I I I L L L L P P P P I I I L P L L I P U U P L P P L L L D D P L U U L L L I P L L L C B l l ",
"s Z G S F F G n p e 7 7 6 6 6 6 6 4 6 6 6 6 8 7 7 v G ( ' ( G M n v f d d d d d d d d d f f f f f f f f f f k k k k n n m m m m m M Z V V V C S D F P E E 1.$.} / ) ] [ [ { o.o.X.X.o.O.O.@.@.=.=.6.w.w.w.q.h.g.p.a.d.k.j.j.M.M.B.L.H.H.G.G.G.F.J.K.K.K.J.J.J.J.J.J.J.J.E.E.E.E.E.W.`.`._._.].].].].}.{.{.{.{.{..X.X.X.X.X+X+X+X+X+X+X+XOXOXOXOXOXOX%X%X%X%X&X&X-X-X-X-X3X3X3X3X5X5X5X8X0X7XeXeXyXyXtXtXsXsXdXdXdXdXfXfXjXjXjXjXjXjXfXjXfXiX1X8XtXsXdXsXtXyXeXeXeXeX7X7X8X8X5X5X5X5X5X5X4X4X4X4X4X4X4X4X5X5X5X5X5X5XwXeX8X9XtXtXsXsXdXdXhXhXjXkXkXkXvXvXvXbXbXbXMXMXCXCXCXCXZXZXZXZXZXZXHXHXDXDXHXHXHXHXHXHXDXDXZXmXjXyX2X*X*X=X*X*X%X%X%X%X%X%X%X%X-X*X*X=X=X=X2X2X3X3X4X4X4X4XeXsXsXdXdXdXhXhXdXdXjXjXjXjXjXjXjXjXjXjXkXvXvXvXvXvXbXbXbXBXZXZXZXZXZXDXDXDXDXDXFXFXFXFXFXFXHXHXDXDXDXDXDXDXDXDXDXDXDXDXDXDXDXDXDXDXDXZXDXDXDXDXZXZXZXZXDXDXDXDXDXDXDXDXFXDXDXDXFXFXFXFXFXFXFXHXFXFXFXFXFXFXFXFXHXFXDXDXDXDXHXHXDXDXDXDXDXDXDXZXZXZXCXCXCXMXMXmXmXmXmXmXmXmXvXvXkXkXkXkXkXjXjXjXkXkXkXjXjXfXfXdXdXdXdXdXdXdXsXsXdXsXsXsXsXdXdXdXgXgXfXfXjXjXkXkXkXkXvXvXvXvXbXbXBXCXCXCXCXCXZXZXZXZXZXZXDXDXZXZXDXDXDXDXDXDXDXDXDXDXDXDXDXDXDXDXDXZXZXAXCXMXvXdX XP.z.A.Q.^.{..X&X&XU.W 3 5 W z.Q.K.K.K.Q._.}.{.{.{.{.{.{.{.{.{.].].]._._._._._..X-XeX%X_.K.K.H.K.K.H.K.H.H.H.B.B.B.B.B.V.M.M.M.M.N.N.n.n.j.j.j.j.j.j.d.d.d.d.d.a.a.d.d.d.d.d.d.d.d.j.j.j.j.j.j.d.d.d.d.d.d.d.d.d.d.x.x.x.x.x.d.d.d.i.i.p.p.p.y.q.w.w.w.w.9.=.=.*.@.@.O.O.O.O.O.O.O.O.o.o.o.o.{ { [ [ [ [ ] ] ] ] ] ] ] ] ] ] ) ) ) ) ) / / ( ( ( ( ^ ^ ( ^ ( ~ ^ I I I I I ~ ~ ^ ^ ^ ^ ^ ^ I I I I I I P P P P P P L L L L L L L L F F L L L L L L L L L U U P P P L D D D D D L P U U K L P I P L L U G B l l ",
"j Z G D F F G n i 7 7 7 7 6 6 6 6 4 6 6 6 6 7 7 u A W ( ' ~ S m n g d d d d d d d d f f f f f f f f f f f f n n n n m m m m m m M B Z Z Z C C D D L P ~ ' ' } ) ) ] } [ { { { { o.o.O.@.@.@.=.6.6.w.w.q.h.h.g.g.g.d.l.n.V.N.B.L.H.H.H.H.G.G.F.K.J.J.K.K.J.J.J.J.J.J.J.J.E.E.E.K.K.W.`.`._._._._.].].}.{.{.{.{.{..X.X.X.X.X.X+X+X+X+X+X+XOXOXOXOX%X%X&X&X%X%X&X&X-X-X-X-X3X3X3X3X5X5X5X8X0XeXeXeXyXyXtXtXsXsXdXdXdXdXfXfXjXjXjXjXjXjXfXfXdX8X1X5XtXtXdXsXtXyXeXeXeXeX8X8X8X8X5X5X5X4X4X4X4X4X2X2X4X4X4X4X5X3X5X5X5X5X5X5X8X0XtXtXtXsXgXdXdXhXhXjXjXlXvXvXvXbXbXbXMXMXMXCXCXCXZXZXZXZXZXZXHXHXHXHXHXHXHXHXZXDXDXDXZXmXjXyX2X*X=X1X=X*X*X%X%X%X%X%X%X%X-X-X-X-X-X=X2X2X3X3X4X4X4X7XeXtXsXdXdXdXhXhXdXdXjXjXjXjXjXjXjXjXjXjXkXvXvXvXvXvXbXbXbXBXCXZXZXZXZXDXDXDXDXDXFXFXFXFXFXFXFXHXFXFXDXDXDXDXDXDXDXDXDXDXDXDXDXDXDXDXZXZXZXZXZXZXZXZXZXZXDXDXDXDXDXDXDXDXDXDXDXDXHXHXDXDXFXFXHXHXHXHXFXFXFXFXFXFXHXHXFXDXDXDXDXDXDXDXDXDXDXDXDXZXZXZXCXCXCXMXMXMXmXmXmXmXmXmXvXvXvXvXvXvXkXkXkXjXjXjXjXfXdXdXdXdXsXsXdXdXdXdXsXsXsXsXsXsXsXsXdXdXfXfXgXfXjXjXkXkXkXkXvXvXvXbXbXbXBXCXCXCXCXCXZXZXZXZXZXZXDXDXDXDXDXDXDXDXDXDXDXDXDXDXDXDXDXDXDXDXDXZXZXZXBXbXvXiX XF.c.5.u.D.Q._._.}.D.$.0 : 9 $.V.L.L.L.J.Q.`.|.{.{.{.{.{.{.{.[.].].].]._._._._.{.:XwX&X_.K.K.H.H.H.H.H.L.L.H.L.B.B.B.M.V.V.V.N.N.N.N.n.n.j.j.j.j.j.d.d.d.d.d.d.a.a.a.d.d.d.d.d.d.d.j.j.j.j.j.j.d.d.d.d.j.j.n.n.n.n.n.n.x.x.x.d.d.d.a.i.p.y.y.y.q.w.w.w.9.6.=.=.@.@.*.O.O.O.O.O.O.O.o.o.o.o.o.{ [ [ [ [ ] ] ] ] ] ] ] ] ] ) ) ) ) _ / / ^ ^ ^ ^ ^ ^ ~ ( ~ ~ ~ ~ I I I I I I I I I I ~ ~ I I I I I U I L P P L L L L L L L L D D F F F F L L D L L L D D D U U P P D L L D D D D L L U U C D P I P L D U D B l l ",
"j m G F F E G v u 7 7 7 7 6 6 6 6 4 6 6 6 9 7 7 d A E / / ~ V m n v d d d d d d d d f f f f f f f f f f f f n n n n n m m m m m M B V V V C C D L P I ~ ` ] ] } } } } { { { { o.o.O.*.@.@.#.=.6.w.w.w.h.h.g.g.g.g.k.n.V.B.B.B.H.H.H.H.H.G.G.F.K.J.J.K.K.J.J.J.J.K.K.K.K.E.E.E.K.K.E.`.`.`._._._.].].}.}.{.{.}.{..X.X.X.X.X.X+X+X+X+X+X+XOXOXOXOX%X%X&X&X%X%X&X%X-X-X-X-X3X3X3X5X5X5X5X8XeXeXeXyXyXyXtXtXsXsXdXdXgXdXfXfXjXjXjXjXjXjXfXfXtX6X@X3XeXtXsXsXtXyXeXeXeXeX8X8X8X5X5X5X5X4X4X4X4X4X4X2X2X2X4X4X3X3X5X3X3X3X5X5X8X0XtXyXtXtXsXdXdXdXjXjXjXlXkXvXvXvXbXbXMXMXMXCXCXCXZXZXZXZXZXDXHXHXHXHXHXHXHXHXZXDXDXDXZXMXjXrX2X*X=X3X1X=X*X*X%X%X%X%X%X%X-X-X-X-X-X-X-X2X3X3X2X4X4X7XeXtXdXdXdXdXhXhXdXdXjXjXjXjXjXjXjXjXjXkXkXvXvXvXvXvXbXbXbXBXCXZXZXZXZXZXDXDXDXDXDXFXFXFXFXFXFXFXFXFXDXDXDXDXDXDXDXDXDXDXDXDXDXDXDXDXZXZXZXZXZXZXZXZXZXZXDXDXDXDXDXDXDXDXDXDXDXDXHXHXDXDXDXDXHXHXHXHXHXFXFXFXFXFXDXHXFXFXFXDXDXDXDXDXDXDXDXZXZXZXZXZXCXCXCXMXMXMXmXmXMXmXMXMXmXmXmXmXmXvXkXjXjXjXhXdXdXgXsXtXsXsXsXsXdXdXdXdXsXsXsXsXsXsXsXsXdXdXfXgXgXfXjXjXkXkXkXkXvXvXvXbXbXbXCXBXCXCXCXCXZXZXZXZXZXZXDXDXDXDXDXDXDXDXDXDXDXDXDXDXDXDXDXDXDXDXZXZXZXCXnXlXdX8X}.M.u.+.[ $.z.c.Z.Q.V.$.b 3 5 W u.V.l.k.M.K.`.`.{.{.{.{.}.{.{.[.[.[.].].]._.`._.|.&X&X+X`.G.K.H.H.H.H.H.H.L.L.L.L.B.B.N.V.M.V.N.N.n.n.n.j.j.j.j.j.j.d.d.a.a.a.a.a.a.d.d.d.d.d.d.d.d.d.d.j.j.j.d.d.d.j.n.n.n.n.n.n.n.n.x.x.x.d.d.d.f.i.p.y.y.y.q.w.6.w.w.9.=.=.*.@.@.*.O.O.O.O.O.o.o.o.o.o.o.{ [ [ [ [ ] ] ] ] ] ] ] ] ] ) ) ) ) / / / / ^ ^ ^ ^ ^ ~ ~ ~ ~ I ~ I I L L I I I I I P P ~ ~ P I U P I P L L P L L L L L L L D D D D D D F D D D D L F D S M V G U L L L L D D D D D L L U G C D P I P L D U D B l l ",
"j l G U ~ ( G f e 7 7 7 7 6 6 6 6 6 6 6 p 9 7 7 n E ' ' ) ~ n n v v d a a a d d f f a a s s f f f f f f f f k k n n n n m m m m m m V V V C C D P I ~ / ] ] ] } } } } { { { o.o.O.%.*.*.*.=.6.6.8.w.q.p.g.g.g.g.l.l.V.V.V.B.H.H.H.H.H.H.G.F.J.J.K.K.K.K.K.K.K.K.K.K.K.K.E.E.E.K.K.E.W.`.`.`._._.].].].].}.{.{.{.{.{..X.X.X.X.X.X+X+X+X+XOXOX&X&X&X%X&X%X&X*X-X-X-X-X-X-X3X3X3X3X5X5X8XeXeXeXyXyXtXtXtXsXsXsXgXgXdXdXdXdXfXfXxXxXfXfXfXsXtX1X@X2XeXyXtXtXyXeXeX8X8X8X8X7X4X5X5X5X5X5X5X3X2X6X6X2X2X2X2X2X3X3X3X3X3X3X5X5XeXeXyXyXtXtXgXgXdXdXhXhXjXkXkXvXnXvXvXvXvXmXMXMXCXCXZXZXZXZXDXDXZXZXZXZXHXHXDXZXZXZXDXDXZXbXjXrX2X;X*X5X6X=X*X%X%X%X%X%X%X%X%X*X*X*X-X-X-X2X2X2X2X2X4X7XyXsXdXdXdXdXhXhXjXjXjXjXjXjXjXjXjXjXjXkXkXvXvXvXvXvXbXbXbXBXBXZXZXZXZXZXDXDXDXDXDXDXDXDXDXDXDXDXFXFXFXHXHXHXHXHXDXDXDXDXDXDXDXDXZXZXZXZXZXZXZXZXZXZXZXZXZXZXDXDXDXDXDXDXDXDXDXDXDXDXDXDXDXDXDXDXDXDXDXDXDXDXDXDXDXDXDXDXDXDXDXDXDXDXZXZXZXZXZXZXZXZXZXCXCXCXMXMXmXmXmXMXMXMXMXMXmXmXmXvXkXjXjXjXfXgXgXsXtXtXtXtXtXsXsXsXsXsXsXsXsXsXsXsXtXtXsXdXgXgXfXfXfXjXjXjXjXkXvXvXvXbXbXMXCXCXCXCXCXCXZXZXZXZXAXZXDXDXDXDXDXDXDXDXDXDXDXDXDXDXDXDXDXDXDXZXAXNXCXBXkXiX;X|.B.t.O./ F M E <.$.c.b.| b 5 < p [ h.l.j.M.M.G.`.{..X.X{.{..X.X{.[.[.[.[.]._.|.|.|.{.{.{.E.G.K.H.H.C.C.C.L.L.L.L.L.B.B.N.V.V.V.N.n.n.n.n.j.j.d.d.d.d.d.d.a.a.a.a.a.a.a.d.x.x.d.d.d.d.d.d.d.d.d.d.d.d.d.d.n.n.n.n.n.n.x.d.d.d.d.d.s.a.p.p.y.y.q.h.w.6.6.6.=.=.#.@.@.@.O.O.O.O.o.o.o.o.o.X.{ { { [ [ ] ] ] ] ] ] ] ] ] ] ] ) ) ) / / / ^ ^ ( ^ ~ ^ ~ ~ ~ ~ P F D S D D D C C D D D ( ( ~ ~ P P P P P P P P L L L L D D D D D D D D D D D F D D D D D D A 7 p H W F D D D D D D D D D F G D C C L P L D D L L B l l ",
"j l G ( ( ( M d e 7 7 7 7 6 6 6 6 6 6 9 9 9 u e A ( ' | } ^ n n n v d a a a d d f f s s s s f f f f f f f f k k n n n n m m m m m m m V C D F U I ^ / / ] ] ] ] ] } { { { { o.%.%.*.*.=.=.=.6.7.8.q.p.p.a.g.g.k.l.l.V.V.B.L.H.H.H.H.H.H.H.G.J.J.K.K.K.K.K.K.K.K.K.K.K.K.E.E.E.K.K.E.W.`._.`._._.].].].].}.}.{.{.{.{..X.X.X.X.X.X+X+X+X+XOXOX&X&X&X&X&X%X*X*X-X-X-X-X-X-X3X3X3X3X5X5X8XeXeX8XyXyXtXtXtXsXsXsXgXgXdXdXdXdXfXfXfXxXfXfXfXsXeX$X@X2XeXtXtXtXyXeXeX8X8X8X8X7X5X5X5X5X5X5X3X3X3X3X3X3X2X2X2X3X3X3X3X3X3X3X5X5XeXeXyXyXtXtXgXgXdXfXjXhXjXjXkXkXnXvXvXbXbXmXMXMXCXCXZXZXZXZXDXDXZXZXZXZXHXHXDXZXZXZXDXZXZXbXkXrX2X;X1X6X3X=X*X%X%X%X%X%X%X%X%X%X*X*X-X-X-X-X2X2X2X4X4X7XyXsXdXdXdXdXhXhXjXjXjXjXjXjXjXjXjXjXkXkXkXvXvXvXvXvXbXbXbXBXCXZXZXZXZXZXDXDXDXDXDXDXDXDXDXDXDXDXFXFXFXHXHXHXHXHXDXDXDXDXDXDXDXDXZXZXZXZXZXZXZXZXZXZXZXZXZXZXZXDXDXDXDXDXDXDXDXDXDXDXDXDXDXDXDXDXDXDXDXDXDXDXDXDXDXDXDXDXDXDXDXDXDXDXZXZXZXZXZXZXZXZXCXCXCXCXCXMXmXmXMXMXMXMXMXmXvXvXvXkXjXjXjXfXgXgXsXaXtXtXtXtXtXtXsXsXsXsXtXtXsXsXsXsXsXsXsXsXgXgXfXfXfXhXjXjXjXkXvXvXvXbXbXCXCXCXCXCXCXCXZXZXZXZXZXZXDXDXDXDXDXDXDXDXDXDXDXDXDXDXDXDXDXDXDXZXNXNXVXCXvX0X XP.a.6.X./ D l s n ( $.1.| u 3 , 0 E :.g.l.n.m.M.G.|.|.|.}.].{.].].].].^.~.W.`.`.`.`.`.`.Q.K.H.H.H.H.L.L.M.L.N.V.L.L.V.V.V.V.V.V.V.n.j.l.j.j.d.d.d.d.d.d.a.a.a.a.a.e.a.d.s.x.x.g.a.a.d.g.g.g.g.g.g.d.s.d.d.d.x.x.x.x.x.x.d.d.d.f.i.p.p.p.q.y.q.q.w.6.9.9.9.=.=.@.@.@.O.O.O.O.o.o.o.o.o.X.[ [ [ [ ] ] ] ] ` / / / / ) ) ) ) ) / / / ^ ^ ^ ^ ^ ~ ~ ~ ~ ~ P P F F S V V V V V G G G H G G ~ I P L L L P P P P L L L L L D D D D D D D D D D D D D D D D S A 6 3 h A F D D F D D D D D D D D C C C L P L D D L L B l l ",
"j l G ( ( F v u 7 7 7 7 7 6 6 6 6 6 6 6 9 9 u i G | | ( | ( n n N v d d a a d d f f f f f f f f f f f f f f k k n n n n m m m m m m m V C F P I ^ / / / ] ] ] ] [ } { { { &.%.%.*.*.*.=.=.6.8.8.e.p.a.g.d.d.k.j.j.V.L.V.B.H.H.H.H.K.K.K.J.K.K.K.K.K.K.K.E.E.E.E.K.K.K.K.E.E.E.K.K.E.`.`.`._._._._._.].].].].{.{.{.{..X.X.X.X.X.X.X.X+X+XOXOX&X&X&X&X&X&X*X*X-X-X-X-X-X3X3X3X3X5X5X5XeXeXeXtXyXyXtXtXtXsXsXsXgXgXdXdXdXdXfXfXfXxXfXfXfXsXeX#X X=XwXeXtXrXyXeXeXeX8X8X8X4X5X5X5X5X5X2X2X2X2X2X1X1X2X2X2X2X3X6X3X3X3X3X3X4X5X8XeXyXtXtXsXsXdXfXhXhXhXhXkXkXnXvXvXbXbXmXMXCXCXCXZXZXZXZXDXDXZXZXZXZXHXHXHXZXZXZXZXZXZXbXkXaXwX;X*X5X6X1X*X*X%X%X%X%X%X%X%X%X%X%X-X-X=X=X2X2X2X4X4X7XyXsXdXdXfXdXjXjXjXjXjXjXjXjXjXjXjXjXkXkXkXvXvXvXvXvXbXbXbXBXCXZXZXZXZXZXZXDXDXDXDXDXDXDXFXFXDXFXFXFXHXHXHXHXHXHXHXHXDXDXDXDXDXDXZXZXZXZXZXZXZXZXZXZXAXAXZXZXZXZXZXZXDXDXDXDXDXDXDXDXDXDXDXDXDXDXDXDXDXDXDXDXDXDXDXDXDXDXDXDXDXDXDXDXZXZXZXZXZXZXZXZXZXCXCXCXMXMXmXMXMXmXbXvXvXvXvXvXkXjXjXjXjXfXsXsXsXaXtXrXtXtXsXsXsXsXsXsXtXtXtXsXsXsXsXtXsXsXsXsXsXfXdXhXjXjXjXkXvXvXvXbXMXCXCXCXCXCXCXCXZXZXZXZXZXZXDXDXDXDXDXDXDXDXDXDXDXDXDXDXDXDXDXDXDXDXZXZXZXVXMXdX@XT.f.6.O.{ I C j y M E $.| 3 : & ; p $.s.V.V.n.M.G.`._._._._._._.T.E.R.R.R.K.H.H.H.H.K.K.K.K.H.H.L.L.M.M.M.N.M.N.V.V.V.V.V.V.V.V.n.l.l.l.l.l.g.d.d.g.d.d.a.a.a.a.a.a.p.s.s.s.s.e.e.e.p.h.e.p.p.p.p.p.p.p.i.f.d.g.g.d.d.d.d.d.s.i.i.p.p.y.q.q.w.w.w.6.=.=.=.=.=.@.@.O.O.O.O.o.o.o.o.X.X.[ [ [ [ ] ] ] ] ` ` / / / / ) ) / / / / ^ ^ ^ ^ ~ ~ ^ I I I I I P P F G V m B m m n H H b h g N M D L L L L L L P L L L L L D D D D D D D D D D D D F F F D L D A 6 ; 1 v H G D D D D D C C D C C C C C L P P D D L G B l l ",
"j l U ( ~ S f r 7 7 7 7 7 7 6 6 6 6 6 6 6 9 u d T ( ( E ,.W v n N v d d a a a d f f f f f f f f f f f f f k k k n n n m m m m m m m m C G U P ~ ( _ / ] ] ] ] ] } } { { o.%.%.%.*.*.=.;.6.6.8.r.e.p.g.d.d.k.k.j.l.V.V.B.L.H.H.H.H.H.K.K.K.K.K.K.K.K.K.K.E.E.E.E.K.K.K.K.E.E.E.K.K.E.W.`.`._._._._.].].].].}.{.{.{.{..X.X.X.X.X.X.XXX+X+XOXOX&X&X&X&X&X&X*X*X-X-X-X-X-X3X3X3X3X5X5X5XeXeXtXtXyXtXtXtXtXsXsXsXgXgXdXdXdXdXfXfXxXxXfXfXfXsXeX#X!.*X5X0X9X9XyXeXeX8X4X4X4X5X4X5X5X4X2X6X2X2X=X=X=X=X1X1X1X1X1X6X3X3X2X2X3X4X4X8X0XeXyXyXtXsXaXdXdXdXhXhXkXkXvXvXvXvXbXbXMXMXCXCXZXZXZXZXDXDXDXZXZXZXHXHXHXZXZXZXAXZXCXbXkXaX2X;X*X3X5X1X*X*X%X%XOX%X%X%X%X%X%X%X-X-X-X=X3X2X2X4X4X7XyXsXdXdXdXhXjXjXjXjXjXjXjXjXjXjXjXjXkXkXkXvXvXvXvXvXbXbXbXBXCXZXZXZXZXZXZXDXDXDXDXDXDXDXFXFXFXFXFXFXHXHXHXHXHXHXHXHXHXHXDXDXDXDXZXZXZXZXZXZXZXZXZXZXZXZXZXZXZXAXZXZXZXDXDXDXDXDXDXDXDXDXDXDXDXDXDXDXDXDXDXDXDXDXDXDXDXDXDXDXDXDXDXZXZXZXZXZXZXZXZXCXCXCXCXMXMXMXMXmXmXvXvXvXvXvXkXkXjXjXjXfXfXgXgXsXaXrXrXrXsXsXtXsXsXsXsXsXsXsXtXtXsXsXsXtXsXsXsXsXsXfXdXhXjXjXjXkXkXvXmXbXbXCXCXCXCXCXCXZXZXZXZXZXZXZXDXDXDXDXDXDXDXDXDXDXDXDXDXDXDXDXDXDXDXDXZXAXZXZXCXkXyX&XC.s.u.>.) Y Z l y v ( | , * # $ 1 W #.g.v.V.m.A.K.K.K.K.K.K.K.F.J.H.J.H.H.L.L.L.L.B.B.B.B.B.L.B.B.N.V.M.N.n.n.V.j.j.l.l.V.n.V.n.l.l.l.d.g.g.g.g.a.a.a.a.p.p.p.p.p.g.s.v.v.s.h.h.y.y.y.q.q.q.q.q.q.q.q.t.p.p.s.g.s.g.g.g.s.i.i.t.t.y.q.w.w.w.9.w.=.=.=.=.=.*.@.O.O.O.O.o.o.o.o.X.X.[ [ [ [ ] ] ] ] ] ` / / / / / / / / / / ^ ^ ^ ^ ~ ~ I I I I I P P L P G G V M k z z g b h 9 4 8 t a k L L L L L L L L L L D D D D D D D D D D D D D D F F F D D D A 6 * * 6 H G D D F D C C C C C Z Z V V L P P C C L D B l l ",
"j l P ~ E S f u 7 7 7 7 7 7 6 9 6 6 6 9 7 u p N | ( ( W J 4.v d N f d d d d d d d d f f f f f f f f f f k k k k k k m m m m m M m B V C F P I ^ / ) ) ] ] ] [ [ } { { o.&.%.%.*.*.=.;.w.w.8.e.e.e.a.d.k.k.k.j.N.N.N.N.B.L.H.H.H.H.H.K.K.K.E.K.K.E.E.E.E.E.E.E.E.K.K.K.J.K.K.K.J.K.K.W.W.`.`._._._.].].].].].{.{.{.{..X.X.X.X.X.XXX.XXXXXOXOX&X&X&X&X&X&X%X-X-X-X2X2X3X3X3X5X5X4X5X5XeXeXtXtXtXtXsXsXsXsXsXgXgXgXgXgXgXgXfXgXgXgXfXfXgXsX5X@X!.#X5X8XyX9XeX8X8X4X5X5X5X5X4X4X6X6X6X1X1X=X=X=X=X=X=X=X=X=X=X=X1X=X3X2X3X5X5X5X0X0X9XyXtXsXaXdXdXdXdXhXkXkXkXvXvXvXvXbXmXMXCXBXZXZXZXZXZXZXZXZXZXZXZXZXZXZXZXZXZXZXCXMXvXdX4X;X*X2X3X3X*X%X%X%X%X%X%X%X%X%X%X%X*X*X*X=X2X2X2X2X4X7XrXdXdXdXhXhXjXjXjXjXjXjXjXjXjXjXjXjXkXkXkXvXvXvXvXvXbXbXbXBXZXZXZXZXZXZXDXDXDXDXDXDXDXDXFXFXDXDXHXHXDXDXDXDXDXDXHXHXDXDXDXDXDXZXZXZXZXZXZXZXZXZXZXZXZXZXZXZXCXCXZXZXZXZXZXZXZXZXZXZXZXDXDXDXDXDXDXDXDXDXDXDXDXDXDXDXDXDXDXDXDXDXZXZXZXZXZXZXZXCXCXCXCXCXCXMXMXMXmXMXmXvXvXkXkXkXkXjXjXjXfXgXfXdXgXtXsXtXtXtXsXsXsXsXsXsXsXsXsXsXsXsXtXtXtXtXsXsXsXsXdXdXdXdXjXjXjXjXkXvXvXvXbXCXBXBXCXCXZXZXZXZXAXAXZXZXDXDXDXDXDXDXDXDXFXFXFXDXDXDXDXDXDXDXDXZXZXZXVXBXMXmXzXuXoXD.s.:.>.) U Z N k S Q < * O O * b $.s.u.u.5.5.5.5.f.x.K.H.Q.}.K.J.C.M.L.L.L.L.L.V.B.V.V.B.B.V.V.V.n.j.j.k.j.j.j.k.k.l.l.l.a.i.a.a.p.e.p.p.a.p.p.p.p.p.p.e.e.e.q.0.#.+.:.:.u.-.#.@.O.X.X.O.*.=.-.u.y.y.y.y.y.y.y.y.y.y.y.t.t.t.q.q.w.w.w.6.9.6.=.=.#.=.=.@.@.O.O.O.O.o.o.o.o.{ [ { [ ] ] ] ] ] ] ` / / / / / / ^ ^ ^ ^ ^ ^ ^ ^ ^ ~ I I I P L L L L F G G Z N N g h u 7 4 5 3 5 4 t m ( U P L L L L L L D D D D D D D D D D D D D D D D D D D D D D G b * & 3 J G S S F D C C C C V Z V V V D U P C C D C B l l ",
"j l P ~ E S f u 7 7 7 7 7 7 6 9 6 9 9 9 7 u v G ( I ~ A ).IXp N N f a a d d d d a d s f f f f f f f f f k k k k k n m m m m M B B B C D P P ~ ( _ ) ] } ] ] [ { { { o.&.&.%.*.*.*.;.w.w.8.q.e.p.a.d.k.j.j.k.j.N.N.N.B.L.L.H.H.H.H.H.J.K.E.E.E.E.Q.Q.E.E.E.E.E.E.K.K.J.K.K.K.K.K.K.K.E.W.`.`._._._.].].].].].{.{.{.{..X.X.X.X.X.X.X.XXXXXOXOX&X&X&X&X&X&X*X-X-X3X2X2X3X3X5X5X4X4X5X5XeXeXtXyXtXtXsXsXsXgXgXgXgXgXgXdXgXgXfXfXfXfXfXfXgXsXeX@X!.@X5XeX9X9X0X4X4X4X5X4X5X4X2X2X6X1X1X=X=X=X=X=X=X=X*X*X*X*X=X=X=X=X-X2X3X3X5X5X8X7X9X9XtXsXaXaXdXdXdXhXjXjXkXkXvXvXvXvXmXMXCXCXCXZXZXZXZXZXZXZXZXZXZXZXZXZXZXZXZXZXCXMXbXjX7X*X;X*X3X-X*X%X%X%X%X%X%X%X%X%X%X%X*X*X*X=X2X2X2X2X4X7XrXdXdXdXhXhXjXjXjXjXjXjXjXjXjXjXjXjXkXkXkXvXvXvXvXvXbXbXbXBXCXZXZXZXZXZXDXDXDXDXDXDXDXDXFXFXDXDXHXHXDXDXDXDXDXDXDXHXDXDXDXDXZXZXZXZXZXZXZXZXZXZXZXZXZXZXZXZXCXCXZXZXZXZXZXZXZXZXZXZXZXZXDXDXDXDXDXDXDXDXDXDXDXDXDXDXDXDXDXZXZXZXZXZXZXZXZXCXCXCXCXCXCXCXCXMXMXmXvXvXvXvXkXkXkXkXjXjXjXfXgXgXsXsXtXtXtXrXtXtXtXtXsXsXsXsXsXsXsXsXsXsXtXtXtXtXsXsXsXdXdXdXdXdXjXjXjXjXkXvXvXvXbXMXBXCXCXCXZXZXZXZXZXZXZXZXDXDXDXDXDXDXDXDXFXFXFXFXFXFXHXHXHXHXDXZXZXCXCXbXmXzXzXfXeXoXD.c.:.+.( U G m f N 3 * # O # 0 W :.#.#.$.$.+.O.#.#.O.#.u.v.D.D.K.Q.V.V.L.L.L.L.V.V.V.V.n.l.l.j.d.a.a.a.d.a.d.d.d.g.g.a.p.0.q.e.p.p.p.p.g.p.p.e.e.e.e.e.e.e.w.@.E A E ' ' $.X.' E E E ' [ +.@.-.-.9.u.u.u.w.9.9.9.9.9.9.w.w.w.w.w.6.6.=.6.=.=.=.#.#.*.@.O.O.O.o.o.o.o.o.{ [ [ [ [ ] ] ] ] ] / / / / / / ^ ^ ^ ^ ^ ^ ^ ^ ^ ^ I I I I P L L L F F F G G Z m g h 0 3 < 3 3 5 8 7 f G ( P P L L L L D D D D D D D D D D D D D D D D D D D D D D D D G A : & : 9 H C C U D D C C C V Z V B B C U P C V D C B l l ",
"j l P ~ E S f u e e 7 7 7 7 9 9 9 9 9 9 7 u v H | _ I A bXpX9 N H f a a d d d d d d d s f f f f f f f n k k k k n n m m m m V B V V D P P I ^ / / ) } ] ] [ { { o.o.&.%.*.*.*.*.=.=.w.w.8.q.e.a.d.d.k.k.j.k.N.N.N.N.L.L.L.H.H.H.H.K.K.K.E.E.Q.Q.Q.Q.E.E.E.E.K.K.E.E.K.K.K.K.K.K.F.K.E.W.`.`._._._._.].].].].{.{.{.{..X.X.X.X.X.X.XXX+XOX&XOX&X%X&X&X&X%X*X-X-X2X2X3X3X3X5X5X5XwXeXeXeXeXyXtXtXtXsXsXsXgXgXdXsXgXgXgXsXgXgXgXfXfXxXfXfXfXeX X!. X3XeX9X9XeX4X4X4X5X2X3X2X2X2X2X=X=X=X=X=X=X*X*X=X*X*X*X*X=X-X-X-X-X-X3X2X5X5X8X8X0X9XtXtXaXaXdXdXdXfXjXjXkXkXvXvXvXvXmXmXCXCXCXZXZXZXZXZXZXZXZXZXZXZXZXZXZXZXZXCXCXCXBXvXrX1X;X;X*X-X*X%X%XOX%X%X&X&X%X%X%X%X%X*X*X=X1X6X6XqX4X7XyXdXdXfXjXjXjXjXjXjXjXjXjXjXjXjXjXjXkXkXkXvXvXvXvXvXbXbXbXBXZXZXZXZXZXZXDXDXDXDXDXDXDXDXDXDXDXDXHXHXFXFXDXDXDXDXDXDXDXDXDXDXZXZXZXZXZXZXZXZXZXZXCXCXCXCXCXCXCXCXCXCXCXCXZXZXZXZXZXZXZXZXDXDXDXDXDXDXHXDXHXHXZXZXZXZXZXZXZXZXZXZXZXZXZXCXCXCXCXCXCXCXCXCXCXMXMXmXvXvXvXvXkXkXkXkXjXjXjXfXgXgXdXsXsXtXtXrXtXtXtXtXsXsXsXtXtXtXsXsXsXsXtXtXtXtXtXtXsXgXdXdXdXdXfXjXjXjXkXmXmXMXmXCXCXCXCXCXAXAXZXZXZXZXZXZXDXHXHXHXHXFXFXFXFXGXGXFXGXGXGXGXFXHXDXZXMXmXmXzXjXgXgXgXfXeX+XS.v.-.+.' F V j a 6 , * $ O * E X.O.+.' ' [ { [ [ { / ~ ` [ +.+.:.:.9.y.g.v.V.V.V.V.l.l.l.l.l.d.a.p.p.p.a.a.d.g.g.g.g.p.q.6.6.#.#.8.e.g.g.p.e.e.e.e.r.e.e.w.O.E n f n A W ( F S S M S F / [ o.%.*.*.*.*.=.*.*.*.*.#.#.#.=.9.w.6.6.6.6.6.=.=.=.=.=.*.@.O.O.O.o.o.o.o.{ { [ [ [ [ ] ] ] ] ] / / / / / ^ ^ ^ ^ ^ ^ ^ ^ ^ ^ I I I I P P L L F F F G G Z N z g 0 ; ; : 3 9 p v d M S F P P U U L L D D D D D D D D D D D D D D D D D D D D D D S G G W 0 * & , A C C U F D C C V C Z V B B C U U C V C C B l l ",
"j l U ~ E S v p e e 7 7 7 7 7 9 9 9 9 9 7 p M G ..) P H BXpXb N N f a a d d d d d d d d f f f f f f f n k k k n m n m m m V B V V C D U U ~ ( / ) ] ] ] [ { { o.o.O.%.*.*.*.*.*.=.=.6.w.8.r.e.a.a.a.k.k.j.k.N.N.N.B.L.L.L.H.H.K.H.K.K.K.E.E.Q.Q.Q.Q.E.E.E.K.K.K.K.K.K.K.K.K.K.K.F.K.E.W.`.W.`.`._._.].].].].{.{.{.{.{..X.X.X.X.XXXXX+X+XOX&X%X%X&X%X%X%X*X-X-X2X2X3X3X3X5X5X5XwXeXeXeXeXyXyXtXtXsXsXsXgXsXgXsXsXsXsXsXgXgXgXgXgXgXgXdXdXeX X X X5XeXeX9XeX4X4X4X3X2X3X2X2X2X2X=X=X=X*X*X*X*X*X*X*X*X*X*X-X-X-X-X=X-X2X2X2X5X4X8X8X0XyX9XsXiXdXdXdXdXfXjXkXkXkXvXvXvXvXmXCXCXCXCXZXZXZXZXZXZXZXZXZXZXZXZXZXZXCXCXCXCXCXbXaXqX;X;X;X%X%X%XOXOX%X%X&X&X%X%X&X&X&X*X*X=X1X6X6X6X4X7XyXdXdXdXjXjXjXjXjXjXjXjXjXjXjXjXjXkXkXkXkXvXvXvXvXvXvXbXbXBXZXZXZXZXZXZXDXDXDXDXDXDXDXDXDXDXDXDXHXFXFXFXDXDXDXHXDXDXDXDXDXDXZXZXZXZXZXZXZXZXZXZXCXCXCXCXCXCXCXCXCXCXCXCXCXZXZXZXZXZXZXZXDXDXDXDXDXDXHXHXHXHXZXZXZXZXZXZXZXZXZXZXZXZXCXCXCXCXCXCXCXCXCXCXMXMXMXMXvXvXvXkXkXkXkXjXjXjXfXfXgXgXsXsXsXtXtXrXtXtXtXtXsXsXsXtXtXtXtXtXsXsXtXtXtXtXtXsXsXgXdXdXdXdXfXfXjXjXkXmXmXMXMXCXCXZXAXAXZXAXZXZXDXZXHXHXHXHXHXHXFXGXGXFXFXGXGXGXJXJXJXJXGXFXDXZXmXzXzXfXtXyXyXtXtXyX:X}.B.i.#.X.^ L Z g 7 < ; $ # # b E :.$.+.+.o.{ ] ) / I I ) ) ^ ~ P / ` o.*.;.h.g.v.g.g.g.l.g.g.a.e.p.p.p.p.g.g.g.d.g.g.h.w.=.O.W E O.w.p.p.e.e.e.e.e.r.r.e.p.-.' E A n f N H G A M f k m S E ` [ o.O.O.O.O.O.O.@.@.@.@.@.@.=.w.w.6.6.6.6.=.;.=.=.=.*.@.O.O.O.o.o.o.{ { { [ [ [ [ ] ] ] ] ] / / / / ^ ^ / ^ ^ ^ ^ ^ ^ I I I I I I P P L L F F F F G N N g h > & * , 5 h Q ,.A G S D L L U U L L F D D C D D C C D C S C C C C S D D D D D D D G G Q 9 : $ * p V V F F S C C V B Z B B B C U U C V C C B l l ",
"k m ( ~ ~ S n d p u u e e e u u u u e e e d E $.>.[ | A lXDX).b N f a d d d d d d d f f f f f f f f f k k n n n m m m m m V V V V C F U ~ ^ ( ( ] ] ] [ [ o.o.o.O.O.%.*.*.*.*.=.=.6.6.w.q.r.a.a.a.k.k.k.j.N.N.N.L.L.L.L.L.H.H.K.K.K.K.K.E.E.Q.Q.E.E.E.E.E.E.K.K.K.K.J.J.J.J.K.F.F.K.E.E.Q.`._._._.].].].[.[.{.{..X}..X.X.X.X.X.X.X.X+X+XOXOX%X%X%X%X*X-X-X=X3X2X2X2X3X3X5X5X4X4XwXeXyXeXeXyXtXsXtXtXsXsXsXsXsXsXsXsXgXgXfXfXfXsXsXsXdXdXtX X X XwXeXeXeX8X4X5X3X2X2X2X2X1X=X=X=X=X*X*X%X%X%X%X%X%X%X%X%X=X=X-X-X-X=X3X2X2X2X5X5X4X8X0X9XiXsXgXdXdXdXfXhXjXkXkXvXkXvXvXbXbXBXCXCXCXZXZXZXZXZXZXCXZXZXZXZXZXAXCXCXCXCXZXBXkXrX1X;X;X;X%XOX+XOX%X%X%X%X%X%X%X%X%X-X-X-X-X2X6X1X4X0XyXsXdXdXjXhXhXhXjXjXjXjXkXkXjXjXkXkXjXjXkXkXkXvXvXvXvXbXbXBXCXZXZXZXZXZXZXDXDXDXDXDXDXDXDXDXDXDXDXDXDXDXHXDXDXHXDXDXDXDXDXDXZXZXZXZXZXZXCXCXCXCXCXCXCXCXCXBXCXCXCXCXCXCXCXCXCXZXAXAXZXZXZXZXZXZXZXZXZXZXZXZXZXZXZXZXAXAXZXZXZXCXCXCXCXCXCXCXCXCXCXCXCXbXbXbXbXvXvXvXvXkXkXkXjXjXjXfXfXgXsXgXgXsXsXsXsXrXtXyXtXtXtXtXtXtXsXtXtXtXtXtXtXtXtXtXtXtXsXsXgXgXgXgXgXfXfXjXkXmXNXCXCXZXZXZXZXZXZXDXDXDXDXDXHXHXHXHXFXGXJXLXFXFXFXGXJXJXJXJXJXJXLXDXZXMXmXjXsXeX2X%X-X'.T.T.E.E.m.c.:.+.^ L x y e 4 ; $ $ $ * 0 W 2.u.;.*.O.[ ] ] / ^ ^ ^ ^ ^ P P ^ } o.%.;.h.g.g.g.g.g.g.g.p.e.e.p.p.e.e.g.g.v.V.g.q.6.-.E p 9 E u.s.e.q.r.r.r.e.7.7.r.i.D.v.$.$.E H g d v H H f f f k V F ( ` X.o.O.O.O.O.O.O.o.O.O.@.*.=.;.;.;.;.;.-.;.*.*.*.*.*.O.O.o.o.o.[ [ [ [ } ] ] ] ] ` / / / ) ^ ^ / / ^ _ ^ ^ ^ ^ ~ I I I I I L L L L L L F F F L G N b h 0 & $ & * : 0 q b 3 9 N T T R K C G G G G C C C C C C S C C C C C C C S S C D D C V C G Q b 1 $ $ 9 N V M S S V B B B B Z B B C U U C V C C B l l ",
"k m ~ ( ~ F M n f g d u u u a d a a a a d M / X.[ } ~ ,.4.IX,Xp N f a a d d p d d d f f f f f f f f f k n n n n m m m M B V V V V S F P ~ ( ( ) ] ] ] [ { o.o.O.O.O.%.*.*.*.=.=.6.6.w.0.q.e.a.a.a.k.k.k.j.N.N.M.L.L.L.L.L.H.H.H.K.K.K.K.E.E.Q.Q.E.E.E.E.E.K.K.K.J.J.J.J.J.J.K.F.F.K.E.E.W.Q.W._._.].].].[.[.{.{..X}.{..X.X.X.X.X.X.X+X+XOXOX%X%X%X%X*X*X-X=X3X3X2X2X3X3X5X5X4X4X7X7XyXeXyXtXtXtXtXtXsXsXsXsXsXsXsXsXgXdXfXfXdXsXtXtXfXdXtX X XXXwXwXeXeX8X4X3X3X2X2X2X2X=X=X=X=X*X*X%X%X%X%X%X%X%X%X%X%X=X=X-X-X*X*X-X-X2X2X2X5X4X4X0X0X9X9XsXaXgXgXdXdXjXjXkXkXkXvXvXbXbXBXCXCXCXCXCXZXCXCXCXCXZXZXZXZXCXCXCXCXCXCXZXCXmXjXrX1X;X;XOXOXOX+XOX%X%X%X%X%X%X%X&X-X-X=X-X-X1X1X8XtXtXsXgXdXjXhXhXhXjXjXjXjXkXkXjXjXkXkXkXkXkXkXkXvXvXvXvXbXbXbXCXZXZXZXZXZXZXZXDXDXDXDXDXDXDXDXDXDXDXDXDXDXHXHXDXHXDXDXDXDXDXDXZXZXZXZXZXZXCXCXCXCXCXCXCXCXBXBXCXCXCXCXCXCXCXCXCXCXAXAXZXZXZXZXZXZXZXZXZXZXZXZXZXZXZXZXAXAXZXZXCXCXCXCXCXCXCXCXCXCXCXCXCXMXbXbXbXbXvXvXvXkXkXjXjXfXfXfXfXfXgXgXgXgXsXsXsXaXtXyXtXtXtXtXtXtXsXsXtXtXtXtXtXtXtXtXtXtXsXsXgXgXgXaXgXgXfXjXkXmXMXCXZXZXDXDXDXDXDXDXDXDXFXDXHXHXHXHXFXGXLXGXHXZXZXHXGXJXJXLXLXJXJXHXNXmXfXtX5X=X+X].W.z.5.f.c.A.z.<.$.| W H H g p 9 1 * $ # $ > p F ] o.u.:.>.>.[ / ( U U Y ^ I L I )  .&.%.;.h.g.g.g.g.g.p.e.e.e.e.e.e.h.g.g.V.V.d.8.=.} A 9 9 W b.s.q.q.r.r.r.r.7.q.t.c.D./.b.<.W v g 4 4 6 u p g g a m G E ( ' { o.o.o.o.o.o.X.o.O.O.*.*.;.;.;.;.;.;.*.@.@.*.O.O.O.o.X.[ [ [ ] ] ] ] ] ] / / / ^ ^ ^ / ~ ^ ) _ I ^ ^ I I I I I P P P L L L L L D D F F F D G v h 0 , $ $ $ & ; 1 5 < : 4 N T H T Z Z Z Z H G S C C C C C C C C V C C C C C C C C G V n n N b q > $ # 0 v A S S A M B B B B B B B C U U C B C V B l l ",
"k m ( / / E A N n N v d d d v v f f f f N G E / &.2.G H ,.3.p d N v f a p i i p p d d f d f f f f f k n n n m m m m V V V V V V C D D P ^ ( / ] ] ] [ [ o.o.O.O.%.*.*.*.*.=.=.6.6.6.0.q.e.e.a.a.a.k.k.k.k.N.N.L.L.L.L.L.H.H.H.H.K.K.K.K.E.E.Q.Q.E.E.E.E.E.E.K.K.K.K.K.K.J.K.K.F.G.K.E.E.W.Q.W._.].].].].].[.}.}.}.}.{..X.X.X.X.X.X.X+X+XOXOX%X%X%X%X-X-X-X-X2X2X2X3X3X3X5X5X5X5XeXeXeXtXrXtXtXtXsXsXgXgXsXsXsXsXsXsXgXfXhXhXfXdX5X@X7XsXtX(. XXXwX5XeX8X5X4X3X3X2X2X2X2X=X=X=X*X*X%X%X%X%X%X%X%X&X&X&X%X&X&X-X-X*X*X-X-X2X2X3X3X4X4XeX0XyXyXtXtXsXgXdXdXhXjXjXjXkXkXvXvXMXbXCXCXCXCXCXCXCXCXCXCXCXCXCXCXCXCXCXMXMXCXCXCXCXmXjXrX2X;X%XOX+X+X%X#X%X%X%X%X%X%X*X=X=X=X-X-X*X2X0XsXaXgXdXfXjXjXjXjXjXjXjXjXkXkXjXjXkXkXkXkXkXkXvXvXvXvXbXbXbXbXCXCXCXZXAXZXZXZXDXDXDXDXDXDXDXDXDXDXDXDXDXDXDXHXDXDXDXDXDXDXDXZXZXZXZXZXZXCXCXCXCXCXCXCXCXCXBXCXCXCXCXCXCXCXCXCXCXCXCXCXZXZXZXZXZXZXZXZXZXZXZXZXZXZXZXZXZXZXZXCXCXCXCXCXCXCXCXCXMXMXMXMXMXMXbXbXbXbXvXvXvXkXkXjXjXfXfXfXfXfXdXdXgXgXsXsXsXsXtXyXyXtXtXtXtXtXtXtXtXtXtXtXtXtXtXtXrXaXtXtXsXgXgXaXsXgXfXjXkXmXMXZXZXFXFXFXFXFXFXFXFXFXFXDXBXbXBXZXDXDXHXZXMXmXvXbXCXDXGXJXJXJXHXNXzXfX6X&XoX}.`.H.D.u.$.$.' | ,.Q Q Q Q J J J h 9 4 , & O # ; p A E ` E F S M ( _ _ T U U ^ ^ L I ^ } o.O.;.9.q.h.g.g.g.p.e.q.q.q.q.q.h.g.g.V.V.d.w.X.E 9 < 9 ,.b.g.8.e.q.8.8.6.9.u.:.<.<.! W W b u 6 : ; : < 4 4 6 7 p v A S ~ ' +.o.o.[ [ [ [ [ o.O.O.*.*.;.-.;.*.*.*.@.*.%.O.O.o.X.[ [ [ [ ] ] ] ` ` / / / / ^ ^ ^ ^ I ( ....P P I I I I L P P P P L L F F F D D D F F S H f h 0 * $ # $ & ; , < , , < 8 t j j l m N Z H H V V C V V V V V V V V V V V V V V V M n p u 9 0 0 > % # 1 b A G S S V B B B B B B B C U U C B C C B l l ",
"k m ( / / ~ S M m N n n f n n N N n n n H S S F / 2.2.B V G d v N v d d u 7 7 u p d d f d f f f f f k n n n m m m M V V V V V V C D D P ~ ^ / ] ] [ [ [ o.+.O.%.*.*.*.*.=.=.6.6.6.7.q.e.e.e.a.a.a.k.k.k.N.N.L.L.L.L.H.L.H.H.H.H.K.K.K.K.E.E.Q.Q.E.E.E.E.R.E.K.K.K.K.K.J.J.J.K.F.G.K.K.E.W.Q.W._.].].].].].}.}.}.}.}.oX.X.X.X.X.X.X.X+X+XOXOX%X%X%X%X-X-X-X-X2X2X2X3X3X5X5X5X5X5XeXeXeXtXrXtXtXrXtXsXgXsXsXsXgXgXdXgXdXxXjXhXdXsX1X>X XwXeX X XXX3X5X5X4X4X3X2X2X-X-X-X-X=X-X-X*X%X%X%X%X%X%X%X%X%X%X%X%X%X%X-X&X*X*X-X-X-X2X3X3X3X4XwXwX0X9XyXrXtXaXgXdXhXjXjXjXkXkXkXvXbXMXMXCXCXCXCXCXCXCXCXCXCXCXCXCXCXCXMXMXMXMXCXCXCXCXmXjXtX2X*X%XOXOX%X%X%X%X%X%X%X%X*X=X1X=X-X-X-X2XtXdXsXaXdXfXjXjXjXjXjXjXjXjXkXkXjXkXkXkXkXkXkXkXvXvXvXvXvXbXbXbXCXCXCXCXAXZXZXZXDXDXDXDXDXDXDXDXDXDXDXDXDXDXDXDXDXDXDXDXDXDXZXZXZXZXZXZXCXCXCXCXCXCXCXCXCXBXCXCXCXCXCXCXCXCXCXCXCXCXCXCXCXCXCXCXCXCXZXZXZXCXZXZXZXZXZXZXZXZXCXCXCXCXCXCXCXCXCXCXMXMXMXMXMXMXbXbXbXbXvXvXvXkXkXjXjXjXfXfXfXdXdXdXgXgXsXsXsXtXtXyXtXtXsXtXtXtXtXtXtXtXtXtXtXtXrXrXrXaXtXtXsXgXgXgXsXsXgXfXjXkXvXbXCXCXZXZXZXDXDXDXZXZXZXmXhXpXpXhXlXvXvXkXjXdXiXiXiXpXnXnXnXlXpXqX@X!.~.Z.V.l.p.y.v.:.$.~ M a e 6 5 1 1 , 1 3 q q 0 1 & # # * b H F S A M f f V ^ _ T U U I ^ L L ^ ) { o.*.;.9.w.p.g.g.e.q.q.q.q.8.q.h.h.d.V.x.x.-.E A 5 , q <./.g.8.h.h.h.h.u.' v u 6 5 < < , 5 4 < * * * > : , , < 9 p v M F ~ ] [ [ [ [ [ [ [ o.o.O.O.*.-.*.*.*.*.*.*.%.%.O.O.o.o.[ [ [ [ ] ] ] ` / / / / / ^ ^ ~ ~ P ^ 2.2.^ P P L L P P P L L L L L F F D D D D D D S H p 9 , & $ $ $ & ; , < : , < 7 r y s j z N N N N N M V V V V V V V V V V V V V V V m f p 6 4 < : * = % # : p N G G S V B B B B B B m V U U C B C Z B l j ",
"n M ( / / ~ S M m M M n n M N H H n m G S S M M m m N x I ~ a n M n f d p 5 3 9 p d d f d f f f f k k n k n m M m V V V V V V C C D D L I ^ / ) ] [ [ [ o.%.%.*.*.*.*.*.=.6.6.6.7.8.q.e.e.p.d.a.a.d.k.j.j.N.L.L.H.H.L.H.H.H.H.H.K.K.K.E.E.Q.Q.Q.E.E.E.E.E.R.J.J.J.J.J.J.J.J.J.F.G.K.K.K.W.W.W._._.].].].[.[.}.}.}.}..X.X.X.XoX.X.X.X+X+XOXOXOX%X%X%X-X-X-X2X2X3X3X3X5X5X5X5XwX8XeXeXeXtXtXtXsXsXsXsXsXsXsXdXgXdXdXdXdXfXfXjXfXsX$X! z._.&XoX^.oX3X6X5X5X4X3X2X2X-X-X-X-X*X-X-X&X&X&X%X%X%X&X&X&X&X&X&X&X%X%X&X&X%X%X-X-X=X=X3X3X2X3X3X5XeXeXyXyXtXsXgXdXdXhXjXjXjXkXkXvXvXbXbXbXCXCXCXCXCXCXCXCXCXCXCXCXCXCXCXMXMXCXCXCXCXCXMXmXjXyX2X*X%XOX%X#X%X%X%X%X%X%X=X=X1X=X&X&X*X2XeXsXsXiXdXfXjXjXjXjXjXjXjXjXkXkXkXkXhXhXkXkXkXkXkXvXvXvXvXbXbXbXCXCXCXCXCXZXZXDXDXDXDXDXDXDXDXDXDXDXDXDXDXDXDXDXDXDXDXDXDXDXZXZXZXZXZXZXCXCXCXBXBXBXCXCXCXbXBXBXCXCXCXCXCXCXCXCXCXCXCXCXCXCXCXCXCXCXCXZXZXCXCXCXCXZXAXAXAXCXCXCXCXCXCXCXCXCXCXCXMXMXMXMXMXbXbXbXbXbXvXvXkXkXkXjXjXfXfXfXfXfXdXdXdXsXsXsXsXtXtXrXrXrXsXsXtXtXtXtXtXtXtXtXtXtXtXtXtXtXtXtXtXsXgXgXgXgXsXgXfXfXfXjXjXjXzXzXzXzXzXkXkXkXzXsX5X1X*X*X1X1X5X5X6X6X1X*X*X*X*X1XqX1X@X X!.A.A.s.9.@.-.:.:.1.} ( C s u 3 , & & & & & > > 2 > $ O O # : u ,.V v d g k | ~ L C j C 2.I K L ^ ) { o.O.;.9.w.p.p.e.e.q.q.q.0.0.w.h.h.a.j.x.c.u.' 4 , ; : Q U.:.h.u.u.:.<.A p e u 7 4 3 3 < < 1 > $ # $ $ & = > , 0 p v A S ( ] } ] ] ] ] ] ] [ o.o.+.@.*.*.*.*.*.*.%.%.%.%.O.o.o.[ [ [ ] ] ] ] ] / / / / ^ ^ ^ I I L ^ ..2.| I D D L P U U L L L D D D D D D D D D D A v p 4 ; $ $ $ $ & ; : < , : < 4 8 y y a a a g z N H H N M M M M M M M V V M m B B m v u 4 , > * & $ % % # * 5 v H G S M m B B B B B l C U L C B C Z B x l ",
"m M ( / / ~ S m m M M M M B Z G G M M G S M n n f k c l 1.| a k M n f d h 3 , 4 h p d f f f f f f k k n n n m M m V V V V V C C D D D F P ~ / ] } [ [ [ o.%.%.*.*.*.=.=.=.6.6.6.7.8.e.e.e.p.d.a.a.d.k.j.N.V.L.L.H.H.H.H.H.H.H.H.H.K.K.K.E.Q.Q.Q.E.E.E.E.E.R.J.J.J.J.J.J.J.J.J.F.G.G.K.K.W.W.W.W.~.].].].}.[.}.}.}.{..X.X.X.XoXoX.X.X+X+XOXOXOX%X%X%X-X=X-X2X2X3X3X3X5X5X5X5X8X8XyXyXeXtXtXtXsXsXsXsXsXsXsXdXgXdXhXhXdXdX9X@X$X=XoX5.' m.}.^.^.$X6X5X5X4X2X2X2X-X-X-X-X-X-X-X&X&X&X%X%X%X&X&X%X&XXXXXXX#X%X%X%X%X%X%X*X*X=X=X3X3X3X2X3X5XwX8XeXyXtXsXgXdXdXhXjXjXjXjXkXvXvXvXMXbXCXCXCXCXCXCXCXCXCXCXCXCXCXCXCXCXCXCXCXCXCXCXCXmXkXsX4X=X%XOX%X%X%X%X%X%X%X%X=X=X=X=X&X-X-X1X7XsXdXfXfXfXjXjXjXjXjXjXjXjXkXkXkXjXhXhXkXkXkXkXkXvXvXvXvXbXbXbXCXCXCXCXCXZXZXDXDXDXDXDXDXDXDXDXDXDXDXDXDXDXDXDXDXDXDXDXDXDXZXZXZXZXZXZXCXCXCXBXBXBXCXCXCXCXBXBXCXMXCXCXCXCXCXCXCXCXCXCXMXMXCXCXCXCXCXCXCXCXCXCXCXCXAXAXAXCXCXCXCXCXCXCXCXCXCXCXMXMXMXMXMXbXbXbXvXvXvXvXkXkXkXjXjXfXfXfXfXfXdXdXsXsXsXsXsXtXtXrXrXrXsXsXtXtXtXtXtXtXtXtXtXtXtXtXtXtXtXtXsXsXgXgXgXgXgXgXsXsXuXuXrXuXaXaXaXrXrX7X7X0XeX5X-X%X#XXX#X#X#X#X#X#X#XXX X X XXX#X$X&X+X_.C.v.y.@.[ S S D I ..| ( A b p 9 : & $ # $ $ $ & & # O + O * < ,.N 7 7 p v 1.2.( I j C I C L U ^ } { o.*.;.w.q.p.e.e.q.q.q.w.7.7.6.w.q.e.d.x.b.$.E 4 , ; : p <.1.:.:.>.$.( S A M A N J J 8 5 , * $ O + O # # $ = ; 3 9 p v A F ( ] ] / / / / ] [ [ +.o.+.@.O.O.O.O.%.O.O.%.O.o.o.{ [ [ [ ] ] ] / / / / / ^ ^ ^ I I P L L ( | _ U U L L L U L L D D D D D D D D D D D G H v 9 < & $ # $ $ & * : , , : , 5 8 a y a i r r a g v N N M M M M M m M M m m m B B m d 6 < ; = # O O O # # $ 1 v Z G V M m B B B B B l B L L V B C Z x x l ",
"m V ( / / ~ S M m m m m M V V Z Z m M S V m f f a s c k U.1.n l B m f p 9 , : 4 h p d f f f f g f k k n n n m M M M V V V C S S D D D F P ^ / ] } { { X.o.%.%.*.*.*.=.=.=.6.6.7.7.r.e.e.e.p.d.a.a.d.k.j.N.V.B.L.C.C.H.H.H.H.H.H.K.K.K.K.E.Q.E.E.E.E.E.E.E.K.J.J.J.J.J.J.J.J.G.G.G.G.K.K.E.W.W.W.].].].].[.}.}.}.}.{..X.X.XoXoXoX.X.X+X+XXXXXOX%X%X%X-X=X-X2X2X2X3X3X5X5X5X5XeXeXeXeXeXtXtXtXsXsXsXsXsXsXsXdXdXdXhXhXdXsX6Xz.P.A.Q.v.E u.v.A.Q.$X6X5X5X4X2X2X-X-X-X-X*X*X%X%X%X%X&X%X%X%XXXOX%X%XXXXXOX&X%X%X%X%X%X%X-X-X=X=X-X-X-X-X3X3X4X4XeXeXyXtXsXdXdXhXhXjXjXjXkXkXvXvXbXbXMXMXCXCXCXCXCXCXCXCXCXCXCXCXCXCXCXCXCXCXCXCXMXmXkXaX4X=X%X#X%X%X%X%X%X%X%X%X&X&X=X-X-X-X=X6X1XeXsXsXfXfXfXjXjXjXjXjXjXjXkXkXkXjXhXhXkXvXvXvXkXvXvXvXvXbXbXbXCXCXCXCXCXZXZXZXZXDXDXDXDXDXDXDXDXDXDXDXDXDXDXDXDXDXDXDXDXDXZXZXZXZXZXCXCXCXCXCXCXCXMXMXCXCXbXbXMXMXMXMXCXCXMXMXMXMXMXMXMXMXMXMXMXMXMXCXCXCXCXCXCXCXAXAXAXAXCXCXCXCXCXCXCXCXCXCXMXMXMXMXMXbXbXnXvXvXvXvXkXkXjXjXfXfXfXfXfXfXdXgXsXsXsXsXsXtXtXrXrXrXsXtXtXtXtXtXtXtXtXtXtXtXtXtXtXtXtXtXtXsXgXgXgXsXsXsXtXuXtXtXrXtXrXrXrXyXrXeXeXeXeX8X5X3X3X3X6X5X2X-X-X%X;X;X;X;X;X*X6X1X=X+X`.N.0.@.' S f y j D | <.b.U.z.z.z.! b 4 : ; # # $ $ # + X + $ < J a 5 3 4 u W b.b.| k j _ I U C I } o.o.@.;.w.q.p.e.q.q.8.8.7.7.7.6.w.8.r.i.m.b.$.p 4 : * ; < W <.' { +.[ ~ / | ( ( G H J 0 > = $ # O + + O # # $ & : 5 9 p v A F ( ( ^ ~ ~ ~ / ` ] [ X.o.+.+.+.O.O.O.O.O.O.o.o.[ [ ] ] ] ` / / / / ^ ^ ^ ~ I I P L L D D D L L L U L D C C C C C C D C D S D D D D D G H v 4 ; $ % # $ $ & * ; , , : , 5 8 p y i i t 7 t e u d v n M M M M M M M M m m B B k e 3 ; $ O o o o o O # # > p N Z Z N m m B B B m l B L L C B C Z x x x ",
"M V ~ / / ~ S M m m m m M M V Z Z m M S M m k s a a c f U.U.S m B m f p 3 ; : 0 p p d f f f g g g f k n n n m M M M V V V C S S D D D F P ^ / ] } } { o.o.%.%.*.*.;.=.=.6.6.6.7.7.r.e.p.p.a.d.a.d.d.k.j.N.V.B.L.C.H.H.H.H.H.H.K.K.K.K.K.E.E.E.E.E.E.E.E.E.K.K.J.J.J.J.J.J.J.G.G.G.G.K.K.E.W.W.W._.].].].[.[.}.}.}.}.oX.XoXoXoXoX.X.X+X+X+X+X&X&X%X%X-X=X-X2X2X2X3X3X5X5X5X5XeXeXeXeXeXtXtXtXsXsXsXsXsXsXsXgXsXfXhXhXdXtX(.<.5.+.-.b./ E >.:./.oX6X5X4X5X2X-X-X-X-X-X*X*X%X%X%X%X%X%X%X%XXXOXOXOXXXXXOXOX%X%X%X%X%X%X-X-X=X*X-X-X-X-X3X3X5X4XeXeXyXtXsXdXdXhXhXjXjXjXkXkXvXvXbXbXMXMXCXCXCXCXCXCXCXCXCXCXCXCXCXCXCXCXCXCXCXMXMXmXkXaX4X=X%X#X%X%X%X%X%X%X%X%X&X&X-X-X-X=X=X1X1X4X7XrXdXfXjXjXjXjXhXhXjXkXjXjXjXjXhXkXvXvXvXvXvXvXvXvXvXbXbXbXCXCXCXCXCXZXZXZXZXZXDXDXDXDXDXDXDXDXDXDXDXDXDXDXDXDXDXDXDXZXZXZXZXZXCXCXCXCXCXCXCXCXMXCXCXCXbXbXMXMXMXMXMXMXMXMXMXMXMXNXmXmXMXMXMXMXCXCXCXCXCXCXCXCXZXAXAXCXCXCXCXCXCXCXCXCXCXCXMXmXmXmXMXmXmXvXvXvXvXkXkXkXjXjXfXfXgXgXfXfXdXgXsXsXsXsXsXtXtXrXrXrXsXtXtXtXtXtXtXtXtXtXtXtXtXtXtXtXtXtXtXtXsXsXsXsXsXtXtXtXtXtXtXtXtXtXtXyXeXeXeXeX8X8X8X8X8X8X9X9XeXwXwX:X%X%X%X*X2X2X4X3X&X}.F.f.@.' M a H j B | 1.b.b.^.=X3X3XU.| A 9 1 * & & $ % + X + O q h 8 4 < < 3 b <.U.b.k r 1...U C P } o.O.O.=.w.q.p.e.q.8.8.8.7.7.7.6.w.7.7.r.v.z.W 9 1 ; * ; < b W G ( | 2.....$.| G N p 3 ; & $ # # O + + O # # # $ * , 5 9 d v S F I I ~ ~ ~ ~ ~ ` ` [ X.o.o.o.o.o.O.o.o.o.o.{ [ [ ] ` ` / / / / ^ ^ ^ ~ I I P L D D G S D L L C C C Z B m M B V V C S D S S S C C C G H h < * $ # # $ $ $ & * : : > : 3 8 i a r r 8 8 8 8 8 e p g N M M M m m M m m m B m a 6 : & # + o o o o O # # > u N H H M m B B B B m l B L L C B C Z x x x ",
"V S ~ ^ ~ F V m m m m m m m V B B m M S V m k s a g c k 1.U.F m M n g h : * , 9 p v f k f g g g g f f n n n m M M M V V C C S G D D D F I ^ / ] [ { { o.o.%.*.*.*.;.;.=.6.6.6.7.8.r.e.p.a.a.a.d.d.k.k.j.N.N.L.L.L.L.H.H.H.G.G.K.K.K.K.K.E.E.E.E.E.E.E.K.K.J.J.J.J.J.J.J.J.H.G.G.C.G.K.K.E.W.W.W.].].].].}.}.}.}.}.}.{.{.oXoXoXoX.XoXoXoX+X+X&X&X%X*X-X-X2X2X2X3X3X3X5X5X5X5XeXeXeXeXtXtXtXtXtXtXuXsXsXsXsXsXsXgXjXhXdX9X! E 1.| E ~ G d F | z.$X3X5X5X4X6X1X%X%X-X-X*X*X%X%X%X%X%X%X%XOXXXXXXXOXOXOXXXXX&X&X%X%X%X%X*X*X*X*X-X-X-X-X3X3X3X5X8X0XyX9XsXaXdXdXhXhXjXjXjXkXvXvXbXbXbXbXMXMXMXMXMXMXCXCXCXCXCXCXCXCXCXBXBXBXMXmXmXzXjXsX5X=X$X&XOX&X%X%X%X%X%X%X&X&X&X&X-X*X-X2X2X1X2X7XdXjXjXhXjXdXdXdXjXzXxXfXgXfXhXvXvXvXvXvXvXvXvXvXvXbXbXbXCXCXCXCXCXZXZXZXZXZXDXDXDXDXDXDXDXDXDXDXDXDXDXDXDXDXZXZXZXDXZXZXZXZXCXCXCXCXCXMXMXMXMXMXMXMXbXbXbXbXMXbXbXbXbXMXmXMXMXMXMXMXMXMXMXMXMXMXMXCXCXCXCXCXCXCXZXZXAXAXAXCXCXCXVXSXZXAXNXzXlXkXmXmXkXzXkXkXkXkXkXkXjXjXfXfXfXfXsXsXdXdXsXsXtXtXtXtXtXtXtXtXtXtXtXtXtXtXtXtXyXyXyXtXtXtXyXyXtXtXtXtXsXsXsXtXtXtXtXtXtXsXtXsXtXtXtXeXeXwXwXwX4X8XeXtXtXsXsXdXgXaXyXwX-XOX+X&X=X2X4X3X+XQ.c.#.[ S d r y j G $.$.s.v.A.=XeXtX$X$.' E p h 1 & # o o o o # 2 q 4 8 4 5 3 u W | ( e 8 2.1..._ } 2.~ &.@.6.w.q.p.p.8.8.8.8.8.8.8.8.w.8.7.8.v.$.p 4 ; * * ; : < 0 b J H H H n d e 6 3 , ; & # # $ # O + + O # # # # $ * 1 0 p v M G F F P P E ~ ~ / ` [ [ +.o.o.o.o.o.o.o.o.o.{ [ ] ` / / / / / ^ ^ I ^ ( ( I Y I C s f k m Z L L C Z Z k a s f l B C S S S S S V C L G N 7 : * $ % % # $ $ $ & * > & ; 3 p N a e 8 7 8 8 8 8 8 4 7 g N N M n m M m m m B m 7 < & % O + + + O O O # $ , u N H N m Z B B B B l l B L K C B Z Z x x x ",
"V S P ~ P S M m m m m m m m V V M m V S V V m k j z c N ,.1.F M M M h 0 ; & , 9 b v f j s g h h p a k m n n m M B V V V C C S G D D D F I ^ / ] [ { { o.o.%.*.*.*.=.;.6.6.6.7.8.r.r.e.p.a.a.a.d.d.k.k.j.n.V.L.L.L.L.H.H.H.G.G.K.K.K.K.K.K.E.E.E.E.E.E.E.K.J.J.J.J.J.J.J.J.H.G.G.C.G.K.K.E.W.W.W.].].].].}.}.}.}.}.}.}.{.oXoXoXoX.XoX+XoX+X+X&X&X%X*X-X-X-X2X2X2X3X3X5X5X5X8XeXeXeXeXtXtXtXtXtXtXsXsXsXsXsXsXsXgXjXiXqX(.W u p | F M p 8 s A $./.6X5X5X4X6X=X%X%X-X-X*X*X%X%X%X%X%X%XOXOXXXXXXXXXOXOXXXXX&X&X%X%X%X%X-X*X*X*X-X-X-X-X3X3X3X5XeX0XyXyXsXaXdXxXhXhXjXjXjXkXvXvXbXbXbXbXMXMXMXMXMXMXCXCXCXCXCXCXCXCXCXBXCXMXmXmXmXzXjXtX5X=X&X&XOXOX%X%X%X%X%X%X&X&X&X&X-X-X-X-X-X-X2X8XdXhXhXkXhXhXfXfXjXjXfXfXsXfXjXvXvXvXvXvXvXvXvXvXvXbXbXbXCXCXCXCXCXZXZXZXZXZXDXDXDXDXDXDXDXDXDXDXDXDXDXDXDXDXZXZXZXZXZXZXZXZXCXCXCXCXMXMXMXMXMXMXMXMXbXbXbXbXMXMXMXMXMXmXmXmXMXMXMXMXMXMXMXMXMXMXMXCXCXCXCXCXCXCXZXCXAXAXAXCXAXCXZXHXnXNXzXgXpXxXxXkXzXzXkXkXkXkXkXkXjXjXfXfXsXfXsXdXdXdXsXdXtXtXtXtXtXtXtXtXtXtXtXtXtXtXtXtXtXyXyXtXtXtXtXyXtXtXtXtXsXtXtXtXtXtXtXtX9X9XtXtXtXtXeXeXeXwXwX2X2X5X5X8X9X9XiXsXaXrXyXwXOX+X+X+X%X*X=X&XW.c.:.[ ~ M e t y l E $.#.y.g.D.oXwXtXoXu.&.' A 7 , & # o . o O # ; 0 5 4 8 4 5 9 N G H 8 4 | | _ | ( S / :.*.w.q.p.g.g.e.8.q.8.8.8.8.8.w.8.8.8.v.E 9 1 ; * * ; ; ; : 0 4 3 8 d a i 9 0 , : & $ # # $ $ # O O O # # O # $ & ; 1 9 p n Z G F F F ~ ~ ~ / ` ` [ +.o.o.o.o.o.o.o.o.o.[ ] ] / / / / / ~ ~ ^ I I P L K U L m r a a k m Z K K Z N g r i a s k V S V S V V V C U V d 3 ; & $ % % % # # # $ * ; = : 6 v H v e 8 e t 8 8 4 4 5 8 r g N N n n n m m m B m 9 , $ # O O + + O O O # & , u N N f k m B B B B l l B K K C B Z Z x x x ",
"V S F ~ F V M m m m M M m m M m M m V V V V M n n N N N G | F S M A b 3 & $ < h v v f g g g h 9 6 u k l n n m B Z V V V C C S G D D D F I ^ / ] } { { o.%.%.*.*.;.;.6.6.6.7.8.8.r.e.p.a.a.a.a.d.k.k.k.j.N.V.B.L.L.H.H.H.H.H.K.K.K.K.K.K.K.E.E.E.E.E.E.K.J.J.J.J.J.J.J.G.H.G.G.G.G.G.K.K.E.W.W.W._.].].].].].}.}.}.}.{.{.oXoX}..X.X.X.X.X.X.X+XOX%X=X=X=X-X2X2X3X3X3X3X5X5X8XeXeXeXeXyXtXtXtXtXtXsXsXsXsXsXsXsXdXjXiX*XP.<.u p H N i 5 3 8 d W z.6X5X5X3X3X*X*X%X%X%X%X%X%X%X%X%X%X%XOXOXXXXXXXXXXXXXOXXXXXXX%X%X%X%X&X%X*X*X-X-X-X-X-X3X3X5X5X8X0X9XtXaXdXdXfXhXhXhXjXkXkXvXvXbXbXbXMXMXMXMXCXMXCXCXCXCXCXCXCXMXCXCXMXMXmXmXkXzXfXyX6X*X$X#XOXOX%X%X%X%X%X%X%X%X&X&X%X*X*X-X-X-X2X8XdXhXvXvXvXvXkXkXfXsXtXtXtXsXhXhXjXkXvXvXvXvXvXvXbXbXbXbXCXCXCXCXCXZXZXZXZXZXDXDXDXDXDXDXDXDXDXDXDXDXDXDXDXDXZXZXZXZXZXZXZXZXCXCXCXCXMXMXMXMXMXMXMXMXMXMXMXbXMXvXvXvXvXvXvXvXmXmXmXmXmXmXmXMXmXmXMXMXCXCXCXCXCXCXCXCXCXCXCXCXNXMXMXvXvXiXqXqXaXxXlXkXvXvXvXvXkXkXkXkXjXjXfXfXfXfXsXdXdXdXsXsXsXsXsXtXtXtXtXtXtXtXtXtXtXtXtXtXtXtXtXtXtXtXyXyXtXtXtXtXtXtXtXyXtXtX8X8X0X8X0X9XtX8XeXeX5X2X2X-X-X-X-X2X5X5X8X8XwXwX3X-X.X}.}.}.}..X+X+XZ.c.+./ S f e e y Z ( +.#.e.d.m.!.wX-XY.:.{ ( v < * # + o . . o # & , 0 6 4 5 4 9 p v v 8 8 N m Z T Z t ` :.;.q.h.g.g.g.e.e.e.h.8.8.8.8.w.w.8.y.b.A 5 : * * & & & $ $ * , , 4 b d p 9 0 5 1 > * & & & $ # # O O O O O # # $ * 1 0 p v M V C D D P ~ ( / ` ` [ X.o.o.o.o.o.o.o.o.{ [ ] / / / / ^ ~ ~ ~ ~ U U S V C K V k t e r a k m Z G N j u 7 e u a j V V V S S S S C U N 9 ; & $ $ $ % % # # $ & ; : 2 , p ,.H a 7 e i r t 8 8 4 5 4 8 r g N n n n m m m m m p < $ O O O O O + + + # & 1 u v g i a k m m B m l l B C K C C B Z x x x ",
"V S D F D M m m m m m m m m m m m M B B B V M m m N N N V F M M V H b , $ $ < h v v v g g h h 0 < 9 z l n n B B B B V V C C S D D D D F I ^ / ] } { { o.%.%.*.*.;.;.6.w.8.7.8.8.r.r.p.a.a.a.a.d.d.k.j.j.n.V.B.B.L.H.H.H.H.K.H.H.K.K.K.K.K.K.E.E.E.E.E.K.J.J.J.J.J.J.J.J.H.G.G.G.G.G.K.K.E.W.W.W.W._.].].].].}.}.}.}.}.{.oX[.}.{.{..X.X.X.X.X+X+X%X=X=X=X-X2X2X3X3X3X3X5X5X8XeXeXeXeXtXtXtXtXtXtXsXsXsXsXsXsXsXsXfX9X&XT.c.' p i N 7 < , 3 9 A z.6X5X5X3X1X-X*X%X%X%X%X%X%X%X%X%X%X&XOXOXXXXXXXXXXXXXXXXXXXXX&X%X%X%X&X&X=X*X-X-X-X-X-X3X3X4X5X4X8X7XyXrXaXdXdXdXhXhXjXkXkXvXvXvXbXbXbXMXMXMXCXCXMXCXCXCXCXMXMXMXCXBXMXmXmXmXkXjXsXeX6X*X$X#XOXOX&X%X%X%X%X%X%X%X&X&X%X%X%X-X-X*X2X8XsXhXvXbXvXvXzXzXtX5X-X=X2X2XdXjXjXkXkXvXvXvXvXvXbXbXbXbXCXCXCXCXCXZXZXZXZXZXZXDXDXDXDXDXDXDXDXDXDXDXZXZXZXZXZXZXZXZXZXZXZXAXCXCXCXCXMXMXMXMXbXbXbXbXbXbXbXvXvXvXmXmXmXvXvXvXmXmXmXmXmXmXmXmXmXmXMXMXMXCXCXCXCXCXCXCXCXCXCXCXlXAXbX<X4.w b >XjXjXmXmXvXvXvXvXvXkXkXjXjXfXfXfXfXfXsXdXdXdXdXsXsXsXsXsXtXtXtXtXtXtXtXtXtXtXtXtXtXyXyXyXyXyXyXtXtXtXtXtXtXtXyXeXeXeX8X5X4X4X4X8X8X8X8X5X3X2X-X-X-X%X*X*X-X2X2X2X2X-X-X&X{.}.}.|.|.|.{.}.D.s.+.) F n u a s T } +.#.r.d.M.'.:X+X5.[ ~ M 9 : # O + X . . o O $ * , 0 0 0 5 4 7 e i 8 8 r t y g p 8 ' :.9.h.g.g.g.g.g.e.h.e.q.8.8.8.w.h.y.u.1.v < * * & & $ $ # O # ; < 9 v p i 9 6 6 0 3 1 : : > ; # O O O O O O O O $ & > 4 9 d n M V V S F ~ ~ / ` ` [ [ o.o.o.o.o.o.o.o.{ ] ] / / ~ ~ ~ ~ ~ ~ P T G M k x C m a 8 8 e r a k m H z g e 7 7 e i s V S S S V V S V G g 3 & $ % $ $ % % # $ $ * : , 1 0 p p t 8 7 p a y r t 7 8 8 8 8 8 u g v n n n n m m m d 5 & O O + + + + + + # & < u v p e e a n m m m l l x C K C x B x x x x ",
"Z V D S S M m m m m m m m m m m M B B B B B m m n m N N m M m m S H 0 * # $ 0 J v v v g g h 0 ; , 9 z l n n B B B B V V C S D D D D D P ~ ^ / ] } { o.o.%.%.*.;.;.;.w.8.8.8.8.r.r.r.p.p.a.a.a.d.d.j.l.n.n.M.V.M.B.L.L.H.K.K.K.K.K.K.K.K.K.K.K.K.K.K.K.K.J.J.J.J.J.J.J.J.J.H.G.G.G.G.K.K.K.E.Q.Q.W.W._.].].].}.}.}.}.}.}.{.[.}.}.[.}.{.].{.{.{..X%X=X3X2X-X-X-X-X3X3X5X5X8X8XeXyXyXyXtXtXsXsXsXsXsXsXsXsXsXsXsXsXsX9X&X].^.U.d h 9 5 , > , 5 9 ).6X5X5X6X=X*X%X%X%X%X%X&X%X&X&X%X&XXX+XXXXXXXXXXXXXXX+XXXXXXX#X#X#X#X&X%X%X%X-X&X-X-X-X3X3X5X5X5X8X7XeXrXaXgXdXdXdXdXjXjXjXvXvXvXbXbXbXbXbXbXbXbXMXMXMXMXMXbXCXCXBXBXbXbXvXmXzXjXsX7X6X*X&X#XOXOX&X&X&X&X%X%X%X%X%X%X%X%X%X%X%X-X2X5XsXhXkXkXhXfXeX#X!.W.Y.R.[.&X6XsXfXjXjXkXvXvXbXbXvXbXbXbXCXCXCXCXCXZXZXZXZXZXZXZXZXZXDXDXDXDXDXDXDXDXZXZXZXZXZXZXZXZXAXAXCXCXCXCXMXMXMXmXbXbXbXbXvXvXbXvXvXvXvXvXmXmXvXvXvXvXmXmXmXmXmXmXmXmXmXmXmXMXbXbXbXBXCXCXCXCXCXCXCXCXAXVXw # * > w ,XzXfXjXiXjXvXvXvXkXkXjXjXjXfXdXdXdXdXdXdXdXsXsXsXsXsXtXtXrXrXrXrXtXtXtXtXtXtXtXtXyXyXyXyXyXyXyXyXtXtXyXyXyXeXeXeXwX4X5X4X2X2X2X4X4X5X5XwX2X-X%XOXOXOX;X%X-X*X*X*X*X%X%X.X.X{.{.}.|.}.{.}.J.v.>.] F f e r j V ` -.#.r.M.W.+X:XP.' E G v 3 $ O o + X o o o O # & ; 0 0 5 < < 5 8 8 0 3 4 4 4 3 < 3 | u.u.h.g.g.g.g.h.e.e.q.8.6.#.=.;.>.:.1.,.p , * & $ $ # # O O # : 5 p g k f g g u 7 7 9 9 6 5 1 # O O O O O O O O # $ * 1 9 p v m m V S F ~ ( / ` ` [ { o.o.o.o.o.o.o.{ ] / / / ~ ~ ~ ~ ~ ( ^ D m k i t y l N u 8 8 7 i r f N N s i 7 6 6 7 r a Z V V V M V S H v 6 ; # % % $ $ $ % $ $ & ; < 4 3 6 7 r d f N N N k s g e 7 8 8 5 5 6 u v N N n n k l l N 6 ; & # + O O + + O # * < u p p 8 8 a N N m m m l m B C B x x x x x x ",
"Z V S V V M m m m m m m m m m m M M B V B m m m n m m m M m m m V H 1 $ O $ 1 h p p i p e 6 , : < 9 n l n n m B B V V V C S D D D D F L ~ ^ / } } { o.o.%.%.*.*.;.6.w.8.8.8.r.r.r.e.p.p.a.a.d.d.j.l.j.n.V.n.n.n.n.n.M.B.L.H.K.K.K.K.K.H.K.K.K.K.K.K.K.K.J.K.J.J.J.J.J.J.J.H.H.C.G.G.K.K.K.E.Q.Q.W.W.^.^.].].}.}.].}.}.}.{.{.+X}.W.W.W._._.`.`.'.XX*X=X=X-X-X-X-X3X3X5XwX8X0XeXeXyXyXtXtXsXsXsXsXsXsXsXuXsXsXsXsXsXeX-X+XoX(.Q 3 < : > > , 5 9 (.6X5X6X1X=X*X%X%X&X&X%X%X%X#X%X%XXXXX+XXXXXXXXXXXXXXX+X+XXXXXXX#X&X#X%X%X%X%X&X&X%X%X-X=X3X3X5X5X5X4X0XeXtXsXgXdXdXhXjXjXkXkXvXvXvXvXvXvXbXbXbXbXbXbXMXbXbXbXCXCXBXbXmXvXvXmXzXxXrX2X=X%X#XXXOXOX&X&X&X&X%X%X%X%X%X%X%X%X%X*X*X*X2X4X9XfXjXhXaX8X$X).z.z.$.z.).(.@XqXsXjXjXkXvXvXvXvXvXvXvXbXCXCXCXCXCXZXZXZXZXZXZXZXZXZXDXDXDXDXDXDXDXDXZXZXZXZXAXAXZXZXAXCXCXCXCXMXMXMXmXbXbXbXvXvXvXvXvXvXvXvXzXkXkXjXkXkXkXkXkXkXkXmXmXmXmXMXmXmXmXMXbXbXbXbXCXCXCXCXCXCXCXCXBXw $ & q pXnXhX8X6X8XdXjXjXkXvXlXjXjXhXfXdXdXgXdXsXsXsXsXsXsXsXtXtXtXtXrXrXrXrXtXtXtXtXtXtXtXyXyXyXyXyXyXyXyXyXyXyXtXtXeXeXeX7X4X2X2X2X2X2X2X2X2X5X2XwX-X-X;XOXOXOX-X-X-X-X-X=X-X%X%XOXOX.X.X.X.X+XOXoXJ.c.+.] P s 7 r z U { -.9.d.J.[.wXwXA.+.E A 9 ; # + X X X o . . o O $ * 0 5 1 , , 3 8 8 5 3 3 3 3 , : 1 ' :.w.h.g.g.g.a.h.8.8.8.6.6.#.@.%.&.+.<.H 9 : & $ $ % # # # # $ 2 0 h N z l N N v p p v u 7 4 , # O O O O O O + + O $ & 1 0 p v N M V C D P ( / ` ` [ { o.o.o.&.o.o.{ ] / / ^ ^ ~ I I P I ( I D m f r t y c N e 8 8 8 u u g f f r e 4 5 5 4 e r N M M m m B Z N 6 , & # % % % % % % $ $ * : 3 8 7 e u a f M N N Z N z f a e 7 8 5 3 5 6 p N N z n k l l N u , & # + O O + + O # * 3 u p u 5 4 u v N N m m l l B C Z x x x x x x ",
"Z Z V V M m m m m m m m m m m m M M M m M M m m m m n n m m m m B N 1 O O # , 9 7 e t e 4 < : , 4 p n l n n m M V V V C C S D D D D D L ~ ^ / } } { o.o.%.%.*.;.;.6.w.8.q.r.r.r.e.e.p.p.a.a.d.k.l.n.n.n.n.n.j.k.d.d.k.j.n.n.B.B.S.H.H.K.K.K.K.K.K.G.G.K.K.K.F.F.J.J.H.H.H.H.G.G.G.G.G.G.K.E.Q.Q.W.W.~.~.].]._.}.].].].[.{.}.+XQ.A.Z.R.R.m.m.A.A.!.@X*X=X-X-X-X-X3X3X5XwXeX0XeXeXyXyXtXtXsXsXsXsXsXsXuXuXsXsXsXsXrXtXwX3X1XqX4.; ; * = > < 4 W $X6X6X1X=X*X*X%X%X&X&X%X%X%X%X%XOXXXXXXX+XXXXXXXXX.X.X+X+XXXXXOXXXOX%X%X%X%X%X&X&X&X&X-X=X3X3X5X5X5X5X8X8XtXtXdXgXxXxXjXjXjXkXkXkXvXvXvXvXvXvXMXMXvXvXbXbXbXbXMXMXbXMXMXvXvXmXzXgX7X1X*X%X&XOXOXXX&X&X&X&X%X%X&X&X%X%X*X*X-X-X-X=X1X4X0XdXfXrX1X@X).<.! b q > 1 w @X2XtXsXjXkXvXvXvXvXvXvXvXbXCXCXCXCXCXCXZXZXZXZXZXZXZXDXDXDXDXDXDXDXDXDXZXZXZXZXZXAXAXAXCXCXCXCXMXMXMXMXbXvXvXvXvXvXvXvXvXvXvXmXkXzXgXaXjXkXkXkXzXkXmXvXvXvXvXMXMXMXMXMXbXbXvXvXMXMXCXCXCXCXCXBX4.; 1 J >XJ q q ! oX#X8XsXfXjXlXxXjXjXhXfXdXgXgXsXtXsXsXtXtXtXtXtXtXtXtXrXrXrXrXtXtXtXtXyXyXtXyXyXyXyXyXyXyXyXyXtXtXtXtXeX0X0X7XwXwX-X-X-X-X2X3X3X3XwXwX-X;X;XOX&X:XwX2X3X3X4X4X2X-X-X-X*X*X*X*X-X-X3X&XY.c.#.' F s 7 r N | >.u.V.Q.+XwXeX3XA.#.W b , $ # @ + + + o . . . o $ & 1 < , , , 5 8 8 5 3 5 3 3 , : , $.:.9.h.q.e.t.t.8.6.6.6.=.=.@.O.&.} ` W v 3 ; & # % % % % % % & > 2 9 v N N H W W ! W A p 9 < ; # O O O O O O + + + # & : 5 9 d n m B V S F ~ ( ` ' [ { o.o.&.&.o.{ ] ) / ^ ^ ^ I L L L L I P V z a e 8 y c N r 8 4 4 7 u g f a 7 8 3 < 3 4 7 e N M M M m H Z d , ; & $ # % # # % % $ $ ; , 5 t a a g N N N M m B B l z g a e 7 5 3 3 4 u g N N k k l l c h 5 * # + O O O O O # * 5 p p 6 < < e g N m l l x x B K K Z x x x x x ",
"Z Z V V m m m m m k m m m m M M M M m m M m m m n n n n m m m m m v > O O # ; 5 3 5 4 5 1 : : 3 u v n n n m M M M M V C C D D D D D D L ~ ^ / ] } { { o.%.*.*.;.;.6.w.8.q.r.r.r.e.e.p.a.a.a.d.k.n.n.n.V.M.n.j.d.d.i.i.i.i.f.f.d.V.B.H.H.K.K.K.G.G.G.G.G.G.F.F.J.G.G.H.G.H.H.C.C.C.C.G.G.F.K.Q.Q.Q.W.W.W.].].].].].].].].{.}.^.z.$./.Q.v.c.c.b.z.P.!.XX%X*X-X-X-X3X3XwXwXeX0XeXeXyXyXtXtXsXsXsXsXsXsXuXuXsXsXsXsXuXuXeX8X9XhXQ * * * = > < 4 z.XX=X1X1X=X*X&X%X%X%X%X%X%X%X%XOXXXXXXXXXXXXXXXXX.X.X.X+X+XXXXXOXOXOXOX&X%X%X%X%X%X&X&X-X-X-X1X3X5X5X5X5X8X8XyXsXaXgXxXxXxXjXjXkXkXkXvXvXvXvXvXMXMXvXvXbXbXbXbXMXMXMXMXMXbXvXmXkXaX4X*X%X%XXXXX+XXXXXXX&X&X%X%X&X%X&X%X%X%X-X-X-X-X=X6X7XiXgX7X@X(.3.1 ; * & * ; * ! ).@XsXkXvXkXvXvXvXvXvXvXbXCXCXCXCXCXCXCXZXZXZXZXZXZXZXDXDXZXCXNXMXZXZXZXVXBXBXCXAXAXCXCXAXCXCXMXMXMXmXMXvXvXvXvXvXvXvXvXvXkXzXzXzXeX4XfXkXkXkXjXkXmXkXkXvXvXvXvXvXMXMXbXvXkXkXkXvXMXMXCXCXMXbXq 3 < 1 : ; 1 b ! P.$XyXsXfXxXlXxXjXjXfXfXgXgXsXtXtXsXtXtXtXtXtXtXtXrXrXrXrXrXrXtXtXtXtXtXtXyXyXyXyXeXyXyXyXyXyXtXyXrXrXeX5X5X5X-X-X-X-X2X2X2X-X3X3XwXwX-X;X;XOX-XwXwXeX0X8X8X5X5X4XwX4X4X4X4X4X4X8X8X-XT.c.$.' F a 8 e M 2.1.h.v.D.^.&X3X$Xu.$.W 0 & O O + + + o o o o o o O $ 1 , : : , 3 4 6 3 < 3 3 1 1 : , ' u.;.h.8.8.w.0.6.6.=.=.=.@.O.o.{ ) F A u < * $ O O # # # $ $ $ & : 5 9 b H Q | z./.1.v b 0 1 & # O O O O O O + + o O $ ; 1 6 p f m B B C D F ~ / ] [ { o.&.%.&.{ } ] ) ^ I I I P P U P U U L V j y 7 8 y H N e 8 5 3 4 7 d f u 8 5 < , < 3 6 e N m M M m H H p ; * $ $ # % + + % % $ & : 3 7 r g z N N N N n n Z B l j g g a e 4 5 5 5 7 g z z k k l l N J 9 ; $ O O O O O O # & 3 p h 0 , < 7 g N B x x x l C T R Z x x x x x ",
"V V V M m m l l k k k k n n m m M M M M m m m n n n n n m n N n M p * O O # $ $ & * * * & * 3 u g n n n m m M M M M C V C S D D D D F L I ^ / ] { { { o.o.%.*.;.;.6.w.8.q.r.r.r.e.e.p.a.a.a.k.k.j.n.n.N.N.j.k.k.a.i.i.0.7.0.0.0.i.d.V.B.S.H.K.G.G.G.G.H.H.H.G.H.H.H.G.G.H.S.H.H.H.C.G.G.G.F.E.Q.Q.Q.`.`._._._._._.].].].{.}.A.W $./.b.X.' $.1.$.^.oX+X%X%X-X-X-X3X3XwXwXeX0XeXeXtXtXtXtXtXtXaXaXgXsXsXuXsXsXsXsXrXrXsXdXiXbXq * * * = : < p oX!.&X-X-X-X-X&X&X%XOXOX%X%XXXXXXXXXXXXXXXXX.X.X.X.X.X.X+X+X+X+XXXXXXXXXOX&X%X%X%X%X&X&X-X=X3X1X3X5X5X5X5X5X8XeXsXaXgXxXxXxXjXjXjXjXkXkXvXvXvXvXvXvXvXvXvXvXbXbXbXbXbXbXbXbXvXvXjX9X4X;X;XXXXX.XXXXXXXXX%X%X&X%X%X%X%X%X%X%X-X=X=X&X%X1X4XiXdXfXqX@Xq ; * * ; ; ; : < ).$XqXvXbXkXjXvXvXkXkXvXbXCXZXZXZXCXCXCXZXZXZXDXDXZXZXZXbXpXqX6X6XiXBXGXBX,XhXbXAXNXNXMXCXCXMXMXMXmXmXvXvXvXvXvXvXvXkXkXkXkXkXjXfX).(.fXkXjXjXjXzXkXlXkXkXvXvXvXvXvXmXbXvXsX0X6XjXvXnXCXNXzXqXq 3 , , 1 ).vXfX$X$X=XeXjXkXlXlXkXjXjXfXfXfXsXsXsXuXtXtXtXtXtXtXtXtXyXyXyXyXyXyXyXyXtXtXyXyXtXeXeXeXeXeXeXeXyXyXeXyXrXyXwXwX3X&X{..X:XwX4X7X3X3X3X5X8XeX4X-X-X%X:X3XeXfXjXdXqXtX8XtXrXrXrX7X7X8X9XtXeX3XW.c.+./ S p 4 9 F  .>.&.o.:.u.D.A.m.:.$.q - O O O o o o o o o o o O O # * > > ; , 1 5 0 , : , : > > , 3 $.#.-.w.=.=.=.;.=.=.=.*.-.O.o.{ _ I m i 4 ; % # O o + + + + O # $ & * , 4 p W ,.<./.<.A p 5 & O O O O O O O + + o o o O & : 5 9 g z B B C D F ~ / ] [ { o.%.%.&.} ] ) ^ I L I L K K L U U K K Z s y t e N H N e 8 3 < < 8 p N e 4 < , : , < 5 6 g n m M S A J , & $ # # # # # # % % & ; < u N B m m m m n m n n n n v f f d d p 7 6 4 3 4 u z z z z z z c N g 5 * $ O o + O O # & 1 h 6 3 3 5 8 a N B x x x l T T T x l x x c c ",
"V V V m m l k k k k k k n n m m m m M m m m n n n n n n n n m n A p * # # # # # # # # # # > h g N n n m m M M M M M V V C C D D D D F L P ~ / ) { { { o.o.%.*.;.6.6.w.8.q.r.r.e.e.e.p.a.a.a.k.k.j.n.N.N.N.N.j.j.a.i.i.0.9.9.=.#.#.0.s.d.m.S.H.G.G.G.G.H.H.H.C.C.C.G.C.C.S.S.H.H.C.C.C.C.G.F.E.E.Q.Q.Q.Q.`.`._._._._.].].].}.$.E E 1.<.W v v v v b.}.+X.X%X-X-X=X3X3XwXwXeX0XeXyXtXtXtXtXtXtXrXaXsXsXuXuXsXsXsXsXrXsXdXhXbXUX$ * * * * : < Q ^.T.&X&X&X&X&X&X&X%XOXOX%X%XXXXXXXXXXXXX.X.X.X.X.X.X.X.X+X+X+X+X.X.XXXXXXXXX%X%X%X%X%X&X-X-X=X=X3X2X2X3X5X5X5XeXsXaXgXgXxXxXjXjXjXkXkXkXvXvXvXvXvXvXvXvXvXvXvXvXbXmXbXbXbXbXvXvXjX9X1X;XXXXX.X.XXXXXXXXX%X%X%X%X%X%X%X%X%X%X&X&X&XXXoX$X5XsXfXzXzX>X* * * * ; ; ; : 5 4.>X5XvXbXkXjXvXvXvXvXvXbXCXZXZXZXCXCXCXZXZXDXDXDXZXZXZXvXaX-XP.W q q <X<X3.hXAXCXmXzXmXMXMXMXMXmXmXvXvXvXvXkXvXkXkXkXkXkXkXkXfXeX<.).hXvXjXjXjXjXlXlXkXvXvXvXvXvXvXvXMXvX0X).).fXvXnXCXmXzX).0 < < 0 pX3.4.b <.(.eXfXkXkXkXkXjXjXjXfXfXsXsXtXuXuXtXtXtXyXyXyXyXyXyXeXyXyXeXtXyXyXeXeXyXeXeXeXeXeXeXeXeXeXeX0XrXtXyXwXoX!./././.[.OXuX7X9X5X5X5X8X0X0XeX3X3X-X3XeXdXiXiXsX3X&X#X1X4XyX7X7X0XtXtXtXtX3XT.c.+.^ M e 6 p ' &. .^ ^ } -.q.f.s.:.W 2 + o O o o o o o o o o O O O O $ > > ; : 1 1 5 ; ; ; ; ; > < 4 ,.#.-.w.=.=.;.;.=.*.*.*.;.&.+.{ _ L m u 1 = % + o o o o o o + + # $ $ & : 1 9 b W <.| v 6 , # o O O O O O O + O o o o O $ ; 1 6 p f m B V D F ( / ] { { &.&.&.{ ) ) ^ ^ I U L K C K K K U U K Z s y t r Z T Z u 7 5 < < 4 d H u 5 < : ; : , < 4 p f M V A Q 1 ; $ $ $ # $ % % % % $ * : 9 v Z C m m m m m m m n v v v f d d d p e 7 4 3 4 e g z z z z z z N z 7 : $ O o + O O # $ : 9 8 3 3 5 8 i N N z z m B | T B j j j c c c ",
"V V M m n k z k k k k k k n n m m m m m m n n n n n n n n n n n A b * # # O # # # # # # & 0 h z N n m m M M V V V V C C C D D G F D F P I ^ / ] { { { o.O.*.=.;.6.6.8.q.q.r.r.e.e.e.a.d.k.k.k.j.n.N.N.M.N.N.j.j.k.d.p.q.w.#.@.@.@.#.6.t.s.N.B.H.H.H.H.H.H.H.H.H.H.H.H.H.H.H.H.L.C.C.C.C.G.F.Y.E.Q.Q.`.`.`._._._._._.].].}.~.W v d b 9 0 , < 4 9 A P.{.+X%X-X-X-X3X3XwXwXeXeXyXyXtXtXtXtXtXtXsXsXsXsXuXuXsXsXsXsXgXdXdXhXnXq # > = = * ; q (.^.T.OX&X&X&X&X&X&X&X&X%X%X%XXXXXXXXXXX.X.X.X.X.X.X.X.X.X+X+X+X+X+X+X+X+XXXXXOX%X%X%X&X%X&X-X-X=X3X2X2X2X3X5X5X9XaXaXgXgXdXdXjXjXkXkXkXkXkXvXvXvXmXvXvXmXvXmXvXvXmXmXvXbXbXbXvXvXjX9X1X;X;XXX.X.XXXXXXXXXXXXXOX%X%X%X%X%X%X%XXXXX+XoX[.[.#X3X9XmXbX2 * * * * ; ; ; ; , q ).qXhXjXkXvXbXbXvXvXbXbXCXZXZXZXCXCXCXZXDXFXFXDXZXCXCXkXrX;XR.A.3.: & = q IXbXbXzXzXzXmXmXMXmXmXmXvXvXvXvXvXvXkXkXkXkXkXkXjXfX1XW ).kXvXjXjXjXhXxXkXvXvXjXjXjXjXkXkXbXkX0X>X! dXvXbXnXmXzX>X0 3 < 0 0 : , 1 W ).dXmXjXkXjXjXjXjXjXfXfXsXsXtXtXtXtXtXtXyXyXyXeXeXeXeXeXeXyXeXeXeXeXeXeXeXeXeXeXeXeXeXeXeXyXyX9XtX&XQ.s.$.| ,.U.).(.1XiXiX9X8X8X8XtX9X8X8X5X5XeXtXiX0X(.z.Z.Z.N.Z.'. XwXwXtXyXrXrXeX-XY.z.' F v 8 5 9 ,.2.| V V ~ [ *.a.v.b.A & . o + o o o o o o o o O O O O # = > ; ; : 1 1 ; ; ; ; * ; 5 6 <.:.;.w.=.=.*.*.*.*.*.*.&.&.o.} I C v 6 ; & % + o o o o o o o + + + # $ & * : 1 9 A H p , & O o + O O O O O + O o o o o # & : 5 9 d n M C D F ( / ] { { &.&. .) ^ I I I U L C x x B C C K T U B j y t r H T H a 7 6 < < 4 g H v 4 < : ; ; : < 3 u g B G H 9 ; $ # # $ $ $ % $ $ # $ * 1 p v N m m m m m m m m n n v v f d d d p 7 6 4 3 4 8 r z z z z z z N N p 1 & # O O O O O $ * 0 6 3 3 5 4 u g g g g k z H H j s j j j c c ",
"V V M m n k k j k k k k k n n n n n n n n n n n n n n n n n n n A b * # # O # # # # # $ 1 0 g N n m m M M M V V V V C C C D D D F D F L I ^ / ] { { { o.O.*.=.;.6.6.8.q.q.e.e.e.e.e.a.d.k.k.j.j.N.N.N.N.N.N.N.j.l.g.a.e.w.=.@.O.O.@.@.#.9.f.n.B.H.H.H.L.H.H.H.H.B.B.B.B.S.H.L.L.C.C.C.C.G.F.R.E.E.Q.W.Q.`._._._._._._.].{.Y.$.A u 6 : : : ; < 9 W Z.'.+X%X-X-X-X3X3XwXwXwXeXeXyXtXtXtXtXtXtXsXsXsXsXsXuXsXsXsXsXgXdXhXkX4.# = = & = * ; 4.hX!.Z.OX%X%X&X&X&X&X&X%X%X%X%XXXXXXXXX.X.X.X.X.X.X.X.X.X.X.X.X.X.X+X.X.X.XXXXXXX+X%X%X%X%X%X%X-X*X=X3X3X3X3X5XwXyXtXsXsXsXdXfXjXjXjXjXkXkXkXkXkXvXvXmXmXmXmXmXvXvXmXvXvXvXbXvXvXvXjX0X*X@XXX.X.X.XXXXXXXXXXXXXXXXX%X%X%X%X%XOXXXoX}.~.Y.Y.T.'.(.<X<X2 * * * * ; ; * ; : 1 ! iXfXjXkXvXbXMXbXvXvXbXBXCXCXCXMXMXMXBXVXDXFXDXAXNXmXfXyX-XY.<.0 ; > - $ > 4.hXzXtXjXkXmXmXMXbXmXvXvXvXvXvXkXkXkXjXjXjXjXjXfX(.W (.hXjXfXfXfXsXaXzXvXvXjXjXfXfXjXjXbXhX(.b b dXvXbXnXmXzX! p 5 < , , 9 J (.=XtXjXhXjXjXjXjXhXhXjXdXdXsXsXtXtXtXtXtXtXyXyXyXeXeXeXeX0X0XeXeXeXeXeXeXeXeXeXeXeXeXeXeXeXeXyXyXaX9X^.:.' ~ C a < 1 ).qXiXiXiX9X9X9XtXtX8X8X5X5X6X).4.J <.U.<.' #.5.P.T.wXeXtX0XeXwX3X&XA.u.| H b 5 , < b A v t a M ~ ' 9.A.b.9 # . o o o o o o o o o o o o O O # $ = ; ; : , 2 ; * ; * & ; 0 9 <.:.-.;.=.*.*.*.*.*.*.%.&.+.+.} P M p 4 * $ # O o o o o o o o o + @ + # $ $ $ * , 9 J h ; $ + + + O O O O O + O o o o o O $ ; 1 6 p f m C D F ~ / ] { o.&.&.{ ^ L I K U U C l j j l x B K | U Z j y t r T T H f e 6 < < 4 g H N 8 3 , : ; ; , 3 6 h H H h , $ $ # # $ $ $ $ $ $ # & : 4 p v n f m m m m l l m m n n f f d d p p 9 4 5 3 5 8 e g g z z z z z N g 0 ; $ O O O O O # $ 2 0 3 3 3 4 9 h h h a a r a s y y s s y y y ",
"V V M m k k k f f f f f k k n n k k n n n n k k n k n n n n n n G b * O # # # # % # # $ 0 p v n m m m V V V V V V V C S S D D D F F F P I ^ / ] { { { o.O.*.=.6.6.6.8.q.e.e.e.e.e.p.a.d.k.j.j.N.N.N.N.N.N.N.N.V.V.l.g.p.w.=.@.@.O.O.@.@.#.9.s.x.V.V.B.B.L.L.L.B.B.B.B.B.S.S.L.M.C.M.L.C.G.F.Y.R.E.E.W.W.`._._._.`.`._.].}.T.$.A 9 3 ; & & ; 3 b /.W.{.+X%X-X-X-X3X3XwXwXeXeXyXyXtXtXtXtXsXsXsXsXsXsXsXsXsXsXsXsXfXhXvXcX$ & = = $ # & * iXhX^.Z.+X%X&X&X&XOX&XOXOXOXOXXXXXXX+X+X.X.X.X.XoXoX.X.X.X.XoXoXoXoX+X+X.X.XXXXXOXOXOX%X%X%X&X&X-X-X=X=X3X3X3X5XeXeXeXtXtXtXtXsXdXgXjXjXkXkXkXkXkXkXzXzXkXkXmXkXkXkXkXkXvXvXbXbXvXvXjXtX*XXXXX.X.X.X.X.XXXXXXXXXXXXX#X%X%X%X%XOX.X[.].J.A.N.A.T.$X,X2 > ; ; ; ; ; ; ; ; > ; > J qXqXvXvXvXmXbXvXvXvXvXmXmXkXkXjXkXvXBXVXDXHXAXxXzX6XwXwXwX(.Q , > > > : , Q 0X6XsXkXmXvXbXbXvXvXvXvXvXvXkXkXkXjXjXjXjXjXzX).W ^.5XrXuXeX8X>XeXzXvXbXkXfXeX@X8XhXbXbX,Xp b jXmXvXvXmXdX! b 6 < 0 3 3.H W (.6XiXjXfXfXfXjXjXhXfXdXdXsXtXtXtXtXeXeXeXeXeXeXeX0X0X0X0X8X8XeXeXeXeXeXeXeXeXeXeX0X0X0X0X0X0XrXaXdXU.E A a N 7 : w 9X0XiXiXiX9X9X9XyXeXeX6X(.<.A 9 1 * * * 3 b ! ).3X5XsXfXsX8XXXT././.b.$.| v < > * * ; 1 , 3 e n / #.m.(.<., # o o o o o o o o o o o o o O O O # & = * 2 q : * ; ; * * ; , b E +.*.=.*.*.*.*.*.*.%.%.&.o.+.} S v 0 * $ + O O o o o o o o o o X X o + O # # # & * : , & $ % % # O O O O O + + O o o o o # & : 4 9 d n M D F ~ / ] { &.&.&.) L K U K R T Z j y y s j x T ,.C Z j y t r Z ,.T f e 6 3 < 5 i Q v 8 8 < , ; ; : , 6 h J J , ; $ # # $ $ $ $ $ $ $ $ & 1 9 h g d d f k l k k l l j s k f f d b h 9 3 3 3 3 5 4 8 u g g z z z z z g J 1 $ # # O O O # # * 2 1 , , , 0 h h p i e e e e e r r r r t t ",
"V V M n k k f f s s f s f k k k k k k n n f f f k k n k n n n n E Q & % # O # # + O # & 9 g n m m m M V V V V V V V S S D D D D F D F P I ^ / ] { { { o.O.@.=.6.6.6.8.q.e.e.e.e.e.g.g.d.k.j.j.N.N.N.N.N.V.N.L.L.V.V.g.g.q.6.=.@.@.%.*.@.@.#.9.y.s.V.V.V.B.B.B.B.B.B.B.B.M.M.M.M.M.M.L.C.G.F.R.R.R.E.E.Q._._.`.Q.`.`._.].W.~.:.A u 3 * & # & 9 <.^.Q.[.+X%X-X&X-X-X3XwXwXeXeXyXtXtXtXtXtXsXsXsXsXsXsXsXsXsXsXsXsXjXhXmX2 $ & = = $ & $ 4.BXiXY.Z.+X%X%X%XOXOXOXOXXXOXXXXX+X+X+X+X.X.X.X.XoXoXoXoX.X.XoXoX.X.X.X.X.X.X.X.XXXXXXXXX%X#X&X&X%X%X-X=X3X3X5X5XeXwX3X3X-X3X6X8XeXsXgXfXxXxXkXkXkXkXkXkXkXkXkXkXkXkXkXjXkXvXvXvXvXvXjX8X*X X X.X.X.X.X.XXXXXXXXXXXXX#X#X#X#X%XOX.X}.Q.C.N.j.C.Q.=X(.: ; ; ; ; ; ; ; ; ; > * * > w iXiXhXkXmXvXbXvXkXzXjXfXsX9XaXdXhXvXbXZXAXNXaX Xz.z.Z.6X,X).6 , > , , < 4 Q (.8XzXmXvXbXbXbXvXvXvXkXkXkXkXkXjXjXjXjXhXfX).W /.=X3XwXwX$X>XeXzXvXvXjXfX1X>X@XfXvXnX,XH v 0XkXlXnXkXiX! b 6 < 1 b <.H e b 6X9X9XsXfXfXfXhXfXfXdXdXsXtXtXtXtXeXeXeXeXeXeX0X0X8X8X8X8X8X8XeXeXeXeXeXeXeXeX0XeX0X0X0X0X0X0XrX9X! A d i N 4 : q qXyXaXaX9X9X9X8X2X3XXXz.,.W A 9 , * * ; Q U.6X6XeXeXsXtXtX6X}.z.! <.<.,.A < * $ = = % & * < v E $.b.!.6XQ ; O o o o o o o o O O O O o o o O O # $ = * > 2 ; * * ; * * ; , b E +.@.=.*.*.*.*.%.%.%.%.&.o.{ } A p 1 $ O O O O o o o o o o o o o o + o O O O O # & * > $ $ $ $ # O O O O O + + O o o o o O $ ; 1 9 d v M S F ~ / ] { &.&. .^ K K R K R T Z s y y y y j H Z V m j y t r B T H a e 6 3 3 4 i H r t 8 3 , : ; ; , 5 h J 3 ; & # O # $ $ # $ $ $ $ $ * 1 9 h p p p a j k k l k l m m l k f v h 9 4 < < 3 5 5 4 4 7 p g z z j s z g J 3 & $ # O O O O # $ > > : ; ; < q h u e 7 7 7 7 7 7 7 e 7 8 8 ",
"V V m k k f f s s a s s f f k k k n n k k f f f k k k k k n n n G W & % # # # O o O # * p N m m m m V V V V V V S S S S D D F F F P P P ~ ^ ) ] }  .o.o.O.*.=.6.6.8.q.e.e.e.e.e.a.g.g.d.k.j.j.V.V.N.V.N.L.L.L.L.L.V.V.g.p.w.6.=.*.*.%.%.O.@.@.-.y.s.V.V.V.V.B.B.B.B.B.B.M.M.M.N.N.M.C.G.J.J.R.R.R.E.E.E.E.E.Q.`.`.`._._.'.^.b.A p 3 ; $ # > 9 ! /.Y.].+XOX-X-X-X-X3X3XwXeX0XyXtXtXtXtXtXsXsXaXaXgXgXsXtXtXtXuXgXiXmX>X# $ = = = % $ 2 nXbXiXY.Z.oXOXOXOXOXOXOXOXXXOXXXXX+X+X+X+X.X.X.X.XoXoXoXoXoX{.oXoX.X.X.X.X.X.X.X.XXXXXXXXX%X%X&X&X%X%X-X3X6X5X5X5X6X=XoXY.Y.}.&X-XwXyXrXgXxXxXjXkXkXkXkXkXzXzXzXkXjXjXjXkXkXvXvXvXvXvXfX0X*X X X.X.X.X.X.XXXXXXXXXXXXX#X#X#X#X%XOX{.|.E.M.f.i.n.J.$X<.q 1 ; ; ; ; ; ; ; ; * * ; ; * 4.iXaXgXjXmXmXkXjXaXyX4X2X2X4XyXsXhXvXCXAXNXyX/.+.+.$.z.(.,.7 < , , , 5 8 G z.1XfXvXbXvXbXvXvXvXkXkXjXkXjXjXjXjXjXjXdXtXz.' :.z.^.+X+XZ.P.tXzXkXvXjXfX6X! 4.hXhXiXU.S v ,XvXvXvXhXiX<.W 9 < , ! <.,.a 3 4.@X2XyXgXfXfXfXfXfXdXdXsXsXtXtXtXeXeXyXeXeXeXeXeX8X8X8X8X8X8XeXeXeXeXeXeXeXeXeXeXeXeX8X8X0X8XsX6XE S v g H e , q qX5XeXyXtXeX8X3X&XoXz.<.$.| M u 3 0 ).hXiX6XoX}.}.+X&X&X$XoXA.$.A u 4 b 0 ; $ $ & = - # * 9 W $.A.!.1XjXw $ O o o o o o o O + + + + O o o o O O # & = & > * * * ; * * ; , b E X.*.=.*.*.*.*.%.%.%.%.&.&.{ | A 5 & # o o O O o o o o o . o o o o o O O O O O $ & = - $ $ $ # O O O O O o o o O o o o o o # & > 0 u v M S F ~ / ] { o.&. .^ K K R K R Z j y y y y y y y y G G z y t y j T Z e r 6 3 3 8 ,.,.t t 8 3 , : ; ; , 8 J 0 ; & $ % + # $ $ $ $ $ $ $ $ * < 9 u u u u a s j k m j m T L B k f v 9 5 < : , 3 0 5 5 5 6 u g z g s c g g J 5 * $ # # O O O O O = * * & * , 0 h p 7 7 7 6 7 7 8 7 8 8 8 4 ",
"V B m k f f f s s a s a f f f k k k k k v f v f k z z k v v v v H b & O # O # # o O $ : v m m m m M V V V V V C S S S S D D F F F P P P ~ ^ / ] } o.o.o.O.*.;.w.6.8.q.e.e.e.e.a.g.g.g.d.k.j.V.V.V.N.L.L.L.L.L.L.L.L.V.l.g.q.w.=.*.*.*.%.%.O.@.*.-.9.p.g.l.l.V.V.V.B.B.M.M.M.N.N.N.C.G.F./././.T.T.T.W.Y.Z.Y.^.}.`.`._.].}.oXQ.E p 4 : & & * 0 <.U./.[.OXOX%X-X-X-X3X3X5X0X0XyXtXtXyXtXsXsXaXaXaXdXgXsXsXtXtXtXtXfXmXq $ & = = = = = >XvXlXiXT.G.oXOXOXOXOX&XOXOXXXXXXXXX+X+X+X+X.X.X.X.XoXoXoXoX{.{.oXoX.X.X.X.X.X.X.X.XXXXXXXXXXXXX&X%X%X&X=X3X6X6X5X5X=X!.z.$.z.Z.[.%XwXwX4X7XrXsXdXfXfXjXjXfXjXjXjXjXjXfXfXjXjXkXvXvXvXvXjXrX;X X X.X.X.X.X.XXXXXXXXXoXoXXXXXXXXX#X+X{._.F.m.5.5.u.b.(.W b < : ; ; ; ; ; ; * = * > > > > ).qX7XtXjXjXsX8X2X;X;X*X-X2X7XtXdXkXCXAXzXwXc.X.[ / ' A f e 3 , , , 8 u M 3.(.sXvXvXvXkXvXvXvXkXjXjXjXjXjXjXjXjXjXdXwXz.$.X.' $.z./.$.oXsXzXxXxXjXfX0Xq q fXzX).E V v (.vXbXbXhXsX).W 9 , , 4.U.,.n 6 1 4.@X2XyXsXfXdXdXdXdXsXsXtXtXyXtXeXeXeXeXeXeXeX8XeXeX5X5XwXwX8XeXeXeXeXeXeXeXeXeX8X8X9X8X0X8X8X(.,.E d 7 N i 4 Q $X%XwXwX8X5X5X=X}.^.D.:...| f b Q <X).4.! <.z.c.F.`._.W.Q./.b.W u 3 : 1 & $ $ & & * - * 1 b $.u.T.*XgXNX2 # O o o o o o o o % % % % o o o o o O # $ & $ * & * * ; * * * , b E X.*.=.*.*.*.%.%.%.%.%.&.&.{ | b : # O o o O O o o o o o . o o o o O O O O O # $ & % % $ $ # O O O O o o o o o o o o o o o O $ ; 5 9 d m C F ~ ` ] { o.&..._ C C R K K x y y y y r y y y s B H z y t t y Z n 8 e 7 5 5 u ,.k y t 8 5 < : : : , h 0 > * $ # % % $ $ $ $ $ $ % $ $ * , 0 9 u 9 9 e i a s Z j m ,.2.U l s v 4 , , : , 5 6 5 3 3 4 7 d g g s s s g J 4 * & # # O O O O O # $ & & & ; 0 0 9 6 6 6 6 7 7 6 7 8 4 5 3 ",
"V B m k f f f f a a s s a f f v v k k n v v v k k z z g p u p J h 2 $ # # O # % O $ * 0 v m l m M M V V V V V C C C C D D D F F P P P P I ^ / ] } o.o.o.O.*.=.6.6.8.q.e.e.e.e.g.g.g.g.d.k.j.j.V.V.N.L.L.L.L.L.L.L.L.V.l.d.p.w.=.*.*.*.*.*.%.%.O.%.*.;.q.g.l.l.V.V.V.V.N.N.n.N.N.P.Z./.(.3.4 : <.).(.$X/.$.E <.(.}.}.Q.oX[.&XoX$.v i 3 ; * ; , 4.(.(.$X$XOX%X&X-X-X3X3X5XeXyXsXtXeXtXsXaXsXaXaXgXdXdXsXtXsXtXtXtXdX<X$ $ & & = * * 2 kXzXaX1XE.H.oXOXOX%XOXOXOXOXXXXXXXXX+X+X+X+X.X.X.X.X.X.X.X.X.X.X{.{..X.X.X.X.X.X.X.XXX.XXXXXXXXXXXXXXX&X=X-X3X5X5XwX$Xz.' ' c.T.XX-XuXwX4X;X'.OX3XeX9XtXeXtXgXxXfXfXfXgXgXsXsXfXkXvXnXnXlXgX*X.X.X.XoXoXoX.X X XXXoXoXoXoXoX}.oXoX+X_.}.E.c.#.$.| M 2.( J 3 : > > ; ; > ; ; * * * * ; ; 2 <X1XwX3X3XoX^.&X.X.XOX*X2X8XtXdXvXCXAXzX6Xc.+.X.[ ~ ( v ).< ; 3 < 0 5 d 3.).fXkXmXfX8XdXkXkXkXjXjXjXjXjXjXjXjXfXtX-Xz.#.[ ] ] ] ' W 8XsXaXjXjXjXhXfXb 9 (.uX).E C k U.bXbXvXkXsX>XQ u < , 4.qX1.E p ; > 4.6XwXtXsXsXsXsXsXsX9X9X9XtXyXyXrXeX4X7XwX7X8X8XeX5X5X5X8XeXeXeXeXeXeXeXeXeX0X9X9X9X0X0XeXeX).Q u 9 p ,.u 4 3.oX{.-X-X2X3X3XoX_.A.u.[ _ T g 0 ; * & ; , < A $.S.`.}.Q.D.b.| v 9 , ; * & & $ $ * * * : 9 ! z./.=XtXhXlX& # o o o o o o o O - 2 = % O o o o o O O # $ $ & & * * ; * * * , h E +.*.=.*.%.%.%.%.%.%.%.&.&.&.' 0 & # O o o o O o o o o o o . o o o o o o O O # # $ % % # O O O o o o o o o o o o o o . o o o O & 1 9 g B C F ~ ] [ { &.&.) D V B l x x x x j y i u r r a r N H c y t t N a v 8 e e 7 e W T y y e 8 5 3 1 3 5 h 0 > & $ $ $ $ $ # $ & & & & $ $ $ & : 3 6 9 9 6 4 6 e y N H | 2.2.B j f e 5 , : : 1 0 0 4 3 3 5 7 u a a a y i p h 4 ; & $ O O O O O O O # $ $ $ * , 0 0 6 6 6 6 6 8 6 6 4 5 3 3 ",
"V B m k f f f a a a s a a d f f v k k k f v v f k z z g 9 0 0 q q = # # O O # # $ * 1 p v m m m M V V V V V V C C C D D D D F F P P P P I ^ / ] { o.o.o.O.*.=.w.6.8.q.e.e.e.e.g.g.g.g.g.k.j.V.V.V.N.L.L.L.L.L.L.L.L.n.j.a.p.w.=.@.*.*.*.*.*.%.%.%.%.*.=.w.g.d.n.V.V.m.m.m.M.M.M.Z././.! , , J ).! b z.(.(.<.H W /.oXoX^.+X+XoX<.G f 4 , ; 2 : 3 3.(.6X=X-X%X%X-X-X3X3X5XeXeXtXtXeXeXtXsXtXrXaXgXdXdXsXtXsXtXeXeXtX>X2 & & & & * * >XmXfXeX&XE.H.oXOXOX%XOXOXOXOXXXXXXXXX+X+X+X+X.X.X.X.X.X.X.X.X.X.X{.{..X.X.X.X.X.X.X.X.X.X.X.X.X.X.X.X XXX&X=X-X3X=X&X/.$.' :./.oX-XwXuXuXwX-X'._.{.*X6X3X=X3XrXaXfXfXgXsXsXsXuXsXhXlXnXnXlXxX*X{..XoXoXoXoXoX X XoX^.^.^.^.}.}.}.}.^.K.`.`.R.:.' M y _ G b 3 : > > ; ; > ; ; ; * * * * > * ; ).$X&XY.c.z././..X%X*X2XrXdXjXmXCXCXkX6XA.+.o.{ ..2.<.iXb < 4 3 5 5 e 3.).6XjXfX$X$XqXfXjXjXjXjXjXjXjXjXjXjXfXtX:Xc.-.{ ] } } ' <.9XsXfXfXjXjXhXhX! b U.3X/.| B m 3.mXvXnXzXfX).Q u < , q kXU.$.A 4 * 2 ! $X8X9XtXsXtXyXtX8X0X0X8XwX4X4X2X2X4X4X5X8X8X8X5X5X5XwXwXwXwXwXeXeXeXeXwX5X8X9XiXtX8X6X).b < 0 5 4.3.v 7 <.^.{.OX%X*X=X$XoXQ.c.u.} ( H h : ; * 2 0 b J <.:.m.Q.}.R.c.$.H g 9 : * & = & & & & * ; 5 ! U.(.3XtXfXhX>X# # o o o o o o o O > 2 - = O o o . o o O O # $ $ & & * * * & * , 9 W X.*.;.*.%.%.%.%.%.%.&.&.&.%.$.1 $ # + o o o o o o o o o . . . o o o o O O O O # # O O O O o o o o o o o o o o o o o o o o o O $ > 9 g N C F ~ ] [ { &.] F S V s s j x x x c y r u e r r r s ,.z r t t ,.7 Q e u 7 8 r ,.M y y t 8 5 3 , 5 h J > $ # # $ $ $ $ $ & * > * & & & $ & * ; < 0 0 3 1 5 6 t g H T | H ,.T N 6 < : ; : , 5 5 5 3 3 5 8 e u a a r e e 7 3 ; & $ O O O O O + O # # # # $ * 1 0 6 4 4 4 4 5 4 5 3 3 < < ",
"V m m k f f f a a a a a a a f f v v v f f f f f k z z g 3 , , 0 2 # O O O O # $ $ ; 6 v n n m B V V M V V C C C D D D F D F L U P P P P ~ ^ / ] { o.o.o.O.*.6.w.7.7.q.e.e.e.g.g.g.g.g.g.l.l.V.V.B.V.V.L.N.N.L.V.L.L.n.j.a.q.w.=.=.@.@.@.*.*.*.%.%.%.O.*.=.q.s.v.v.V.V.V.m.N.M.A././.! 0 ; b ).q ; : 9 b b ,.b p A z.U.^.oXoX+Xz.| v 4 < : : 2 * 3 <.(.=X%X-X%X&X=X3X3X5XwXeXeXeXwXwXtXtXeXuXrXaXdXdXsXtXtXtXeXwX5X4.q ; & $ & * > iXmXfXwX+XE.J.{.OXOXOXOXOXOXOXXXXXXXXX+X+X+X+X.X.X.X.X.X.X.X.X.X.X{.{..X.X.X.X.X.X.X.X.X.X.X.X[.[.[.~.[..XoX&X+X&X+XT.5.W [ h.^.&X3XeXeXuXuX:X+XF.Y.[.oXoX}..X5XyXtXsXsXsXsXsXsXsXjXlXkXlXlXgX*X.X{.{.{.{..XoX.X[.Q.D.D.D.J.K.`.}.^.A.f.H.Q.Q.:.F a s m n 9 < : > ; ; > ; ; ; * * * * & $ > & q (.oXm.:.+.A.^.%X;X2XyXgXxXmXNXCXCXvXqXA.#.+.&.) | (.hX3.< 3 < 3 4 8 3.z.(.(.).P.'. XfXjXjXjXjXjXjXjXjXjXfXfXtX:Xc.*.{ ] } ] ' (.9XfXfXfXjXxXhXhX>XA | (.<.D U F ,.vXvXvXmXfX(.Q u 3 , , ,X6Xz.W b 1 * 0 ).(.$X5XeXeXeX4X6X6X6X1X=X=X*X*X*X*X*X5X5X5XwX5X5X5XwXwXwXwXwXwXwXeXwX3X3X6X8XfXiX!.z.W 9 , , 5 9 Q p 4 b U.W..XXXXXXXoX}.Q.s.:.~ D z 5 , 0 4.<X>X4.J V F $.b./.U.! p p p q : & $ & & & & * * & q ).6XtXsXtX0X<Xq o o o o o o o o o o - 2 = % O o o . o o o O O $ $ $ & * * & & & , 6 W $.:.-.O.%.%.&.%.o.&.o.o.+.+.<.1 & # o o o o o o o o o o . o . o o o o O O O O O O O o o o o o o o . o o o o o o o o o o o o O # * 5 u N Z G ( ( ] } } P F S M a t y x x x c y r e t t r r s ,.g r t e 7 i b u e r i e 3.a y t t 8 3 , 1 < J 0 & $ # # $ $ $ $ & = > > > * & & $ $ $ & ; , , : : 1 4 7 r N N v u b 4.h 5 ; & & * > 1 1 3 3 3 3 4 8 e r r e e 7 6 3 ; & # # O O O O O O O O + O # $ : 0 6 4 4 4 3 3 3 3 < < < < ",
"V V m k f f a a a a a a a a d f f g v f f f f f n N g h : * * > & O O O o O # $ & 1 h v n n m B B B V V V C C C D D F F F F F U P P P P I ^ / ] { &.o.O.O.*.6.w.7.7.q.e.e.e.g.g.g.g.g.g.l.l.V.V.N.N.N.N.N.M.M.V.V.V.l.g.a.q.w.=.=.=.=.*.*.*.*.*.%.%.o.O.O.=.u.v.v.V.V.D.A.A.A.A.^.! 4 : q J : & : * 3 4 p 8 h 4 3 W W <.^.}.&X/.<.v 6 3 , * > * : q >X!.-X-X-X-X-X3X3X3XwXwXwXwXwXwXwXeXwXwXrXrXtXtXtXtXtXtXeXwX=Xz.Q < & % & * b iXjXgXwX+XE.K.{.OXOXOXOXOXOXOXXXXXXXXX+XXX.X.X.X.X.X.X{..X.X.X.X.X{.{.{..X.X.X.X.X.X.X.X.X[.[.[.!.~.!.~.[.}.oX{.+X}.c.+.+.&.:.Q.oX=X5XeXwXwXwX:XF.G.`.`.`.`.}.=X5X8XtXtXaXgXgXsXsXfXhXkXjXfXtX&X}.}.|.|.}.oXoX}.Q.D.m.s.d.n.M.H.`.R.5.+.c.D././.| r 8 a p 0 1 ; > ; ; > > ; ; * * * * & * 2 ; * ! /.v.+.' b.oX%X*X4XrXgXkXNXCXCXCXbXqXA.#.&.>...,.kX0X).5 3 3 3 4 5 3.b.1.W W 5.F.!.tXfXjXhXhXjXjXjXjXjXjXfXtX-Xc.-.{ ] ' ' W 6XtXsX9XfXxXxXhXhX).G C 1.( L U U A kXkXkXmXkX,XQ u 3 < : 4.iX$X<.W q , , Q <.U.oX3XwXwX*X*X$X$X&X&XXX#X X@X@X@X5X5X5X5X5X5X5XwXwXwXwXwXwXwXwXwX5X5X3X8XhXdX(.<.p 5 < < 3 3 4 4 3 9 z.Y.}.oXoXoX[.~.Q.:.$.F M g 3 : , : ; : 3 8 k V F A A Q J 5 3 0 q & & $ & & & & * ; J ,X0XzXaXaXqX(.! $ O   o o o o o o o o # - O o o o . . . o o o O # $ $ & & & & $ & : 0 W | >.>.%.%.%.+.o.o.&.o.o.+.$.<.2 = O + + o o o o o o o o . o o o o o o O O O O o o o o o o o o o o . . o o o o o o o o o o o o o $ 2 9 N H G ( | | } F F F S M a 8 r j x x j y e e t t h r H H i e r p i e e e J 8 8 H 3.e r 8 t 8 < , 3 J q : & # # # $ $ $ $ & * > > : ; & $ $ $ $ $ $ * * * ; : 3 4 8 g v e 6 < , * 2 = # # & * > , < 3 3 5 4 8 8 e e e e 7 4 < ; & # # O O O O O O O O + O O # * 2 5 4 4 3 < < , , , , 1 1 ",
"Z B m k f f a a a a a a a a a a d d d f f f f f n v g 6 ; & $ $ # O o o o o # & : 0 d n n M m m B B V V C C C C D D F D F F F P P P P P ~ ~ / ] { &.o.O.O.=.6.w.8.8.q.e.e.e.g.g.g.g.g.l.l.l.V.N.V.N.V.N.M.M.V.V.V.n.d.a.p.q.w.=.=.*.*.*.*.*.*.*.*.O.o.[ [ o.:.u.v.v.A.A.A.Z.Z.^.<.9 4 0 Q 1 ; : q , ; ; , 5 9 9 ; 4 b A $./.^./.<.u 9 3 < ; > ; ; > b z.&X=X-X-X-X3X3X3XeX3XuX3X'.+X-XwX-X-XwXyXyXtXtXtXtXtXtXeX&XP.<.9 & $ & > Q 6XiXtXwX+XE.E.}.OXOXOXOXOX+XOXOXOX+XXXXXXX.X.X.X.X.X.X{.{.{.{..X{.{.{..X.X{.{..X.X.XoXoXoXoX}.~.~.T.Y.T.Q.].}.|.}.J.z.$.+.1.b.D.Q.$X6X5XwXwX-X{.E.C.f.f.V.Q.Q.oX=X5XeXyXrXaXgXsXgXfXhXdXjXfX5X&X}.K.N.H.K.`.^.Q.D.s.9.9.0.k.N.J.}.v.#.E +.D.(.U.m r r v b 1 > ; > > > > > ; * * * * * * * * ; ; 0 U./.] ] b.&X-X2X4X0XgXlXbXMXCXZXbXdXz.6.&.] ] U.zX0X).9 4 3 5 7 9 U.1.~ d 9 W z.!.eXfXjXjXjXfXfXfXfXfXfXgXtX-Xc.;.} ] $.E ^.5XtXtXsXfXhXhXhXfX).F L L L L U U Q jXjXkXmXhXqX4.3 3 5 : J hX9X/.W b 5 : b W $.U.^.&X&XXXXXoXoX}.~.~.oX.X X%X2X3XwX5X5X5X5X5X5X5X5X5X5X5X5XwXeXrXrXwX4XiXhXiX).0 3 5 5 5 3 < < 3 0 U.}.oX^.^.^.].^.b.$.E n v h , : : , 3 6 u g k k k v d 9 0 1 : > * = $ $ & & & & : J ).).qX0XqX>X2 $ O o . . . o o o o o o o + + O O o . . . . . o o o O $ $ $ $ & & $ & > 3 b E ' +.o.&.&.O.o.o.o.&.[ $.<.,X> $ O + o o o o o o o o o o o o o o O O O O O o o o o o o o o . . . . . o o o o o o o o o o o o . O * 1 b H N M V G ~ / ~ D U A 7 8 y y K T j t 7 6 8 8 7 e u a v e u g e 8 8 8 4 8 8 Q p 8 4 5 0 5 3 3 h h ; & # # # # $ $ $ & & ; : , : > * $ $ # # # # $ $ $ & ; , 3 6 7 7 6 1 : & & # % # # $ $ & ; : , 1 < 3 5 4 8 7 7 7 8 4 < ; & $ # O O O O O O O + O O O # # & > 1 1 < < , : : : , , , ",
"B M n f f a a a a a a a a a a d d d d d d f d f v v p 4 * $ % + + o o . . o # & 1 9 v n n m m m m V V V C C C D S D D D F F F P P P P P ~ ~ / ] { o.o.O.O.=.6.w.8.8.q.e.e.e.p.g.g.g.g.l.l.l.V.N.V.V.N.N.N.N.N.V.j.d.i.0.w.9.=.;.*.*.*.*.*.*.*.*.;.%.o.[ ] [ +.:.u.b.A.D.R.R.^.^.b < 5 J , < < J q : & ; * ; , 1 ; ; < 4 p ! )./.b.A v 9 < : * * * ; 2 ! oX&X&X-X2XwXwX-X-XwX:X!.P.+XwX-X'. X-XwXtXyXyXyXtXyXtXeX&X!.<.b ; $ = > Q (.6X8X3X+XE.E.oXOXOXOXOXOX+X+XOXOX+XXXXX.X.X.X{.{.{.{.{.{.{.{.[.[.[.{..X.X{.{..X.X}.}.}.}.}.}.^.W.Y.Y.Y.Q.Q._.|.|.Z.u.[ ` } ` $./.oX6X5XwXwX-X+XW.M.f.5.w.s.D.^.$X=X5XeXrXaXgXaXsXfXhXjXfXeX$XW.c.5.#.5.f.c.A.u.:.:.*.-.q.a.N.Y.^.:.` D ~ ' 2.1.2.d u p p , ; ; > > > > > > ; * * * * * * * ; : < Q b.} ] b.&X&X2X4XrXaXhXnXMXCXZXAXqXA.9.+.[ / (.zXhX3.6 3 3 8 4 b <.| n 7 4 W /.).tXdXhXfXfXfXfXfXfXfXfXfXtX-Xc.-.} &.$.<.&XwXtXtXtXdXdXhXhXdX6XE I L L K K U <.dXgXzXkXCXlXJ < < 5 : 0 hXsXoXb.Q p < 9 A / b./.^.oX}.[.^.Q.M.x.A.Y.[..X%X-X3X5XwXwX5X5X5X5X5X5X5X5X5X5X5X4XrXrXwX7XjXhXiX3.3 5 5 5 5 3 < 1 , , (.Q.^.^.W.T.W.R.b.' S v p 9 , : : < 4 t i g z k k f e 4 , * & $ $ $ # $ & & # & 1 Q ! <.).).4.& # o . .     . o o o o o o o o o o o . . . . . . . o o o O $ $ $ $ $ $ $ * < p M ( $.o.o.o.o.+.X.&.o.` $./.).* # O o o o o o o o o o o o o o O O O O O o o o o o o o o . . . . . . . . . . . o o . . o o o . . . # > q b n m m V D F ~ F ( A 8 8 r y K | k 8 4 5 5 5 8 8 7 u u p H J e 7 8 8 8 4 e p 4 4 5 3 0 3 3 6 h 3 & # # # # # # $ $ & * ; : , , : * & $ # # # # # # $ & * , 3 4 6 4 5 > * $ % + + # # $ $ $ & * ; : , < < 5 8 8 8 8 8 4 < ; & $ # O O O O O O O O O # # # O # & ; , 1 , : ; ; : : : , ",
"m n f f d d a d a a a a a a a d d d g d d d d d d v 9 < & # @ + o . X . . o % * 0 v v n m B m m M V V C C C D D D D D D F F F P P P P P ~ ^ / ] { o.o.O.@.=.6.6.8.8.q.e.e.e.a.g.g.a.d.l.l.l.l.N.V.V.N.N.N.N.N.V.d.i.0.9.=.;.*.*.*.*.*.*.*.*.;.;.;.*.o.} / } } } :.z.b.A./.Q.}.<.0 1 < 5 : < h < ; * = > > = $ & % $ ; 5 8 v z./.b.' v p 3 , * & & & ; ! !.}.&X3XwXwXwX-X%X:X'.P.F.}.+X!.T.{.-XwXeXyXeXeXtXtXyXeX-X&Xb.W 1 * * , b U.(.3X3X&XQ.K.+X+XOXOXOXOX+XOXXXXXXXXXoXoX.X{.{.{.{.{.}.{.{.{.[.[.[.{..X.X.X.X.X.X}.}.}.}.}.}.^.T.Y.Z.Z.J.R.Q.}.].A.$./ L P S ' A.oX6X5X5X3X-X#X^.Z.x.9.X.X.:./.}.$X=XeXyXaXgXgXsXfXfXdXtX#X/./.z.$.E W $.$.:.[ X.o.O.-.y.d.A.^.$X$.L K K C S V G a p 7 3 > * ; : ; ; ; ; ; ; > > ; ; ; * * ; : : 9 <.$.' :./.+XXX X@X0XdXhXvXZXCXhX6X^.u.+.X.E ^.sX0XQ 4 < 3 4 5 | | v 9 3 3 A U.(.iXhXhXfXfXfXfXfXfXfXfXfXtXwXz.@. .&.' /.wXwXrXtXsXdXdXhXhXdXiX,.E L L K K L U.8XrXzXkXbX<X2 : , < : 1 0X6X$XU.! 9 < 3 A E { b./.Q.^.Q./.D.5.6.5.m._.[.OX-X3XwXwXwX5X5X5X5X5X5X5X2X2X2X2X2X2X4XeXrXaXzX6XA 8 8 4 4 3 < < < 1 4 (.b.b.D.Q.Q.Q.A.<.S n f p 5 : ; , 5 7 r g s k k v v 6 < ; $ # O + + # $ & * = > < d W W b q # # o o . . . . . . . . . . o o . . o o . o . . . . . . o o O # % $ $ $ $ $ & : 8 s F } o.o.o.o.+.o.&.{ o.$.qXq $ # O o o o o o o o o o o o o o O O O O o o o o . . . . . . . . . . . . . . . . . . . . . . . .   . o & 1 p f j z M V D ~ ~ | M 8 8 r y D | k 8 1 > , 1 1 5 4 6 8 d H J h t 8 e t 7 v 8 8 0 5 3 5 3 5 h 1 * & # # # # # # $ $ & * ; : : : > * & $ # # # # # # # $ & > 1 3 3 3 1 > & % % + + # # $ $ $ $ & * * ; : , 3 4 8 8 8 8 4 < ; & $ # O O O O O O O O O # # # O # $ & * ; ; ; ; ; > > : : ",
"k f d p i p p d d a a a a p p d p d d g d d d d d d 9 , $ + + X o . . . . O $ ; 9 v v m B B m M M M V C C C D D D D D D F F F P P P P P ~ ^ / ] { o.o.O.O.=.6.6.8.7.q.e.e.e.a.a.a.a.d.l.l.l.l.n.V.N.N.N.N.N.j.l.a.0.w.=.=.;.;.;.*.%.*.*.*.*.;.;.;.;.&.} ) _ _ / A E W $.A././.q 1 ; : , 1 4.J ; * & = = % % $ # % % = , h d z./.u.$.A p 6 , * & % $ q 3./.^.&X3XwXwXwXwX-X+Xz.5.m.A.A.Y.Y.{.&XwXeXyXyXeXtXyXyXeX2X&XZ.! q ; ; , b 3./.=X5X$X`.E..XOXOXOX&X&XOX&XXXXXXXXX+XoXoX}.}._._._.|.}.{.[.[.[.{.{..X.X.X.X.XoX}.}.{.{.}.}.[.~.Y.C.A.S.J.R.}.^.b.' P D U D :.b.oX6X5X2X-X-X#X^.Z.x.9.' / +.z.Z.[.&X5XeXrXgXdXdXsXtX6X$X).z.<.! b p 9 b A W <.$.| [ :.u.c.A.$X6X$.F K R C C Z H i 6 3 ; > * ; : : ; ; ; > > > > > ; ; ; ; ; ; ; : b <.E E $.z.z.!.XXqXiXdXlXbXnX).=XoXu.+.+.' U.8X).q 3 < 3 4 7 ,.H h 4 < 5 v W 0X0XhXhXfXfXdXdXfXfXsXgXdXsXwXz.O. .{ $.oXwXeXyXtXtXsXdXxXxXjXdXz.A F L K I D U.6X7XgXhXpXq * > : < : b ,X(.).).! , , 3 N S ~ :.b.D.Q./.v.s.=.#.7.N.`.{.OX-X3X3XwXwXwX3X3X5X3X6X6X6X=X*X*X*X-X3XrXrXsX9X<.M 8 8 6 4 3 3 < 1 : 5 <.' $.<.b.Q.Z.c.$.f a p 9 < * : 3 8 e r s j k f v v 9 5 > % + + + + # $ & & & > 3 v E A 3 ; # o . . . . X . . . . . . . o . . . o o o o o . . . . . o o o O # # $ $ $ $ & ; 5 e n ( o.o.o.o.X.o.&.o.X./.).& $ # O o o o o o o o o o o o o o O O O O o o o . . . . . . . . . . . . . . . . . . . . . . . . .     . # > 4 9 i g v n M F | ,.N 8 8 r y G | k 8 , > > > , 1 < 4 8 d N g h h 7 h 8 J H d 6 0 5 5 3 3 6 0 > $ & # # # # # # $ $ & * * ; : > > * & $ $ # # # # O # $ & > , 1 1 , > * $ % O O O # # # $ # # $ $ & & ; : , 3 4 8 8 6 5 < ; & # # # O # O O O O # # # # # # # # $ $ & & & * * ; > : : ",
"r u u u u u i i i p p i u u u u u u i i i p p p d p 0 ; # O o o o o . . o # * 1 p k n m m m m m M M V V C S D D D F F F D F F L L P P P ~ ^ / ] { &.o.O.O.=.6.w.8.8.q.e.e.e.a.a.a.a.d.l.l.l.n.j.V.V.N.N.N.n.j.a.p.0.6.=.*.*.*.%.%.O.O.O.%.%.;.;.;.;.&.{ ] _ _ I f a M ,.u./.W 3 ; * * ; ; 2 ; > w 4.q $ # # $ $ $ $ % * 1 J <.b.1.( M i 6 , * & - = q (.(.^.'.:X3X5X4X5XwX/.X.&.&.+.:.u.i.A.&X3XeXeXeXeXeXeXeXeXwX3X~.<.J , * : 4 W z.$XfX6X].|..XOX:X:X-X=X&X&XoXoXXXXXoXoX+X}.Q.Z.C.J.Q._.].[.[.[.[.[.[.[.{..X.X.X.XoXoXoXoXoX+X~.Z.c.V.x.m.D.+XQ.:...K K K C $.u.$X$X2X2X;X-X%X[.S.v.u.` S E :.A.}.&X-XwX8XsXkXfX-X[.R./.<.Q 0 1 1 > > ; * ; 0 b W $.$.5.oX$X6X6X<.E T T K Z H c 5 : * & * * , : : ; ; ; * ; > > : ; ; ; * ; * * * 1 J ,.( S v <.z.[.$X0XhXkXkXcX>XzX&X:.X.+.` U.(.Q < 1 < 5 7 u g h 8 4 4 6 a A iX9X0XiXsXsXfXdXsXtXtXsXfXsXwXz.X.{ { E oX3XeXeXtXtXsXaXgXxXkXjX6X! G L K I ^ E 6XtXsXhXJ ; : : ; : 4 H Q h , , : : 1 , b W E #.c.D.Q.v.b.&.{ ;.p.B.`.|.OX-X-X3X5XwX:X:X2X3X5X6X$X(.z./.!.XX&X3XyXrXsX).W r t 4 3 b b 7 , ; , 3 7 N n W 1./.Q.b.,.y t 8 1 > * < 6 e r a s j k k v v 7 5 ; $ O o O O # $ $ & = > 3 J H b 1 $ O . o . . . o o . . . . o o . . . o - $ $ # O . . . . . o o o o O O # % % $ $ * , 8 p G { o.X.{ } {  .o.@.oXb ; & # O O o o o o o o o o o o o o o o O o o o o o . . . . . . . . . . . . . . . . . . . . . . . .     . o # * 2 0 9 9 v S F T 2.r 8 8 c j ,.Q f 7 , ; ; > > 1 < 3 t s g r t t 7 t 8 h N i 4 6 8 8 i b h 1 $ # $ # O O # # # $ $ $ & * * ; ; ; * & & $ $ # # O O O # $ * ; 2 > * = # # O O O O O O # # # # # # # $ * ; : , 3 4 4 4 3 , * $ # # # # # # # # # # # # # # # # # # # # $ & & * ; > > : ",
"e 7 7 6 6 7 u i i u u u u 9 9 9 9 u u u u u u u p p 3 * # O o o o o . o o # ; 5 p f n k n N N m m m M V S S D D D F F F F F F L L P P P ~ ^ / ] { o.o.O.O.*.6.w.8.8.q.e.e.e.a.a.a.a.d.l.l.l.n.l.n.N.N.N.N.j.k.a.e.0.6.=.;.%.%.&.o.o.o.o.o.%.*.;.;.;.*.o.] } ) ( T y r A b.$.9 : ; * * * * * & w pX).2 $ # # $ $ $ $ $ = > q W 2.2.G f 9 < ; > 2 * * : 0 3.$XoXXX3X8X8X5X3Xz.) .. .} } >.u.A.&X5XeXeXeXeXeXeXeXeXwXwX&X).Q 4 * ; , p <.(.9X8X+X`.+X&X&X&X&XoXoX}.}.}..X.XXXoX(./.z.5.f.n.C.R.~.^.[.[.[.[.[.[..X.X.X{.{.{.{.{.oXoX.X[.Q.J.D.n.c.A.D.D.b.^ K K K C ' u.oX-X*X;X;X%X%X[.S.v.h.} F F #.x.].&X:XwX9XsXfXtXT.A.<.<.Q 0 * $ $ & $ $ $ $ & * 1 b ! ^.8X8X8XtXU.( H Z Z Z c h 3 * & & ; : 1 1 , : ; ; ; ; ; ; ; ; ; * * * & & & * , J G M e b z.~.6XiXhXzXzX>XrXsXoX#.+.[ } U.(.p 3 1 3 3 t t h h 8 6 4 6 p 3.$X=X6X9XtXsXdXdXsXtXtXsXdXsXwXz.X.{ { ' (.5X8XeXeXtXrXyXuXaXjXjXeXU.G L K K D E z.$X0XiX2 : ; : : 5 u N g 7 < , > > 1 , 9 A E #.D.^./.b.1.}  .%.s.M.`.|.OX-X-X3X3X2X:XwXwX3X(.U.$.E W P.oX&X&X3XyXtX8X<.v r 8 7 < 3.Q p 3 , , 3 8 7 i f | 3./.U.( t t 4 : ; * : 7 a a g z l l k v v 7 5 ; $ O o O # $ $ $ & ; 1 4 J J 1 # o o . . . o o o o . . . . o o . o O O * > * $ O o . . . . o o o o O O # # # # $ & : 3 u M ' o.$.[ {  .{ o.9.(.1 * & $ # O o o o o o o o o o o o o o o O o o o o . . . . . . . . . . . . . . . . . . . . . . . . X X   . . o # = 2 2 5 9 v G 1.H 8 3 8 c T ,X3.p 8 , : ; > : , < 5 i a a e 8 8 8 8 4 h v i 6 7 a N 3.Q 3 ; $ # # # O O O # # $ $ $ & & * * * * * & & $ $ # # O O O O $ & ; > = & $ # O O O O O O O O O # O O O # # $ * ; , < 3 3 3 3 , * $ # # # # # # # # # # # # # # # # # # # # # $ & & * ; > > ",
"8 6 6 4 4 4 7 e t e 7 7 6 6 6 6 7 7 7 7 e e e e u 9 1 & O o . . o o o o O $ ; 3 p d d f f v N N n n M M V D D D F F F F F F F L L P L P ~ ^ / ] { &.o.O.O.*.6.w.8.8.q.e.e.e.a.a.a.a.d.k.l.j.l.l.l.j.n.N.n.j.d.a.0.w.=.;.*.%.o.&.{ { { [ o.o.O.*.;.=.@.O.X.` ] } 2.n 8 6 3.b ; & * * * * & > * <X).; > O # # $ $ $ $ $ $ * 0 p W | M 9 1 > 2 J 3.Q b 4 : : b (.$X8X8X8X5X=X$.U Y _ ^ ) +.u.A.&X5XeXeXeXeXeXeXeXwXwXwX3X(.<.p * * * 1 W U.6X=X}.`.&X=X6X6X^./.D.n.B.E.{..X&X$X(.( ~ [ :.s.v.S.Q.^.[.[.[.[.[.[.{.{.{.{.{.{.{.{.{.{.'.~.R.D.m.c.c.D.^.D.[ I K K K D [ c.^.&X%X;X;XOX&X].D.v.u...U S X.x.].:XwX8XdXfXtX(.<.$.A q 1 * $ # # $ $ # # # O & & * w <XkXhX0X(.<.m Z Z x c h 8 , * & > 1 0 0 5 < , : : : : , , : ; * * * & & & & * * , b v 5 3 W /.9XiXhXjXuX@XmXkX/.$.+.] 1.U.U.< < 1 1 3 9 7 8 8 4 4 4 4 9 (.^.~.-X5XtXsXdXdXgXtXtXdXfXsX3X5.X.{ } [ ^.6X8XeXeXeXeXuXuXuXfXsX8XU.S C C C C F $./.0X).$ > : : 0 0 3.H g h < , : : , , 3 b $.s.^.oX(.1.| I { *.s.M.`.{.OX-X3X3X-X-X2XwX=X^.1.( S W 6XeXtX5X-X3XyXtX/.W p 4 8 , Q ,X<.N 7 4 3 3 3 5 4 8 g ,.U.U.A 8 8 3 : * ; , v f g z z l l k f v e 5 : $ O O # # $ $ $ * : h Q 4.q $ o o . . . . . . o o . . . . o o o O $ ; 0 0 ; & # o . . o o o o o o o O O # # # $ & : 3 9 v / +.$.+.o.+.o.X.b.! , ; & $ # O o o o o o o o o o o o o o o o o o o o . . . . . . . . . . . . . . . . . . . . . . . . X X X . . . o # = * ; < 9 H ,.u 7 3 4 k 2.(.(.6 5 , : ; ; ; : 5 8 h a t 7 8 8 5 5 5 0 u u u r N ,.(.9 1 $ $ # # # O O # # $ $ $ & & & * * * * * & & $ # # O O O O O # & * = = $ # O O O O O O O O O O O O O O O # $ & * : , < 3 3 < : * # O O O O O O O O O # # # # O O O O O O O # # $ & = * ; ; ",
"4 4 5 3 3 4 8 7 7 8 4 4 5 5 4 4 4 6 6 7 7 e e e u 9 1 $ O o . . o o o o O $ ; 3 p p p p p d g v v n n M V D D F F F F F F F F L L P L P ~ ^ / ] { &.o.O.O.*.6.w.8.8.q.e.e.e.a.a.a.a.d.k.j.j.l.l.l.j.n.n.n.j.d.i.q.9.=.;.*.%.o.{ { } ] [ [ { o.O.*.;.-.O.[ ' [ +...W p 3 q ; > $ & * * * * & & > * ; * # # # $ $ # $ $ $ & : 0 b H v 0 ; $ # 2 4.,X,X3.0 1 , b ).6X5X0X8X$XE C U Y P ^ ` u.A.&X5XeXeXeXeXeXeXeX5X3XwXwX=X<.A : * > , b 4.).).z./.(.U.<.! $.$.0.p.l.B.T.{.&X(.W s m L [ :.v.D.Q.}.}.].].].}.}.}.}.}.}.}.|.].].].].].Y.A.z.:.u.b.^.b.:.o.^ K K K D :.D.R.].+X+XOXOX+X].D.v.:...^ D X.c.'.:XwXtXdXfXeXz.! b : * $ # # # # # # # # # O $ $ # # 4.hXhX).Q G l x x c c 8 < , : ; , 0 0 0 0 5 < , , , , q 0 < : : ; ; * * = = = * , 3 p 4 3 b ).dXhXhXsX-XuXAXmXU.$...] ` U.<.; 1 1 1 1 0 8 4 5 4 4 4 4 J U.z.}.&X3XeXsXsXsXsXtXtXsXdXtX-Xz.X.} ] X.^.5X8XeXeXeXwXwXwXwXfX6X(.<.M B B C T ( $.<.,X> * > ; : ; (.,XN N e 3 < , : : < < b $.:.D.U.1.F m L [ @.f.C._.|.OX%X-X-X-X-X3X6X(.<.S >.U.(.=X=X=X1X3X3XeX9X<.v 9 5 3 , ).sX3.| g 8 5 5 3 3 3 8 r N <.3.N u 5 , ; * ; 0 ,.n N z z l l k f v e 5 ; $ # O O # # $ = : 0 J J > # O + . . . . . . . . o . . . . o o o O * q J 9 : = # o . . o o o o o o o o O O # # $ & > < 6 d E $.$.+.X.X.X.X.b.b ; & * & # O o o o o o o . . o o o o o o o o o o o . . . . . . . . . . . . . . . . . . . . . . . . X X X . . . . O # $ & : 4 Q f f p 6 u n ( ,.(.b < , : ; ; * : 5 8 J i 7 7 4 5 5 5 5 5 7 e i a T 3.,.< * $ # # # # O O # # $ $ $ & & & & & & & & & & $ # # O O O o O # $ & & $ # O O O O O O O O O O O O O O O O O # $ & * : , < 1 1 > & # O O O O O O O O O O O O O O O O O O O O O # $ % & & = * ",
"8 4 3 < < 3 5 8 6 4 1 : > > , 1 < 5 4 6 8 7 t e u 9 1 = + X X . o o o o O $ ; 1 6 9 7 7 7 u i p d v n M M S G F D D D D F F F P L P P I ^ ^ / ] { o.o.O.O.*.6.w.8.q.q.e.e.r.a.a.a.a.d.l.l.l.l.l.l.l.n.n.n.j.a.i.7.9.=.*.O.o.o.{ } / / ] ] ] [ { [ [ >.{ ] ] {  .>.M i 5 ; & = = & * * * * * * * * > * O # # $ $ $ $ % $ & * , 0 b 9 , * & & $ $ & >XbX,X! 0 : b z.#XfXsX/./ I Y ^ ^ ) ' :.oXwX5XeXyXeXwXwXwXwXwX3XwXwX3Xb.W 5 ; * * > 1 J J b b b v A W $.+.*.w.g.B.Y.[.(.! n l C B E u.v.B.H.K.E.K.K.J.J.K.K.K.K.K.K.K.J.K.R.R.D.b.E E / >.1.b.(.:...I L U D 1./.D.m.A._.{..X.XoX}.Q.A.:.' D L / D.}.=XtXfXzXfX(.! p , & # # # # # # # # # # # # # # $ # & ).).A v Z s z c c 8 3 , , , 2 1 0 0 0 0 5 < , , : , Q J J b 9 p 3 < 1 > > = * ; , 3 0 , 4 Q iXhXhX9X-X-XvXhXz.$./ _ ..U.).: , 1 > , < 3 4 6 4 4 4 4 Q A W }.OX-X4X7XsX8X6XwXeXeX9X6XoX:.} } ] ' /.5X8XeXeXwX3X-X-X-X3X$XU.E k s k C C | | (.q 2 ; : 2 : , 3.,XQ J r 9 3 , : : , < < A W 1.| m m V ~ X.0.S.}.+X.X+XOX-X-X-X&X5X(.1.' b.b.:.+.$.z.!.oX3X3X6X! N g 0 1 < : ).6X1.| H g 5 5 1 1 3 5 8 t H Q p 5 3 : * & ; 0 3.M N z z l l k f p e 5 ; & $ $ O O O $ ; , b 0 2 $ + X . . . . . . o o . o . . . . o o o O * b (.Q 1 * # o o . . . o o o o o o O O # # # $ * : 3 9 H ( >.+.+.+.@.#.<.5 * ; * & # O O o O o o o o o o o o o o o o . . . . . . . . . . . . . . . . . . . . . . . . . . . . . X X . . . . . o # * < b v s ,.y r f C T n Q 9 < , : ; ; > : 0 J J u 7 4 5 3 3 3 3 3 6 u g s T 3.9 : & $ % # # # O O O # # $ & & & & & * & & & & $ $ # # O O O o O O $ $ $ $ O O O O O O O O O O O O O O O O + O O # $ & * : , , , ; $ # O O O O O o o o O O O o O O O O O O o O O O O # # # $ $ ",
"0 4 < < , < 5 5 0 1 ; & & & * ; : , 1 5 4 8 8 7 u 9 1 & + X X . o o o o O $ ; 1 4 4 4 4 4 6 7 u p v v n M S G G D D D D F F F P L P P P ^ ^ / ] { o.o.O.O.*.6.w.8.q.q.e.r.r.a.a.a.a.d.l.l.l.l.l.l.l.n.n.n.j.a.r.7.9.=.@.O.o.{ ] / ~ ~ ( / / ) | | S ( | / ^ } ..2.G a 4 ; = % % & * * * * * * * 2 4.& # % # $ $ $ $ $ $ % & ; 1 0 1 ; & w 4.q & # $ q iXqXQ b 3 <.P.dXdX/.` I Y Y ^ ) ' /.$X5XeXeXeXeXwXwXwXwXwX3XwXwX3X/.W 9 : * = & * , < , , 6 8 i M F { &.-.s.D._.oXU.G V K B 2.U.b.u.f.x.n.V.V.x.g.x.x.x.x.x.x.x.x.x.x.x.c.c.b.E D ^ ..1.( 1.1.) L x L | (.D.M.n.f.K.`.{.{.{.{.}.~.z.<.V L ( 1.(.=XsXfXzXfXU.W 5 * # O # # # O O O O O O # % # # # # > b (.b r N c j z h 4 < 1 1 1 1 1 5 5 5 3 1 , : : : , 9 u u p v ,.,.Q 0 0 > * * ; : , < < 3 9 4.hXhXqXoX$XiX0X<.' _ _ E ,.lXq , 1 > > , < 3 5 4 4 4 4 J 9 W oX-XwXuXsXtX6X#X&XXXXX$X=X/.+.} } ] ' /.3X8XtXeXwX&XOX+XoXoX/.<.S n s f S | ,.(.Q ; ; : 2 > , , J U.3.N h h 9 < : : : , < 6 H 1.| x x D ` #.d.E.}.+X+X+X+X-X-X&X=X$XU.2./ ' :.u.+.z.R.^.^.&X6X(.W u 8 3 , < 0 6X(.W M s h 5 5 1 < 3 5 8 7 p b 9 0 1 : * * ; q ,.n N N z l l k f p e 4 ; & & $ # $ % - 2 2 1 ; $ + X X . . . . . . . . o o . . . . o o o O & 1 b 4.0 > % + + o o . . o o o o o O O O # # $ $ * , 4 e S :.+.5.#.#.b.W 3 : ; * & $ # O o O o o . . . . . o o . . . . . . . . . . . . . . . . . . . . . . . . . . . . . . . . X . . . . . . . O & , p d 3.G k a m L T N b 6 , : : * * ; : 0 h h u 6 5 3 3 < < 3 5 6 7 H N N J , * $ % % # $ $ O O # $ $ & & & & * * * & & & & & $ $ # O O O o o O # $ $ $ O O O O O O O O O O O O o o o o + + + O # $ & * > > > * # O o o o o o o o o o o o o o o o o o o o o o o o o O O O O ",
"0 4 < 1 : , 1 1 1 > $ O O O # $ & * ; , 1 5 4 8 7 6 > $ o X X . . o o o O $ * 1 1 < 3 3 3 5 4 6 9 p v v M M G G G D D D F F F F L P P I ^ ^ / ] { o.o.O.@.=.6.w.8.8.q.r.r.r.a.a.a.a.d.l.l.l.l.l.l.j.j.j.n.j.a.r.9.9.#.O.o.{ [ ] ~ F D P P ~ ( | G u f G M m I 2.2.| f 6 : * $ $ & * * * * * * * J 4.* # % $ $ $ $ $ % $ $ $ * ; : ; * & - w <X4.2 * * * q 4.Q p 0 ).5XeXU.} Y Y _ _ _ | U.$X8X9XeXeXeXwXeXwXwXwXwXwXwX-XoX<.J , ; & # # $ & * ; 3 8 p S F { 1.~ $.R.+XoX<.U K Z 2.| D ~ :.;.h.h.h.w.;.;.;.;.=.=.=.=.=.=.9.9.w.u.s.u.S S _ 2.U.U.2.(.) K L D S ^.D.m.d.i.d.Q.}.{.{.{.+X+X$X<.( I D T 1.U.6XfXfX6X<.b ; $ % @ % # O O O O O O O O % % O # # * : ,XH e g c z p 6 < , 1 , 1 , , , , , , : ; ; ; ; > < 5 3 3 4 8 a f 8 4 0 2 > ; : , 3 5 5 3 9 4.,X(.U.(.,XU.E / T U ~ <.bX4.: 1 > > ; : , < 4 4 4 8 8 p ).wX8XtXtXeX$X^.A.A.Z.P./.^.:./ ) _ / ' b.3X8XtXeXwXOX}._.Q.D.b.' v n k S E <./.(.: ; : 2 > ; , 6 3 Q ,.r g v p 5 : > > : < < g | L x Z I +.0.N.`.+X+X+X+X+X%X-X3X=X/.1.^ I 1.~ E :.Q.Q.Q.D.^.$X3.9 4 5 3 3 < Q 8X<.S s e 6 < 1 3 3 3 5 8 6 7 9 4 5 2 > * * ; b Q f N N l l l k g p 9 5 ; $ $ $ $ & 2 > > > $ # O o o . . o . . o . o o o o . . . o o o o O - * 2 0 q * $ % o o . . . . o o o o o O # # # $ # & : 3 4 u ` :.5.m.v.b.p , : * * & $ # O O O o o o o o . . . . . . . . . . . . . . . . . . . . . . . . . . . . . . . . . . . . . . . . . .   . o # * 0 9 H a ( $...| N H 6 3 1 : : * * ; ; 5 h p u 6 3 < < < < 4 8 8 7 H H g 6 ; & $ % % # $ $ O O # $ $ & * * * = = * & & & & & $ $ # O O O o O O # # $ $ O O O # # O O O O O O o o o o o + + + O # # $ & * ; * $ # o o . . . . . . . . . . . . . . . . . . . . . . o o o o o ",
"0 0 < , : : , , > & O . . o O O # # $ & ; , 3 5 6 4 : # o X X . o o o o O $ * : : , < < , , < 3 6 9 p f n M S G G F D D F F F F P P P P ^ ^ / ] { o.o.O.@.=.6.w.w.8.q.r.r.e.p.a.a.a.d.k.l.k.l.k.j.j.j.j.l.j.a.r.6.#.@.O.o.{ ] / ~ S S G F F E Q 9 < 4 9 9 e m 2.2.2.v 7 , ; & $ & * * * * * * * 2 > & O $ % $ $ $ $ $ $ % $ = * * & = $ $ # $ & q q 2 > ; ; 0 J : Q @XeXU..._ I _ _ _ | 1.oXtX8X0XeXeXwXwXwXwXwXwXwXwX:X&Xz.Q < ; & # # % = 2 3 h d A ,.b.(.A 8 E U.oX^.2.Y K x x m P } >.>.;.:.;.%.o.o.{ { { [ [ [ { o.O.%.*.@.u.:.A M G Z k s V l C K C D M ^.A.x.i.r.i.H._.{.+X+X+X&X-X$X1.I l x k Q ).fXfX(.Q 0 $ # @ @ % # O O O O O O O O + + O O # $ ; 4.,.u t g J 7 < , , , , , : : ; ; ; ; * & * * & * : 1 0 9 b N | M a u 4 1 , : : , 8 8 5 3 3 3 0 Q Q A W A S I T C ~ W nX>X: , > > * * : , 5 4 4 8 d W 6XtXtX0X6X(./.z.<.$.$.W W ! ' F _ ^ ^ $.z.wX8XtXeXwX+X].R.D.:.$.F f s n W <.$XqX1 : : 2 2 : : 4 J 7 3 3 8 r g p 9 3 : : , , 3 5 f m x Z / :.f.L.`.+XOXOX+X+X%X-X6X6XU.| K K C S $./.+XZ.b.D.D.U.6 9 5 5 5 3 b (.(.! n a 7 3 < < 3 4 4 4 4 6 5 6 < ; 2 ; * * ; J N a N N l l k f i u 9 < ; & $ & * > > = $ $ # O o o o . o . . o o o o o o o o o . o o o + + % = = > 2 & # O o . . . . . o o o o o O # # # # # $ ; 1 3 u E E 5.^.^.z.p < * * * & $ # O O o o o o o o . . . . . . . . . . . . . . . . . . . . . . . . . . . . . . . . . . . . . . . . .     . X + $ > q 6 p W $.>.| M p 6 0 1 : ; * * * * 1 q 9 9 4 < < < < 3 8 8 8 7 g J h , * $ $ % % # $ $ # # $ $ & * * * * * * * * * * * & $ $ # O O O O O O # $ $ $ # # # # # O O o O O O o o o o o + + + O # # # $ $ & $ # O o . . . . . . . . . . . . . . . . . . . . . . . . . . . o ",
"6 0 < , : ; > > = $ o . . . o o o O O # $ * , 3 5 5 ; # o . . . . o o O O $ & ; ; ; : : : ; : < 4 9 u d n m V S G G F F D L U L P P I I I ^ / ] { &.o.O.@.*.6.w.w.q.8.r.8.8.7.a.a.d.d.k.g.k.k.k.j.j.j.j.l.g.e.7.#.@.O.o.{ } | ~ S M v n G Z v 9 & $ $ & ; < a T ..>.( u 5 , * $ * * ; ; & $ ; ; > = # O % # # $ $ $ $ $ $ % % & & & = - = = = * * * & & & & & & * 2 (.(.U._ _ _ T | _ _ ( U.6XsX9XeXeXwXwX-X=X=X3XwXwX-XwX).! 9 ; $ # O $ 2 q b W <.z.(.(.qX0 p ,.1.oXb...K x Z ^ 1.b.>.&.>.;.O./ / / ) ] / / ~ ^ ^ ) / [ o.O.-.:.$.E a y y j j j l B K K D A U.D.c.i.r.i.B.Q.[.OXOX&X&XuX3X(.2.j y y d J 0XdX>Xw ; # O + + O # O O O O O O O O + + O O # $ * 0 3.e 8 J J 3 , , : : > ; * * * & & & & $ & & & & * : 1 0 Q 3.U.1.1.A 4 3 , 1 4 7 8 8 5 3 < 1 1 > : 1 0 p d n C U I W 0X<X* ; > = = = ; : < 4 p W ' <.tXsX=X/.b.1.<.Q b 0 9 4 3 3 6 p M L Y ] b.wXeXtXiX8X$XQ.m.$.| ( V s a v <.(.hXw > ; ; > 2 1 4 h h 8 4 3 5 7 g N b h < , , , ; : p T m S ' :.c.F.'..XOXOX%X-X3X6XeX6X2.L K K C E /.:X}.z.| ,.2.M r 8 0 0 , 4.9X(.U.Q d 8 3 5 5 5 7 i a u e 6 4 < : * * * * ; 3 h g g H N z k j a p 4 , : ; * * = = > = $ O o o o o o . o o o X X X X o o o o o o o o o o + + + % # $ $ $ O o o o . . . . . o o o o O O # $ $ $ $ * 1 < 4 d ,.U.(.(.Q 9 , ; * * & & $ # O o o o o . . o . . . . . . . . . . . . . . . . . . . . . . . . . . . . . . . . . . . . . . . . .   . X o O $ 2 5 b <.' X.$.M r h 0 1 , ; * & $ $ & 2 1 < , , , < 0 h e 7 4 5 3 0 0 ; & $ $ % # # # # O # $ & * * ; > * > > ; ; ; ; ; * & $ # O O O O O O # $ & & & & & $ # O O O O O O o o o o o O + O O O # # # O O O o o . . . . . . . . . . . . . . . . . . . . . . . . . . . . . ",
"7 4 < : ; ; ; = $ O o o . o o o o o o O # $ ; 1 5 1 ; # o . . . . o o O O # & * * * ; ; * * : 1 0 6 u d f n M S S D F F D L U U P P I I I ^ / ] { &.o.O.O.*.6.w.w.q.8.q.8.6.8.l.a.d.d.k.g.d.k.k.k.k.j.k.l.g.e.6.@.O.o.} } ) ( G n v p d a g p : # O O # & ; 8 j $.b.1.v 5 , * & * ; ; ; ; ; > q * & & $ $ % # % $ $ $ $ $ $ % % $ & $ $ & = = * * * & & $ # # % # & 4.,X(.F ( L ( _ _ _ ( <.$XtX8XeXwXwX-X&X+X+X&X3XwXwX3X(.<.b ; % # O $ & 5 J 1.b./.$X9X).: J E | oX1.2.K x T 1.$.' ' &.>.;.-.[ { { { { } ] ) _ _ ^ ^ ' ' ' $.<.| H f y y j j j l x K K C A 1./.A.g.i.i.B.Q.[.XX#X&X&X%X=Xb.| s t t a v 0XiX! q & # O O O O # O O O O O O O O + O O O O $ & : 4.7 t J h , , > > * * * * & & & $ $ $ $ $ $ $ $ $ & ; : 0 3.<.1.| 3.v 5 < < 4 7 t 8 0 5 1 > ; * $ & : < 4 i N Z D G ,XhX$ * > = - = * : 3 9 W <.b.^.tX1XU.$.W W q 0 : : , : : : ; < 6 i C ~ z.3X8XsXiX9X(.^.b.' | G n a v H ).iX).= * 2 ; > 2 3 r c g 7 4 3 < 4 r s g h 4 < , : > ; < ,.,.A ' 5.c.G.]..X&X#XoX&X$X$XeXU.P K I U F $.=XwXZ.<.A G T y t 4 5 5 3.iX6X(.<.N e 5 < 5 4 6 a H T ,.| H p 4 : * & * ; : 5 J J h g g s s j g b < , : : > 2 - & $ # O o . o o o o o o o o X @ @ X + O O O O o o o o o + o o + O O # O O o o o . . . . . . o o o O O # # $ $ $ * 1 4 5 8 e Q (.,Xb 4 : ; ; * * & $ # O o o o o . . o o . . . . . . . . . . . . . . . . . . . . . . . . . . . . . . . . . . . . . . . . . . X . o O & > >XiXU.$.1.M r h h 5 , ; * & # # $ > > : ; : , < 6 9 8 4 3 < , 2 > & $ $ # # # # # # # # & * * * ; > ; > > > : : : > * & $ # O O O O O O $ & & * > > = & # O O O O O O O O O O O O O O O # O O O o o o . . . . . . . . . . . . . . . . . . . . . . .         . . . . ",
"9 0 < : ; * & & # O o o o o o o o o o o O $ * : 2 2 = # . . . . . o o O # # $ & & & * * * * : 2 5 4 6 u f n m V C S D F L L L L P P P I I ^ / ] { &.o.O.O.*.6.w.w.8.r.e.O.o.;.h.g.d.d.k.d.d.k.k.k.k.j.l.V.g.y.9.O.o. .} _ ( G v p 9 6 9 7 h 0 & # O # # $ * 8 s } b.U.b 3 : * $ = > * * * * 4.hX0 > ; & & $ % $ $ $ $ $ $ $ % % % = * ; ; * * * * & & $ $ # # % % $ q (.U.E ~ P ( ( _ _ Y ' (.eXwXwX5X3X&X+X{..XOX=XwXwX6X6Xz.b * $ O O # $ : h | U./.(.iXq 5 3.| S b.( L j j C d A E $.+.+.-.u.%.%.%.%.&.&.&.{ } _ ^ I S S A n H H N g y y j j j l B K K C S | Q.S.V.d.f.B.Q.}.oX$X#X&X&Xb.E H r 8 t y ,.U.iXQ ; $ # O O O O O O O O O O O O O O O O O O # & ; Q J r e 5 : 2 ; * & & & $ $ $ $ $ $ $ $ $ $ $ $ $ $ & * * 1 b <.d ,.,.7 < 1 4 0 0 0 5 , : * & $ $ $ & ; : 5 u v m N ).kXq * = = = & * : < b ,.U.$X6X(.z.W b 3 : * & & & % % % $ & ; , 3 d A <.6X9XiXiX9X#X^.$.S G M d u a H (.,X& $ > > ; : , 3 z c g e 6 5 < 3 6 e r h h 3 , : , ; , < 4.W E v.k.H._.oX=X&X^./.^.&X5XW M C U G W 6XsX$Xz.$.v <.p 3 5 3 3 h <.3.<.<.,.W H v 4 < 4 8 a H Z | | U T n 9 , * * ; : 0 q q 9 9 u a d n N b 3 , , 2 2 > & # o o . . . . o o o o o o o X X X + O # # # O O o o o o o o o o o o o o o o o o o o . . . . o o o o O O # $ $ $ * 1 0 4 4 8 8 3.(.9 < : ; * * * & $ $ O o o o o o o o o . . . . . . . . . . . . . . . . . . . . . . . . . . . . . . . . . . . . . . . . . . . . o o o $ 2 pX,XW H f a g h 5 , ; * $ # # # & * * ; , < 3 3 5 5 < , : > * $ $ # # # # # # # # # $ & * * * * * ; > : , 1 1 1 1 ; & $ # O O O O O # $ & ; : 2 2 2 & # O # # O O O O O O O O O O # # # # O o o o . . . . . . . . . . . . .                               . . . . ",
"9 8 < : * & $ # O o o o o o o o o o o o O $ = > 2 2 = # . . . . . o o O # # $ & $ $ & * * * * > : , 3 8 i f n M V C S D F F L L P P P I I ^ ^ ] { &.&.o.O.*.6.w.w.q.e.i.E ~ } >.g.a.a.a.d.d.d.k.k.d.l.d.V.v.y.:.+.o.} ) ( G A b 9 0 1 0 5 < * # # # # # # * 8 H ' $.3.Q < : & & > > * * * : <XhX(.b 0 1 & $ $ $ $ $ $ $ $ $ % % % > 0 q : : ; * * & & $ $ # # O o # * J $.[ ~ ^ ( ( _ _ ^ ( /.$XXXXXXXXX.X.X.X.XXX%X2X5X5X$X/.A * $ # O # $ ; , e ,.z.).3.< 9 (.,.f M F k x x C S U.(.b.$.X.#.g.;.;.;.;.;.;.;.&. .} ^ D V N v d u e 8 8 t y s f s j x K K C V | ^.D.B.V.f.S.`.}.oX&X#X&XoX$.A d 7 8 8 r H H iXJ ; $ # # O O O O # # O O O O O O O O O O O # & ; b Q g 7 < ; > = $ $ $ $ $ $ $ $ $ $ $ $ $ $ # # # $ $ & & : 4 h 8 N 1.,.3 1 5 0 1 , : * * & & $ % % $ & * : 3 9 g n <.iX4.: * - & * ; : : 9 <.^.8X1X<.W 6 , ; = # # % # # # # # $ & * ; , 9 Q (.iXiXiXtX=X/.A f n d 9 4 8 Q ).2 * = * > ; , 3 8 H z y t 7 4 3 3 5 8 8 9 h 0 , : : 1 : , < 3.<.u.d.L.^.oX$X<.' :./.6X(.M S T A W (.tX8X(.<.W 1.b 1 2 , 1 3 p H v W A n H H p 5 1 5 5 7 a m B D P 2.| A p , ; ; ; : , < 3 4 6 u p N H p 6 q 2 > & # O o o . .     . o o o . . o o o o O # & & $ $ O + o o o o o o . . . . o o o . . . . . . . . . . o o o o O # # $ $ * 1 0 6 8 e 8 ,.J 5 : ; ; * * * = = % # O o o o o o o o . . . . . . . . . . . . . . . . . . . . . . . . . . . . . . . . . . . . . . . . . . . . o o . o o - Q p u e i h p 4 , ; * $ # # $ $ $ $ ; , < 3 < < , , ; * $ # # O O O # # # # # # # $ * ; ; * * * > : 1 3 3 5 1 > * $ # O O O o O O # $ & ; , 0 0 2 = # # # # O O O # $ $ # O O O O # # O O o o . . . . .       .                                         . .     ",
"h 0 < : * & # o o . . . o o o o o o o o o # = = > - $ O . . . . . o O O # $ $ & & & & & * * & * * ; , 4 i s k m M C S D D F F F U U U I I ^ ^ } { &.&.o.%.*.6.6.q.0.i.$.6 p | { 0.e.a.a.d.d.g.k.k.g.d.v.D.v.b.:.X.[ ] ( G A p 0 : & * 2 : ; # o # # $ $ # * 7 H ' $.<.9 , * & & * > & & : 4.0X0X(.W b 0 & $ $ & $ $ $ $ $ $ % % > 0 J W b < 1 ; * & & $ $ # # % O $ ; 6 | | | | U | ,.,.,.| ,.U.D.R.Y.}.}.}.oXoX#X$X-X:XwX^.(.b * $ # # # $ & * : p Q Q 9 3 W 1.,.i f k j j C U | | (./.$.} >.:.h.;.;.%.:.>.&. ...} ~ F G N v h 3 3 5 5 8 8 e u a s x K K Z C A D.Q.D.V.d.S.`.}.}.&X&X+X/.A p 7 5 5 8 t c g (.Q * $ $ # O O O O # O O O O O O O O O O O # # $ * < Q h 3 : ; - $ # # # $ $ $ $ $ $ $ $ $ $ $ # # # # $ $ & * 0 8 t n M d 3 1 , : ; * * & & $ $ # # # $ $ & * : 5 7 v Q 0X,X3 > & * ; ; : : 3 <.^.8XqX! 9 * & & $ # # # # # # # # # $ $ & * : < ).iXjX9XfX5Xz.u d 7 3 1 0 7 Q w * ; = * * : 3 8 g z z a e 9 6 4 3 5 5 3 5 5 1 < < , , : > ; 1 <.$.v.D./.U.A p E $.).dX2.C C S <.$XtXdX3XU.W E Q , : : : , , < 3 5 4 4 6 6 5 < : : 1 < 5 e z N Z G | | T z t 4 , ; ; ; ; : < , 5 p H N 9 0 2 = # O o o . . . . . . . . o . . . . . O # 2 q , 2 2 % + o o o o o . . . . . . . . . . . . . . . . . . . . . o o O O % $ & ; : 0 7 e i v 3.p , : ; ; ; ; * = = % O + o o o o o . o . . . . . X . . . . . . . . . . . . . . . . X X . . . . . . . . . . . . . . . . . . . . . . . . . o * : < 5 h h p 0 , * & $ # $ $ $ $ $ * : 1 , , < 2 > * $ # O o o O O O O O O # # $ & * > > * & * > 1 5 5 5 3 : * $ # O O o o o o O # $ & ; , 0 0 2 * # # $ # O O # - w 2 $ $ O O O O O O o o . . . .         . .     . .                                 . .     ",
"0 0 5 , * $ O o . . . . . . o o o o o o o O $ = = $ # o . . . . . o o O # $ $ & & & & & * & & & & * , 6 p s f k m V C D D F F F L U U P I ^ ) ) } { &.o.%.*.6.6.q.0.d.$.< < n | #.r.a.a.d.d.g.g.g.g.g.v.D.b.:.$.| | | W W b 0 > & # $ > 2 > & # # $ $ % # * 4 v ( <.Q 1 ; & & & ; * > * ! (.6X5X(.W J 0 & % $ $ $ $ $ $ $ $ % % & < b W W W b q > & & $ $ # # % # $ * , J ,.Q b p 9 5 < 4 5 9 v W z.Y.~.}.oXoXoX$X*X-X:X-X^.U.9 & # # # # $ $ & ; 1 4 9 3 4 E 1.1.t t j j x C U D M 2.U.} ^ ~ [ :.;.;.>.>...} ( E A v p 9 9 6 0 , : , , , 3 4 6 u g z Z K Z C S <.D.D.V.d.S.`.}.[.oX}.W.b.A e 8 5 4 t r g N ,.b * & # # O O O O O O O O O O O O O O O O # # $ & , J 9 3 : * $ # # # # # # $ $ $ $ $ $ $ $ $ # $ # # $ $ % * 5 8 t s k i 5 < : ; & = & $ $ $ # # # # # $ & & * : 3 u H (.3.9 : * ; ; : : 0 < A ).sXqXq , & % % % % # # # # # # # # % % $ $ & 1 ; ).iXfXfX$X! u p < : ; 1 h J ; > ; > * * : 3 r H z z a e 7 6 5 3 3 3 1 1 1 1 < < < , : > ; , < <.z.Q.b.d u v E (.iX(.T K D ,.oXeXtXeX&Xz.<.b 1 1 ; ; ; ; : : : , , 1 , , : : ; ; > : 3 7 g N H G | U x j y 7 5 2 ; ; ; ; : , 4 p b h 0 ; $ O o . . . . . . . . . . . o . . . . o $ w ,X4.1 2 2 % o o . . . . . . . . . . . . . . . . . . . . . . . . . . o o O # $ & ; : < h Q r U.3.0 : ; * ; ; ; * = = % # + o o o o o . o . . . . . X . . . . . . . . . . . . . . . . X X . . . . . . . . . . . . . . . . . . . . . . . X . . O $ ; , 0 0 0 0 1 : & $ # $ $ $ # $ $ ; : : , 3 1 ; & $ O o o o o o O o o O O O # $ = > > ; * ; 1 5 5 5 1 , * $ O O O o o o o o O # $ & ; : 2 2 > $ # $ $ # O O # 2 q 2 & $ O O O O O o . . . . . .         . .   . . .                                 . .     ",
"0 0 0 , * $ O . . . . . . . o o o o o . . o # $ $ # O o . . . . . o O O # $ $ $ $ $ $ & * & & & & * , 0 h a f k m V C C D D F F L L U P I ^ ^ ) } {  .&.%.*.6.6.e.q.x.! * & 4 | #.r.k.l.d.d.g.g.g.g.v.v.b.>.' E A b b b b q 2 $ o o O & 2 2 > * & & = = # & 3 i | <.b ; * $ & = & > ; b (.3X[.+X(.! J 1 $ + # $ $ & $ $ $ $ % % $ * 0 b ! ).iX>Xw > & $ $ # # + + % & * 2 : ; & # # $ $ & & ; 1 0 ! z.(.(.oX.X.XXX%X2XwX*X(.U.b & $ # # # # % # * * : 1 3 b W 1.<.8 8 y x x V L C x V _ I K L / &.&.{ | ( U Z N 9 0 , ; * * * = & * * * ; ; , < 7 g N Z x x B M W A.Q.x.n.H.`.}.oXoXK.c.$.A e 8 t t t t e h p 6 * & # # O O O O O O O O O O O O O O O O # # $ $ ; 0 0 < ; & $ $ # # # # # # # # # # # # # # # # # $ $ $ & ; , u g k j a 4 , ; * % % % % # # # # $ $ $ $ & & & ; : 3 p Q ,.g , > ; : : : : < 3 ).hX(.2 & $ % % % % % # # # # $ # % % & & O O $ & J iXfXeX(.A 9 4 ; & ; 1 q , ; ; > > * ; : 3 z H z z a e 7 5 3 , , , , , , 1 < 3 0 1 : ; ; 2 , 4 <.<.A r 8 W (.qX(.3.| Y ( (.$X$X5X-XoXz.Q 4 : * * * * ; ; ; > > * * * * * * * * > > < 7 a s z N H N j s y e 4 1 > ; ; : : < 5 0 0 > $ # O o o o . . . . . . . . . . o o . . + % q iX>X- O # O o . . . . . . . . . . . . . . . . . . . . . . . . . . . . o + + O $ & * : , Q Q g ,XQ < ; * * > > ; ; = = % O + o o o o o . . . . . . . . . . . . . . . . . . . . . . . . . . . . . . . . . . . . . . . . . . . . . . . . o o o . . o $ * : 1 2 2 2 2 * $ # $ $ $ # # $ & * : 5 h 1 ; & $ O o o o o o o o o o o o O # $ = * ; : 1 0 0 1 , * & $ # O O o o o o o o O O $ & * * > > * $ > * $ # # # $ 2 q 1 * $ O O o o o o . . . . .                                                               ",
": 0 0 < ; & O . . . . . . . o o o o o . o o O # # O O o . . . . . o O O # $ $ $ $ $ $ & * * & $ $ & 1 0 h g f k l B V C C D F F L L P P I ^ ^ ) ) } { &.%.*.6.7.q.e.c.! # & 1 W $.0.g.l.g.g.g.g.g.g.v.b.$.E A p 4 1 1 : ; & $ O . . + # > 2 1 : 1 ; * = & * < 7 ,.W 1 ; & $ & * * ; 0 (.$X[.T.Y./.<.q > $ + # $ $ & $ $ $ $ $ $ - $ : q ).9XAXvX>Xq > & $ $ # % + + % = $ O $ o .   . o o O # $ & ; ; q ).(.@X@X#X*X3X5X6X(.U.! & # # $ % # + # # * > , 4 W $.b.Q 8 e a x x C U T K x C K x B L ~ F S A v d u 6 > & # O O O % % $ $ $ $ $ $ & ; 0 u N Z x x x m A u.D.v.V.H.`.}.oX^.m.#.:.| a a t t t t 7 9 p 0 * $ # # O O O O O O O O O O O O O O O O # # $ $ * > 0 1 ; & $ $ # # # # # # # # # # # # # # # # # $ $ & & ; : h H Z l z 5 , * & % % % % # # # # $ $ $ $ & & & & > : 6 u H N , , : : : : 1 , < q iX>X2 $ # # % % % % % # # # # # % % $ $ O O - $ & iXsX@XU.v 9 : * & > 0 ; : ; ; ; * * ; : 7 H Z j z a e 4 3 < : > > > : : 1 1 0 q 0 , ; > > * : 4 <.| a M 3.6X9X1.| U Y G 6X6X(.(.oX(.).9 < > * * * * * * * ; * & $ & & & * * * > > , 0 8 7 r i p p p u 8 6 3 , : ; : : 1 0 2 * $ # O . . . . o . . . . o o o o o o o o . O % - J q $ o o + + o . . . . . . . . . . . . . . . . . . . . . . . . . . . . . o o O # $ * ; , <X7 J Q 0 : * = = = = = = = = % O o o o o o o o . . . . . . . . . . . . . . . . . . . . . . . . . . . . . . . . . . . . . . . . . . . X X . . . o o .     O # & * ; > , 2 2 * $ $ $ $ # O # $ & > q J q - $ # O o o o . . o o o o o o o O # $ & * , 5 0 0 1 * $ # # O O O o o o o + + + O $ & = & & & * * 2 ; $ $ # # $ 2 4.4.= % O o o o o . . .                                                                     ",
"& > 0 5 , * O o . . . . . . . . o o o o o o O O O O o o . . . . . o o O # # $ $ # $ $ & * * & & $ & ; 0 9 p g f k m Z C C G D F D L L I I ^ ^ ^ ) ) } { &.*.6.6.8.p.D.! & $ ; 9 <.:.v.g.9.w.h.h.w.g.b.$.A v 0 > & $ # # # O O o X o + O $ > 0 0 J 1 : ; ; ; : , h q ; * & & & = = : W /.^.Y.Y.^.^.).1 & $ # $ $ $ $ $ $ $ $ $ $ $ $ & & >X<X4.4.! ! 0 ; & = = = + + o o o o o o . . . . o o o O O # # # $ & w >XqX6X8X5X(.<.<.J & # # $ # # % % # $ ; , 3 1.b.b.7 8 7 a z x x x K Z x x x x x x j a u 9 3 , ; & O O O O O O O O O O O O # # # # * 1 W 2.( B m B V ~ /.v.V.H.`.}.^.A.9.X.>.1.Z y y t t 8 8 6 6 0 ; $ $ # O O O O O O O O O O O o O O O O # # $ $ & ; 0 1 * $ $ $ # # # # # # # # # # # # # # # # # $ $ & & * ; 0 g j j t 3 ; & $ $ $ % $ # $ # # $ $ $ $ $ $ $ $ & ; , 4 J 9 1 , , , : ; : : , 4 ).b > $ % % % % # + + # # # # # # O # # O O O # $ (.8X(.1.M 5 * * * * * * * ; = = = > : < g T x j k a p 4 < : ; * * * * ; ; ; ; 1 1 1 1 ; ; ; ; : b ,.n 1.(.eX(.<.P K K C T ,.<.U.U.(.b 3 , : ; * * * * * * & & & & $ $ $ & & & * ; : 1 1 < 3 3 3 5 0 0 1 1 , , 3 < < 5 0 2 & O o o o . X . . . . . o o o o o o . o o O O $ & * & $ # o o . . . . . . . . . . . . . . . . . . . . . . . . . . . . . . . . . . o O # $ & 2 <X4.J q 2 = & = % = = = = = % % O o o o o o o . . . . . . . . . . . . . . . . . . . . . . . . . . . . . . . . . . . . . . . . . . . . X X X . . . . . . . . O $ & * : 1 1 1 > ; & & - $ # % % # & 2 q - % O o o o o o o o o o o o o o o o o O # & > 0 0 0 > $ # O O O O O O o o o + + o O $ & = - & * > 2 2 ; & $ # # # = ; q - % O o o . . . . .                                                                     ",
"$ * 1 0 1 ; # o . . . . o . . . o o o o o o O O O O o o . . . . . o o O O # # # # $ & & * & & & & & * : 5 9 i d k l B Z C C D F D L L I I ^ ^ ^ ^ _ ) }  .%.=.6.8.p.b.! > & * 1 W <.b.;.O.%.;.;.h.u.$.E p 4 * # O o o o o o o o . . . o # * 2 9 3.Q 3 , ; ; : : 0 0 * & & & * * = * W /.Q.Y.Y.^.^.).> & $ % $ $ $ $ $ $ $ $ $ $ $ $ % $ = = > * 9 <.b ; * * = # o . o . . . . . . . . . . . o o o o o o o o + % q ! (.0X>Xb b 1 $ # # % # # % # % $ ; , p U.U.W 6 4 7 g z l x x Z Z x l x x x z r 7 4 3 ; & $ O o o o o o o o o o o o o O O + O $ > p 1.1.M C V C C } D.D.Q.`.}.Q.b.@.o.>.2.G a r h 7 4 4 4 5 1 ; $ $ # # O O O O O O O O o o o O O O O # # $ $ & ; 0 1 * & $ # # # # # # # # # # # # # # # # # # $ $ $ & & ; , J c H g < ; & $ $ $ $ $ $ $ # # $ $ $ $ $ $ $ $ $ & ; , q 5 , : , , ; ; 1 < 5 9 J 6 ; $ % % % $ # # # # $ $ $ # # O O O O + + # ; ).6X).( d 1 $ * * * * * * * = = = : < 8 N Z x l s i 9 < : ; * * * * * * * * ; 1 1 1 1 ; ; * * & ; q b <.$X=Xz.E V C T Z z a 7 b 3.3., , , : > * * * & & & & = = = = % $ $ % $ * ; ; : > > > > > > > = * * : : 5 0 0 1 * $ # o . . . . . . . . . o o o o o o o . o o O $ & ; ; = % O o o . . . . . . . . . . . . . . . . . . . . . . . . . . . . . . . . . . . . o O # # = 4.2 - % % % % % % % # # # # # + o o o o o o . . . . . . . . . . . . . . . . . . . . . . . . . . . . . . . . . . . . . . . . . . . . X . X . . . . . . . . o # $ = ; : , < < 1 ; * > = % % @ O # & & + o o o o o o o o o o o o . o o o o o o O $ > 2 0 2 * $ O O O O O O O o o o o + + O $ & = & * 4.q 2 2 ; $ # O O # # & $ # O o . . . . .                                                                         ",
"# % ; 1 5 : & O o o o o o o . . o o o o o O O O O o o o . . . . . o o O O O # # $ $ & & * & & & & & * * , 4 9 p g k m Z Z C G D L L L I I ^ I I I Y _ }  .%.=.8.8.y.b.b > & & ; 9 W :.+.) }  . .:.&.( v < ; $ O o o o o o o o o . . . o O $ : 5 ,.3.p 3 : : : : 1 : * * * * * * & ; <.^.Q.Y.Y.^.^.).1 & $ $ $ $ & & $ $ $ $ $ & & & % % = > ! ! $.z.).4.4.$ # + X . . . . . . . . . . . . . . . o o o o . o + o O # > ! 4.1 0 1 # # # # # # # # # $ * , b (.1.v 7 8 e s z l x x x x j j j j j s 4 3 , : & # O o o o o o o o o o o o o o O O + # & ; < 3.U.' V C Z l M b.D.D.Q.}.Q.b.X.$.| G v u 9 0 5 < < < 1 , * & # # # O O O O O O O O o o o O O O O # # $ $ & ; 0 1 ; & $ # # # # # # # # # # # # # # # # # # $ $ $ & & * : h J H h < * $ # $ $ $ $ $ $ $ $ $ $ $ $ $ $ $ $ $ & * : 2 , : : , , ; : 3 8 e 7 u 4 : & $ % & * & & & & $ $ $ # # O O O O O O $ : 3.(.<.A 9 ; $ * * * * * * * * = ; , 3 h H x z N d 7 5 , ; * & & & * * * * * ; : , : : ; ; * * & # * 1 b (.z.W v s m m y e 9 9 9 ,X5 4 , : : ; * * & & & & = = $ % $ $ $ $ $ $ & & * ; ; ; * * $ # O O # $ * : 5 0 > $ o o O O o o o . . . . . o o o o o o o . o o O # $ = ; > = % O o o . . . . . . . . . . . . . . . . . . . . . . . . . . . . . . . . . . . . . . o O . O O O O o o o o o o O O O O O o o o o . o o o . . . . . . . . . . . . . . . . . . . . . . . . . . . . . . . . . . . . . . . . . . . . . . . . . X . . . . o O # $ & ; , 4 6 9 3 : > * = % + + O # # o o o o o o o o o o o o o . . o o o o o O # * > > > & $ # O O O O O O O O O + + + # & * & $ Q 4.1 1 1 > $ o o o o O # # O O o . . . . . .                                                                       ",
"+ $ & > 1 , & # o o o o o o . . o o o o o O O O O o o o . . . . . . o o O O # # $ $ & & & & & $ $ & & * ; , 4 9 p g z N Z Z C D L L P I I ^ I I I I Y _  .%.;.6.8.y.b.b * * * : , v ( } I _ _ } &.' A 6 ; $ O o o o o o o o o o . X . . o # * < h J h 4 , : ; ; * ; & * * * * * & q ).^.^.Y.Y.^.A.! q & $ $ $ $ $ $ $ $ $ $ $ & & & % $ & ; b b.b./.).<X4.# O . . . . . . X . . . . . . . . . . . . . . . . . + . O O & 2 * > & # O # # # # O O # $ & : p (.( a e 8 e s z l l x x l j j s y y p < : * & # O o o o o o o o o o o o o o o o o O # & * ; ! ^.b.M Z Z l n ' b.b./.Q.^.1.' 2.E p 9 3 1 1 : : : : ; ; * & $ # # O O O O O O O O o o o O O O O # # $ $ & ; 0 1 ; & $ # # # # # # # # # # # # # # # # # # # $ $ $ & & ; 4 p J h 1 * $ # $ # # # # # $ $ $ $ $ $ $ $ $ $ $ $ & * > : : : , : ; : 8 h h 7 7 5 : * = = * * ; * * & & $ $ # # O # O O O O $ : Q U.W b 4 * = & * * * * * * * ; : < 5 N z j z N p 4 , : * & $ & & & & & & & * ; : : ; ; * * & - $ - & * 0 W v d a d e 4 4 4 5 4.3.< 3 : ; ; * & & & & $ % $ $ $ $ # # # # # $ $ $ $ & & & & $ O o o o O # * ; 2 * O o + o o o o o o . o o o o o o o o o o o o o + O # $ = > 2 % % O o o . . . . . . . . . . . . . . . . . . . . . . . . . . . . . . . . . . . . . . .   . + . . . . . . . . . . o o o o o o o . . . . o . . . . . . . . . . . . . . . . . . . . . . . . . . . . . . . . . . . . . . . . . . . . . . . . . X . . . . o o O # $ 2 1 9 p p 4 , : ; = % + O o # # O o o o o o o o o o o o o . . . o o o o O # $ * ; * & $ # # O O O O O O O O O O + % % $ & 0 Q b 1 > ; & O o . . o o O O O o . . .     .                                                                         ",
"O # $ * : > & # o o o o o o . . . . o o o O O O O o o o . . . . . . . o o O O % $ $ & & & & & $ $ $ & & * : 1 0 9 p d f m N Z C L L L I I I I L K K Y _  .&.;.w.q.u.$.p ; * * * : 4 N U K B B D | A u , $ O O O o o o o o o o o . X X . o # $ * < h 9 0 : : * * * * * * ; ; ; ; ; Q (.T.T.Y.R.}./.W 1 * & & & & $ $ $ $ $ $ $ $ & & $ $ = * 4 Q z.z.! * % o X . . . . . . . . . . . . . . . . . . . . . . . . . o o o o O O # # # O O O O O # # # # & * 4 Q k y a 8 t N j z k l l x j s r t 8 5 : * $ # O o o . o o o o o . . o o o o o o o O # $ & $ q ^./.( k x c m E | U.U.U.| S 2.U.| 9 < 2 * * * * * * ; * * $ $ # # O O O O O O O O o O O O O O # # # $ & & ; 1 1 > & $ $ # # # # # # # # # # # # # # # # $ $ $ $ $ & & : < 4 7 9 , = $ # # # # # # # $ $ $ $ $ $ $ $ $ $ $ $ $ & & * > : : : : , h h h 6 5 , ; * = = ; ; ; ; * * & & $ $ # # O O # # # $ , H ,.A p 5 * & & * * * * * * * > , 5 g H l k g h 0 1 : * * & $ $ & & & & $ & & ; ; ; ; * * & & $ $ # # $ & : 9 9 9 9 0 3 , < q ,X0 1 : ; ; * & & $ $ $ $ # # # # # # # O O O O # # # $ $ $ $ # O O o O $ - 2 q & O o O . . . . . . . . o o o o . . o o o o o o o O O # $ $ $ $ % # O o o . . . . . . . . . . . . . . . . . . . . . . . . . . . . . . . . . . . . . . . . . . . . . . . . . . . . . . . o o . . o o o o o o . . . . . . . . . . . . . . . . . . . . . . . . . . . . . . . . . . . . . . . . . . . . . . . . . . . . . . o o o O = 2 q b v h 3 , 2 * $ O o + O O o o o o o o . . o o o o o o . . . o o o O O # $ & * * & $ # O O O O O O O O O O # % % # ; J b p 5 ; # O o o o . o o O O O o . .   . .                                                                           ",
"O O $ & ; * $ + o o o o o o . . . . o o o O O O O o o o . . . . . . . . o o O # $ $ & & * & & $ $ $ $ $ * * > 1 0 p p d f n B C C L L I I I I L K K Y _  .&.;.u.q.v.$.u : * & & * , p H Z x l Z H b 5 ; # + O o o o o o o o o o . X X . o O # & : 1 q < : ; * * & & * ; ; ; ; : < ).oX^./.A.Z.Q.U.W 1 ; & & & & & $ $ $ $ $ % $ & & $ $ * * , b ! q & $ o X     . X . . . . . . . . . . . . . . . . . . . . . . o o . . . o O O O O O O O O O O O # $ * < N l x s t y N s s s j l l j s t 8 8 3 ; $ # O o o . . o o o o . . . . o o o o o o O O # $ # = >X/.1.S l x m G F 1.3.A n r S <.W 5 : > & & * * * * ; ; * & $ $ $ # O O O O O O O o O O O O O # # $ $ & * ; 1 1 > & $ $ # # # # # # # # # # # # # # # # $ $ $ $ $ & & > 1 5 8 0 > = $ # # # # # # # # # $ $ $ $ $ $ $ $ $ $ $ $ & = > > : : : , h h 6 , : * * & = = * * * * * & & $ $ $ # # O O # # # $ , N T N h 0 : & & & * * * * * * > , e N C x k g 0 1 : ; * & & $ $ $ $ $ $ $ $ & * ; ; * * & $ $ $ $ # O # $ & ; : : : : : : 1 3.J 1 : ; ; * & $ $ # # # # # O O O O + + O O O O o O O O O O O O O O O # - 2 2 = O o o o o o . X . . . . o o . . . . o o o o o o O O # # # $ $ $ $ # O o . . . . . . . . . . . . . . . . . . . . . . . . . . . . . . . . . . . . . X . X X           . . . . . . . . . . . . . . . o . . o o . . . . . . . . . . . . . . . . . . . . . . . . . . . . . . . . . . . . . . . . . . . . . . . . . . . . . . . . . o % > 0 9 h J h 0 0 ; $ O + + + O o o o o o o . . . . . . o o . . . o o o o O O # $ = * & $ # O O O O O O O O O O O % % $ 1 9 9 9 1 & o o o o o o o + O O O o . . .     .                                                                         ",
"O # $ $ $ $ O o o o o o o . . . . . o o o O O O O O o o . . . . . . . . . o O # # $ & & & & $ $ $ $ $ $ $ & * > 1 0 9 u d j l B C L L I I I I L K I Y _ } &.:.s.s.v.| u : * & $ $ * 3 N H c z N b 0 > & # O + O o o o o o o o o . . . . o O # # % & 2 : : ; * * & & * ; ; : ; : 9 U.^.A.$.$.$.u.b.A < ; * * * * & & & & & & & & $ $ $ $ & * * 2 2 = O o . . . . . . X . . . . . . . . . . . . . . . . . . . . . . . .   . . . . o O O O O O O O O O $ * , i x x j s j N y y y y l l j y t 8 8 1 & # O O o o o o o o o o . . o o o o o o o o O O O # O # ! (.(.A k B B B n | i g N s r A b , ; & & & * * ; ; : : ; & & $ # # O O O O O O O O O O O O O # # $ & * * ; : 2 > & $ $ $ $ # # # # # # # # # # # # # # $ $ $ $ $ & & ; 0 0 5 3 ; = $ $ # # # # # # # # $ # # $ $ $ $ $ $ $ # $ % = > > > : : , h 0 , ; * $ $ $ $ $ $ $ $ $ $ $ $ $ $ $ $ # # O # # # $ , h J h i h 1 & & & & & * * * * : < d Z C x l u 1 > * & & & $ $ $ $ $ $ $ $ $ $ * * * & & $ $ # % @ + + O # $ $ & & $ & & 1 , J , 1 : ; * & $ # # O O O O O O O o o o o o o o o o o o o o o o o o o # % 2 2 % o o o o o o o o o . . . . . . . . . . o o o o o o O # # # # # # # # O O o . . . . . . . . . . . . . . . . . . . . . . . . . . . . . . . . . . . . . . X X X X X   . . . . . . . . . . . . . . . . . . . . . . . . . . . . . . . . . . . . . . . . . . . . . . . . . . . . . . . . . . . . . . . . . . . . . . . . . . . . . . . . O $ ; , < h 7 5 0 ; $ # + + o o o o o o o o . . o o o . o o . . . o o o o o O O $ = > & $ # O O O O # O O O o o O O # - 2 3 1 , & O o o o o o + + + O O o o . . .     .                                                                         ",
"O O # # # O o o o o o . o . . . . . o o o o + O O O o o . . . .   . . . . o O # # $ & & & & $ $ $ $ $ $ $ $ $ & ; : < 4 u d k m V D L U I I U L Y Y Y _ _ ..1.v.g.D.W 7 : * & $ % & : 9 J g g b 0 : & $ # O + + o o o o o o o o . . . . o O O # O $ & > ; : ; & & & * ; ; ; ; , b ,.<.! W A W W <.b 1 : * * ; * * * * * * * & & & & $ $ $ * & $ $ O o o o . . . . . X . . . . . . . . . . . . . . . . . . .               .   . o O O O O O O O O O # & < e c x j z z N y y y y l l j s e 8 3 2 $ # O O o o o o o o o o o . o o o o o o o o o o o o o # q ).(.<.n m V Z t e 8 8 p N i p 6 : * $ $ & & * ; : , , : ; * & $ $ # # O O O O O O O O O O # # $ $ * ; ; ; : : ; & $ $ $ $ # # # # # # # # # # # # # # $ $ $ $ $ & & * 2 0 3 , * % $ # # # # # # # # # # # # # # # # # $ # # # % = = ; > > : , 0 : * * $ # # # # # # O O O O # # # $ $ $ $ # O O # # $ , 0 h h 7 p 5 ; & & & & & * * * , 4 v B B m v 4 : = & & & $ $ $ $ $ $ $ $ $ $ $ & * * & # # # # @ @ @ + O # # % # # # # * : , < 1 2 2 * & $ # O O O O O o o o o o o o o o o o o . . . . . . . . o + % % = $ O o o o o o o o o o . . . . . . . . . . o o o o o + O # # # # # # # # O O o . . . . . . . . . . . . . . . . . . . . . . . . . . . . . . . . . . . . . . . X X X X X . . . . . . . . . . . . . . . . . . . . . . . . . . . . . . . . . . . . . . . . . . . . . . . . . . . . . . . . . . . . . . . . . . . . . . . . . . . . . . . . o O # & : 0 5 0 0 ; $ # + X X o o o o o o o . . o o . o o o o . . . o o o o O O $ > > & $ # O O # % % # O O o o O O $ - 2 2 2 & O o o o + o + o + + O O o o . .       .                                                                         ",
"o O O O o . . . . . . . . . . . . . . o o o + + + O o o . . . . . . . . . o O # # $ $ $ $ $ $ $ $ $ $ $ # # # $ & * ; , 6 p g z N Z K U U R | _ Y Y Y _ _ Y ..1.v.v.Q < ; * & $ & & > 5 h J h 4 1 * $ # O O + o o o o o o o o . . . . . o O O # # $ $ * : : * * & & * * * ; ; , p J Q b 9 0 0 0 0 0 : ; ; ; ; ; > > > ; * * * * = & & & & - % # o o . . . . . . . . . . . . . . . . . . . . . . . . . . . . .       . . . . . . o O O O O O O O O # $ * < 8 y s s z z s r r r y k N N g 7 3 : * # # O O o o o o o o o . o o o o o o o o o o o o o o o O ; ! (.^.E M B j 8 5 < , , < 6 0 3 : * & & & * * : , < 3 1 , ; ; * & $ $ # # # # # # # # # # # # # & * : : : : ; * & $ $ # # # # $ $ $ $ # # # # # # # # $ $ $ $ $ & & > 2 1 , ; & $ # # # # # # # O # # # # # # # # # # # # # % % = * ; ; > : : ; & $ $ O O O # O O O O o o o O O # # $ $ = $ # # # $ & ; < 0 0 8 9 1 * & & & & * * * * 1 4 i N H N 9 1 * & & & & & & $ $ $ $ $ $ $ $ & * = = $ # O O O @ @ + + O O O + + + + # & * : : > > > & # # O O o o o o o o . . . o . . . . . . . . . . . . . . . o O # # O . . . o o o o o o . . . . . . . . . . . o o o + + O # # # # # # # # O O o o . . . . . . . . . . . . . . . . . . . . . . . . . . . . . . . . . . . X . . . . X X X . . . . . . . . . . . . . . . . . . . . . . . . . . . . . . . . . . . . . . . . . . . . . . . . . . . . . . . . . . . . . . . . . . . . . . . . . . . . . . .   . . o O # * > 1 2 2 * $ # + o o . . . o o o o o o o o o o o o o . . . o o o o O O $ > > & $ # # # $ % $ # O O o o o O $ = > ; & O o o o o o o o o o + O o o . . .     . . . .                                                                     ",
"o o o o . . . . . . . . . . . . . . . . . o o + + o o o . . . . . . . . . o o O # $ $ $ $ $ $ $ $ $ $ $ $ $ % # $ $ * : 3 7 i g g N Z Z Z T T | Y Y K R T U R | :.b.Q 3 ; * $ $ & & ; , h h 9 1 * & # O O O + o o o o o o o . . . . o o o O O # # # $ & ; ; * & = & & & * * * ; , 0 q 1 ; * * * * * * * * * * * * > > > * * * * * * * & % % % o . . . . . . . . . . . . . . . . . . . . . . . . . . . . . . .       . . . . . . o o O O O O O O # $ & ; , 5 7 r r i i u e e e e a N N d 6 , * $ # O O o o o o o o o o . o o o o o o o o o o o o . o o O * q <.(.U.M f 8 5 1 , , ; : 1 0 1 > * & $ & * > 2 0 0 0 0 1 1 , > > * & & & $ $ $ $ $ $ $ $ # # # & ; : 1 , , : ; & $ # # # # # $ # $ $ # # # # # # # # $ $ $ $ $ & & ; > : ; & $ # O O O O O O O O O O O O O O O O O O # # # % % = = * ; ; ; ; & $ $ O O O O O O O O O o o o o O O # # $ = = $ # # $ $ * : 1 0 5 < : * & $ $ & * * * * , < 5 u b 9 3 , * & & & & & & $ $ $ $ $ $ $ $ & = > = $ O O O + + + + + O + + + + + + # & * ; > > = & # O O o o o . . . . . . . . . . . . . . . . . . . . . . . . . o o o o . . . o o o o o . . . . . . . . . . . . o o o O + O # # # # # # # O O o o o . . . . . . . . . . . . . . . . . . . . . . . . . . . . . . . . . . . . . . . . . . . . . . . . . . . . . . . . . . . . . . . . . . . . . . . . . . . . . . . . . . . . . . . . . . . . . . . . . . . . . . . . . . . . . . . . . . . . . . . . . .   . . . o O $ = > > > & # O + o . . . . o o o o o o o o o o o o o o . . o o o O O # $ = = & $ # # $ $ $ # O O O o o o O $ & * & # o o . o o o o o o o o O o o . . .     . . . .                                                                     ",
". . . o . . . . . . . . . . . . . . . . o o o + + o o o . . . . . . . . . o o O # $ $ $ $ $ $ $ $ $ $ $ $ $ % # # $ & * , 3 9 p u p f j k Z T T | K x x x c c H E W b 1 * & $ $ & & * : 9 9 5 : & $ # O O O o o o o o o o o . . o o o o O O O # # # $ & w 2 & & % % $ $ $ $ $ $ $ & & # O O O O O # # $ $ $ $ & & & = = * * * ; > > * % # + o . . . . . . . . . . . . . . . . . . . . . . . . . . . . . . . . . . . . . . . . . o o o o O O # $ $ & * ; : , 3 3 3 5 4 5 4 6 8 7 r g g u 5 ; $ # O o o o o o o o o o . . . o o o o o o o o o o . . o o # $ 2 b U.(.A g 6 , 1 1 5 : , , , > * & % $ $ & * 2 2 0 0 2 1 1 2 2 2 : > * * * & & & & & & $ # # # & * , 3 5 < , ; & $ # # # # # # # # # # # # # # # # # # # $ $ $ $ & * ; * & & $ # O O O O O O O O O O O O o o O O O O O O # # # % = * * ; * * $ $ O O o o o o O O o O o o o o O O O O # & = * $ # $ $ $ & ; ; ; ; * & $ $ $ $ * ; * * : , , < 0 < , : * & & & & & $ $ $ $ $ $ $ $ $ & > 2 & # O o O O o + + O O O O O + # % $ $ & * * = $ # # O o o o . . . . . . . . . . . . . . . . . . . . . . . . . . . . . . . . . . o o o . . . . . . . . . . . . . o o o O O O # # # # # O # O O o o o . . . . . . . . . . . . . . . . . . . . . . . . . . . . . . . . . . . . . . . . . . . . . . . . . . . . . . . . . . . . . . . . . . . . . . . . . . . . . . . . . . . . . . . . . . . . . . . . . . . . . . . . . . . . . . . . . . . . . . . . X .     . . . o # % = = = $ # O o . . . . . . . o o o o o o o o o o . . . . o o o O O # $ $ & $ $ $ $ $ $ # # O O o o o o O $ & $ # O o o o o o o o o o o o o o . . . .     . .                                                                         ",
". . . . . . . . . . . . . . . . . . . . o o o o o o o o . . . . . . . . . o o O O # # # $ $ $ $ $ $ $ $ $ $ % # # $ $ & ; , 3 0 6 7 u u i k H H | Z j y r t t h 9 b 0 : * & $ $ $ & & ; 5 4 1 * $ # # O O O o o o o o o o o . . o o o o O O O O # # $ = 2 > $ % % % % % # # # # O o O O o . . . o o o O O O # # $ $ & & & & * ; > > = $ O . . . . . . . . . . . . . . . . . . . . . . . . . . . . . . . . . . . . . . . . . . . o o o o O O # $ * * ; ; ; ; ; ; ; : : , < 3 5 4 8 p h 9 1 * # O o o o o o o o o o o . . . . o o o o o o o . . . . o + O $ > 9 A H v u 0 , , 5 0 , , : ; * & % % $ $ & & & * ; ; : : : 1 2 2 1 , : : > : ; ; ; * * & $ # # $ * , 0 0 5 1 : * $ # # # # # # # # # # # # # # # # $ # # $ $ $ $ & & & & $ $ # O O o o o O o o o o o o o o o o o o o o O O O # $ = * * * * & $ O O o o o o o o o o o o o o o O O O o O $ > ; $ $ # $ $ $ $ & & * & $ $ $ $ $ * ; * * ; : : : : ; ; ; * & & & & $ $ $ $ $ $ $ $ $ & * > 2 & # O o o o o o O O + O O # % # $ $ $ $ & & $ # # + o o o . . . . . . . . . . . . . . . . . . . . . . . . . . . . . . . . . . . o o . . . . . . . . . . . . . . o o O O O O O O O O O O O O o o o o . . . . . . . . . . . . . . . . . . . . . . . . . . . . . . . . . . . . . . . . . . . . . . . . . . . . . . . . . . . . . . . . . . . . . . . . . . . . . . . . . . . . . . . . . . . . . . . . . . . . . . . . . . . . . . . . . . . . . . . . X . .   . . . . o O % % % # O O o o . . . . . o o O O O O O o o o o . . . . o o o o O # % $ $ $ $ $ & & $ $ # O O o o o o O $ $ $ # o o o o o o o o o o o o o o . . .         .                                                                         ",
". . . . . . . . . . . . . . . . . . . . o o o o o o o o . . . . . . . . o o o O O O # # # # # # % % $ # $ $ $ $ $ $ $ $ & * : 1 < 3 3 4 8 7 u d N k a t 8 8 8 5 3 1 : ; & $ $ $ $ $ = * , : ; & $ # # O O O o o . . . . o o o . . o o o o O O O # # # % & & % % + + + O o o o o o o o o o . . . . . . o o o o O O # # # $ $ & & = = # O . . . . . . . . . . . . . . . . . . . . . . . . . . . . . . . . . . . . . . . . . . . . . . . o O # $ & * > * * * & & & $ & * * ; : , , 3 0 0 0 2 & O o o o o o o o o o o o . . . . . . . . . . o . . . . o O # $ ; 4 u g i 6 3 < 3 4 9 0 , : * $ # # O O # $ # # $ $ $ & & * > > 2 1 1 , < 5 5 3 < , : ; * $ $ # $ & ; 1 0 0 5 , ; & $ # # # $ # # # # # # # # $ $ $ $ $ $ $ $ $ $ $ $ $ $ # # O o o o o o o o o o o o o o o o o o o o o o O O # $ & = * = = $ O o O o o o o . o o o o o o O O O O o o o # ; ; & # # # # $ $ $ $ $ $ $ $ $ $ $ * ; * * ; ; ; ; ; ; ; * * & = & & $ $ $ $ $ $ $ $ $ $ = > 2 $ # o o o o o O O O O O O # $ % $ $ $ $ % # O O O o o o . . . . . . . . . . . . . . . . . . . . . . . . . . . . . . . . . . . . . . . . . . . . . . . . . . . . o o o O + + O O O O O O O O o o o o . . . . . . . . . . . . . . . . . . . . . . . . . . . . . . . . . . . . . . . . . . . . . . . . . . . . . . . . . . . . . . . . . . . . . . . . . . . . . . . . X X X X . . . . . . . . . . . . . . . . . . . . . . . . . . . . . . . . . . . . X . . . . . . . o o O O O O O o o o o o . o o O # # $ $ # # O o o . . . . . . o o O O # % $ $ $ & & & & & $ $ # O O o o o O # $ # O O o o . o o o o o o o o o o . .                                                                                     ",
". . . . . . . . . . . . . . . . . . . . . o o o o o o o . . . . . . . . o o o o O O O O O O # # # # % % $ $ $ $ $ $ $ $ $ $ & ; : , 3 3 3 5 6 7 a a r 8 5 3 1 1 1 : ; * & $ $ $ $ $ % = ; ; & $ $ # # O O o o o . . . . o o . . . o o o o O O O # # # # $ $ + + o . o . . . . . . . . . . . . . . . . . . . o o o O O O # # $ $ % # O o . . . X . . . . . . . . . . . . . . . . . . . . . . . . . . . . . . . . . . . . . .     . . . o O # $ = * * & & $ % % # # $ $ $ & = * ; > , 1 2 > $ O o o o o o o o o o o o . . . . . . . . . . . . . . . . o O $ ; 4 u r e 8 5 8 t p h 6 < ; & # O o o o o o O O O O O # # $ & * > , 1 5 0 0 0 0 3 < , : ; * & $ # $ & : 0 0 0 3 , * & $ $ $ $ # # # # $ # # # $ $ $ $ $ $ $ $ $ $ $ $ # # # O O o o o . o o o o . . . . o o . . . . o o o o o O # $ = = = $ # O o o O O o o o o o o o O O O O O O o o o # * ; & $ # # # $ $ $ $ $ $ # % $ $ $ * > * * ; * * & & * * * * & & & & $ $ $ $ $ $ $ $ $ $ = = = % O o o o o o o O O O O # $ & & $ $ # # # + o o o o o . . . . . . . . . . . . . . . . . . . . . . . . . . . . . . . . . . . . . . . . . . . . . . . . . . . . o o o o O + + O o O O O O O O o o o o . . . . . . . . . . . . . . . . . . . . . . . . . . . . . . . . . . . . . . . . . . . . . . .   . . . . . . . . . . . . . . . . . . . . . . . . . . . . . . . . X X X X . . . . . . . . . . . . . . . . . . . . . . . . . . . . . . . . . . . . X . . . . . . . o o o o o o o o o o o o O O # $ & & * & $ # O o o . . . . . . o o o O # % % % % & & * * * * & $ # O o o o O # % # O o o . . o o o o o o o o o . . .                                                                                     ",
". . . . . . . . . . . . . . . . . . . . . o o o o o o o . . . . . . . . o o o o o O O O O O # # # # % % % $ $ $ $ $ $ $ $ $ $ & * : , 1 < < 3 4 t r e 4 3 < 1 , 2 > = * & $ $ $ $ $ % $ & & $ # # # # O O o o o . . o . o o . . . . o o o o O O O O # # # O o . . . . . . . . . X X . . . . . . . . . . . . o o o o + + + O O O O O + o . . X X . . . . . . . . . . . . . . . . . . . . . . . . . . . . . . . . . . . . . .     . . . . O # $ = = = $ $ $ $ # # # % $ $ % $ $ $ & * * ; * $ O o o o o . o o o . . . . . . . . . . . . . . . . . X X . O $ : 4 u r r t t y H G H 9 < * # o o o o o o o o o o o O O O # % & * * > > 2 2 2 2 1 1 , , : * & $ $ # $ * 2 0 0 0 1 > * & $ $ $ $ $ $ $ $ $ # # # # $ $ $ $ $ $ $ $ # # # # O O o o . . . . . . . . . . . . . . . . . . . o o o O # $ = > = $ O o o O O O # # # # O O O O O O O O O O O O O & = = $ $ % $ $ $ $ $ $ $ $ $ $ $ & > > > ; ; * & & & & * * * * * & & & & $ $ $ $ $ $ $ $ = = $ $ O o o o o O O O O O O # $ = * & $ # O + + o . . . . . . . . . . . . . . . . . . . . . . . . . . . . . . . . . . . . . . . . . . . . . . . . . . . . . . . . o o o o O + + O o o o o o o o o o o o . . . . . . . . . . . . . . . . . . . . . . . . . . . . . . . . . . . . . . . . . . . . . . . . . . . . . . . . . . . . . . . . . . . . . . . . . . . . . . . . . . . . . . . . . . . . . . . . . . . . . . . . . . . . . . . . . . . . . . . . . . . . . . o o o o o o o o o o o O # # $ $ & * ; > > ; & $ O o o . . . . . . o o o O # % % % % % = = * * ; ; * $ # O O o O # # O O o o . . o o o o o o o . . . . .                                                                                     ",
". . . . . . . . . . . . . . . . . . . . . . o o o o o . . . . . . . . . o o o o o o O O O O O O # # # % % $ $ $ $ $ $ $ # # # $ & * ; : , < < 3 8 t 9 9 3 1 1 2 2 - = = $ $ $ $ # # # $ $ $ # O O # # O O o o o . . . . o . . . . . o o o o O O O O O O O o . . .         . . . X X . . . . . . . . . . . . o o o o o o o o o o o o o o . . X X . . . . . . . . . . . . . . . . . . . . . . . . . . . . . . . . . . . . . .     . . . o O # $ % % $ # # # # # # # # # O O O + O # # $ & & $ O o o . . o o o . . . . . . . . . . . . . . . . . . X X X o & : 6 r s j c z x T | W p < * O . . . . . . . . . . o o + + + % $ $ $ & & & * ; ; > > , , , > * = % $ # $ ; 1 5 0 3 , ; * & $ $ $ $ $ $ $ $ # # # # $ $ $ $ $ $ $ $ # # # # O O o . . . . . . . . . . . . . . . . . . . . . o o o # $ = > = $ O o o O # # $ $ $ $ # # # # # # # # # O O O O $ & & $ $ # # $ $ $ $ $ $ $ $ $ $ $ * > > ; ; * & $ $ & * * * * * * * & & $ $ $ $ $ $ $ $ % $ $ O o o o o o o O O O O O # $ = * & $ # O o o . . . . . . . . . . . . . . . . . . . . . . . . . . . . . . . . . . . . . . . . . . . . . . . . . . . . . . . . . o o o o o o o o o o o o o o o o o o . . . . . . . . . . . . . . . . . . . . . . . . . . . . . . . . . . . . . . . . . . . . . . . .   . . . . . . . . . . . . . . . . . . . . . . . . . . . . . . . . . . . . . . . . . . . . . . . . . . . . . . . . . . . . . . . . . . . . . . . . . . . . o o o o o o o o . . o o O O # $ & * ; : , , 1 > * $ # o . . . . . . . o o o O O O # % % % % & = ; ; > > * $ # O o O O # O o o o . . . o o o o o . . . . . .                                                                                     ",
". . . . . . . . . . . . . . . . . . . . . . . o o o o . . . . . . . . . o o o o o o o o O O O O O # # $ $ $ $ $ $ $ $ $ $ # # $ $ & & * : , 1 5 8 t h 3 3 1 2 2 > - = % $ $ $ $ # # # # # # # # # # # O O o o o . . . . . . . . . . . o o o o O O O o o o o . .           . . . . . . . . . . . . . . . . . . . o o o o o o o o o o o . . . . . . . . . . . . . . . . . . . . . . . . . . . . . . . . . . . . . . . . . . . .   . . . o o O # # # # # # O O O O O O O O O o o O O O # # $ # O o o . . . . . . . . . . . . . . . . . . . . . . . + X X o $ : 8 z T C l l C | | E b 0 * O .   . . . X . . . . . X X o o O O O # # # # $ $ $ & * ; : , > > = = % # # & : 1 3 3 , : ; & $ $ $ $ $ $ $ $ $ $ $ $ $ $ $ $ $ $ $ $ $ # # O O o o . . . . . . . . . . . . . . . . . . . . . . o o O # & > = $ # O O # $ $ & & $ $ $ $ $ # # # # # # # # O # $ & & $ # # $ $ $ $ $ $ $ $ $ $ $ $ & ; 2 ; * * & $ $ & * * ; * ; > * & & $ $ $ $ $ $ $ $ $ # O O o o o o o o o o O O O # & = = & $ O O o . . . . . . . . . . . . . . . . . . . . . . . . . . . . . . . . . . . . . . . . . . . . . . . . . . . . . . . . . o o o o o o o o o o o o o o o o o o o . . . . . . . . . . . . . . . . . . . . . . . . . . . . . . . . . . . . . . . . . . . . . . . . . . .     . . . . . . . . . . . . . . . . . . . . . . . . . . . . . . . . . . . . . . . . . . . . . . . . . . . . . . . . . . . . . . . . . . . . . . . . . . . o o o . . . . . o O # $ & > > > : , 1 2 > & $ O o . . . . . . . . . . o o + O + # # % $ & * > > > * $ # # O O O O O o o . . . . . . . . . . . . . . .                                                                                     ",
". . . . . . . . . . . . . . . . . . . . . . . . o o . . . . . . . . . o o o o o o o o o o O O O O O # $ $ $ $ $ $ $ $ $ $ # # $ $ $ $ & * ; > , 7 J 9 3 < 1 , > = % % $ $ $ $ # # # # # # # # # # # # O O o o o . . . . . . . . . . . . o o o o o o o o o . . .         . . . . . . . . . . . . . . . . . . . . . . . . o o o . . . . . . . . . . . . . . . . . . . . . . . . . . . . . . . . . . . . . . . . . . . . . . . . . . . . o o O # # # # # # O O O O O O O O o o o o O O O O # O O o . . . . . . . . . . . . . . . . . . . . . . . . + + X . # : e H T Y U B L | | H p 3 * O .   . . X X X X X X X X . X o o o o o O O O O O # # # $ * > 2 > = = = $ # $ * ; , 3 3 , : * & $ $ $ $ $ $ $ $ $ $ $ $ $ $ $ $ $ $ $ $ # # O O o . . . . . . . . . . . . . . . . . . . . . . . o o O # $ = = & $ # $ % & = = & & $ $ $ $ # # # # # # # # # # $ & & $ # # # # $ $ $ $ $ $ $ $ $ $ & = 2 ; * * & $ & & * * ; ; 2 q * * & $ $ $ $ $ $ $ $ $ # O O o o o o o o o o o O O # = - = & # O o o . . . . . . . . . . . . . . . . . . . . . . . . . . . . . . . . . . . . . . . . . . . . . . . . . . . . . . . . . o o o o o o o o o o o o o o o o o o . . . . . . . . . . . . . . . . . . . . . . . . . . . . . . . . . . . . . . . . . . . . . . . . . . . . . . . . . . . . . . . . . . . . . . . . . . . . . . . . . . . . . . . . . . . . . . . . . . . . . . . . . . . . . . . . . . . . . . . . . . . . . . . . . . . . . . . . . o O # & & = ; > > : > > ; $ # O o . . . . . . . . . . . o o + + O O O # # & * > ; = & # # O O O O O o o . . . . . . . . . . . . . . .                                                                                     ",
". . . . . . . . . . . . . . . . . . . . . . . . . . . . . . . . . . . o o o o o o o o o o o O O O O # # $ $ % % $ $ $ $ $ $ $ # # # # $ $ & & ; 4 Q J 4 , : ; * & % $ $ $ $ # # # # # # # # # # # # # O O o o o o o o . . . . . . . . . o o o o o o o o . . . . . . . . . . . . . . . . . . . . X . . . . . . . . . . . o o . . . . . . . . . . . . . . . . . . . . . . . . . . . . . . . . . . . . . . . . . . . . . . . . . . . . . o o O # # # # # # O O O O O O O O O o O O O O O O O O o o . . . . . . . . . . . . . . . . . . . . . . . . + + X o # ; 7 H T | | T C G A N 9 : & O .   . . X X X X X X . X X o o o o o o o o o o O O O O # $ * > > > > = & $ $ $ * : < 5 3 , ; & $ $ $ $ $ $ $ $ $ $ $ $ $ $ $ $ $ $ $ # # O O o o o . . . . . . . . . . . . . . . . . . . . . . . o O # $ = & & & & & * * = * & & $ $ # # # # # # # # # # # # $ & & $ $ # # # $ $ $ $ $ $ $ $ $ $ $ * 2 > ; * & $ & & * * * > 2 0 * * & $ $ $ $ $ $ $ $ $ # O O o o o o o o o o o + O % - - = $ # O o o . . . . . . . . . . . . . . . . . . . . . . . . . . . . . . . . . . . . . . . . . . . . . . . . . . . . . . . . . o o o o . o o o o o o o o o . . o o o . . . . . . . . . . . . . . . . . . . . . . . . . . . . . . .             . . . .     . . . . . . . . . . . . . . . . . . . . . . . . . . . . . . . . . . . . . . . . . . . . . . . . . . . . . . . . . . . . . . . . . . . . . . . . . . . . . . . . . . . . . . . . . . . . o o O # $ & = & & & & & $ $ # O o o . . . . . . . . . . . . o o o o o o o O O $ $ & = $ # # O O O O o o o . . . . . . . . . . . . . . .                                                                                     ",
". . . . . . . . . . . . . . . . . . . . . . . . . . . . . . . . . . . o o o o o o o o o o o O O O O O # # $ $ % $ $ $ $ $ $ $ # O O O # $ $ & * , 9 J 9 : * * & $ # # # # # # # # # # # # # # # # # # O O o o o o o o . . . . . . . . . o o o o o o o . . . . . . . . . . . . . . . . . . . . . X . . . . . . . . . o o o o . . . . . . . . . . . . . . . . . . . . . . . . . . . . . . . . . . . . . . . . . . . . . . . . . . . . . o o o O # # # # # O O O O O O O O O O O O O O O O O o o o . . . . . . . . . . . . . . . . . . . . . . . . o + X o $ ; 6 g N k z H v d i 9 3 ; $ O .   . X X X X X X X . . . . o o o o o o o o o o o o O O # # & = > > ; ; * & & & ; 1 5 0 0 , * & & & & & & & & & & & & & & & $ $ $ $ # # O O o o o . . . . . . . . . . . . . . . . . . . . . . . o O # $ % = = = = = * = & & $ $ # # O O O O O O O O O O # # $ & = $ $ # # # $ $ $ $ $ $ $ $ # # $ & 2 > ; * & $ & & * ; * > > * * & & $ $ $ $ $ $ $ $ % # O O O o o o o o o o o + + % % = % $ O O o o . . . . . . . . . . . . . . . . . . . . . . . . . . . . . . . . . . . . . . . . . . . . . . . . . . . . . . . . . o o o o . . o o o o o o o o . . o o . . . . . . . . . . . . . . . . . . . . . . . . . . . . . . . .             . . . . . . . . . . . . . . . . . . . . . . . . . . . . . . . . . . . . . . . . . . . . . . . . . . . . . . . . . . . . . . . . . . . . . . . . . . . . . . . . . . . . . . . . . . . . . . . . . . o o O # # # $ # # # # O O O O o o . . . . . . . . . . . . . . . o o . . . o o O # $ $ # # O O O O O o o o . . . . . . . . . . . . . . .                                                                                     ",
". . . . . . . . . . . . . . . . . . . . . . . . . . . . . . . . . . o o o o o o o o o o o o o O O O + O # # $ % $ $ $ $ $ $ $ $ O O O # # $ $ $ * : < < * $ O O O O O O O O O O O O O O # # # # # # # O O o o o o o . . . . . . . . . . o o o o . . . . . . . . . . . . . . . . . . . . . . . . X X . . . . . . . . . . o o . . . . . . . . X X . . . . . . . . . . . . . . . . . . . . . . . . . . . . . . . . . . . . . . . . . . . o o o O O # # % % # # # # O O O O O O O O O O O O o o o o . . . . . . . . . . . . . . . . . . . . . . . . . . . o # * 0 9 7 7 7 7 9 6 4 < ; & # o . . . . X X X X X . . . . . . . . o o o o o o o o o o o o O # = > > : : : ; * * ; , 5 0 9 9 5 : * * 2 , , , : : : : : ; ; ; * * & $ $ # O o o o o o . . . . . . . . . . . . . . . . . . . . . . o O # $ $ = = = = = = $ $ # # # O O o o o o o o o o o O O # $ % & & $ # # $ $ $ $ $ $ $ $ $ $ $ $ & > > ; * & $ & & * * ; : 2 & & & & $ $ $ $ $ $ $ % % # O O O o o o o o o o o o O O # % % O O o o o . . . . . . . . . . . . . . . . . . . . . . . . . . . . . . . . . . . . . . . . . . . . . . . . . . . . . . . . . . . . . o o o o o o o o o o o . . . . . . . . . . . . . . . . . . . . . . . . . . . . . . . . . . .             . . . .   . . . .   . . . . . . . . . . . . . . . . . . . . . . . . . . . . . . . . . . . . . . . . . . . . . . . . . . . . . . . . . . . . . . . . . . . . . . . . . . o o . . . . . . . . . . o o o o o O O O O O o o o o . . . . . . . . . . . . . . . . . . . . . . . . . . o o O O O O O O O O O O o o o o o o . . . . . . . . . . . .                                                                                     ",
". . . . . . . . . . . . . . . . . . . . . . . . . . . . . . . . . . o o o o o o o o o o o o o o O O O O # # $ % $ $ $ $ $ $ $ $ O O O O # # $ & > 1 0 0 > = $ O O O + O O O O O O O O O # # # # # # # O O o o o o o . . . . . . . . . . o o o . . . . . . . . . . . . . . . . . . . . . . . . . X X . . . . . . . . . o o o o . . . . . . . . X . . . . . . . . . . . . . . . . . . . . . . . . . . . . . . . . . . . . . . . . . . . o o o O O # # % # # O # O O O O O O O O O O O O O o o o o o . . . . . . . . . . . . . . . . . . . . . . . . . o o # & 1 5 3 3 < 1 , : ; * $ O o . . . . . . . . . . . . . X . . . . . . . . . . . o o o o o o O % = > , , , , : : : : , 1 q J Q J : : 3 4 6 0 5 5 5 5 3 3 < , , : > * & $ # O o o o o o . . . . . . . . . . . . . . . . . . . . . o O O # $ $ = = = % % # O O O o o o o . . . . . . . o o O O # $ & & $ # # $ $ $ $ $ $ $ $ $ $ $ $ & > > > * $ $ & * ; ; 2 q ; * & & & & $ $ $ $ $ $ # # # O O O O O o o o o o o o O O O O O o o o o o . . . . . . . . . . . . . . . . . . . . . . . . . . . . . . . . . . . . . . . . . . . . . . . . . . . . . . . . . . . . . o o o o o o o o o o o . . . . . . . . . . . . . . . . . . . . . . . . . . . . . . . . . . .             . . . . . . . . .   . . . .     . . . . . . . . . . . . . . . . . . . . . . . . . . . . . . . . . . . . . . . . . . . . . . . . . . . . . . . . . . . . . . . . . . . . o o . . . . . . . . . o o o o o o o O O o o o . . . . . . . . . . . . . . .     . . . . . . . . . . . . . o o O O O O O O O O O o o o o o o . . . . . . . . . . . .                                                                                     ",
". . . . . . . . . . . . . . . . . . . . . . . . . . . . . . . . . . o o o o o o o o o o o o O O O O O O # # $ $ $ $ $ $ $ $ $ # O O O # # $ $ & 1 1 0 0 0 2 * $ # # O O # O O O O O O O # # # # # # # O o o o o . . . . . . . . . . . . . . . . . . . . . . . . . . . . . . . . . . . . . . . . X . . . . X . . . o o o o o o o o o . . . . . . . . . . . . . . . . . . . . . . . . . . . . . . . . . . . . . . . . . . . . . . . . . o o o O O O O O O O O O O O O O O O O o o O O O O o o o o o . . . . . . . . . . . . . . . . . . . . . . . . o o + # $ > : : ; ; * * & $ # O o . . . . X . . . . . . . . . . . . . . . . . . . . . . . . . o o O $ & ; : 1 1 3 3 < , > * * 2 ; 1 4.3.Q h e u r i r e e 7 8 4 5 3 3 1 > > & # O o o o o o o . . . . . . . . . . . . . . . . . . . o o O O # # # % $ # # O o o o o o o . . . . . . . . . . o o O O $ % = % $ $ $ $ $ $ $ # # # # $ $ $ & ; : > * $ $ & ; > 2 q : 2 * & & & & & $ $ $ $ $ # # # O O O O O o o o o o o o o o O O o o o o o o . . . . . . . . . . . . . . . . . . . . . . . . . . . . . . . . . . . . . . . . . . . . . . . . . . . . . . . . . . . . . o o o o o o o o o o o . . . . . . . . . . . . . . . . . . . . . . . . . . . . . . . . . . .         .       . . . . . . . . . . . . . . . . . . . . . . . . . . . . . . . . . . . . . . . . . . . . . . . . . . . . . . . . . . . . . . . . . . . . . . . . . . . . . . . . . . o o . . . . . . o o o o o o o o o o o o o . . . . . . .       . . . . . .           . . . . . . . . . . . . o o O O O O O O O O O o o o o o . . . . . . . . . . . .                                                                                     ",
". . . . . . . . . . . . . . . . . . . . . . . . . . . . . . . . . . o o o o o o o o o o o O O O O O O O # # # $ $ $ $ $ $ $ # # # # # # # $ & & : 1 5 0 h 0 > & - % # O # # O o O O O O O # # # # # O O o o o o . . . . . . . . . . . . . . . . . . . . . . . . . . . . . . . . . . . . . . . . . . . . X . . . o o o o o o o o o o o o o o o o . . . . . . . . . . . . . . . . . . . . . . . . . . . . . . . . . . . . . . . . . . o o o o O O O O O O O O O O O O O O O O O + + O o o o o o o o . . . . . . . . . . . . . . . . . . . . . . . . o o O # $ * * & & $ $ # # O o . X . . . . X X . . . . . . . . . . . . . . . . . . . . . . . . o o O # $ & ; 2 1 0 5 5 1 > & & & $ > * : b Q 3.H N g g a i r e 7 6 4 5 0 2 2 > $ O o o o o . o . . . . . . . . . . . . . . . . . . . o o O O O O O O O O o o . . . . . . . . . . . . . . . . . o o O # % = % % $ # $ $ $ $ # # # # $ $ $ & ; : > * $ $ & > 2 2 1 : * > & & & & & & $ $ $ $ # # # O O O O O o o o o o o o o o o o o . . . . . . . . . . . . . . . . . . . . . . . . . . . . . . . . . . . . . . . . . . . . . . . . . . . . . . . . . . . . . . . . . . o o o o o o o o o o . . . . . . . . . . . . . . . . . . . . . . . . . . . . . . . . . . . .         . . . . . . . . . . . . . . . . . . . . . . . . . . . . . . . . . . . . . . . . . . . . . . . . . . . . . . . . . . . . . . . . . . . . . . . . . . . . . . . . . . . . . . o o . . . . . o o o o o o o o o o o o . . . . . . . . .         . . . . .             . . . . . . . . . . . . o + O # O O O O O O O o o o o . . . . . . . . . . .                                                                                       ",
". . . . . . . . . . . . . . . . . . . . . . . . . . . . . . . . . . . o o o o o o o o o O o O O O O O O O # # # # # $ $ $ $ # # # # # # $ $ $ & ; : , 1 q J 4.4.2 - # # # % % O O O O O O O O O O O O o o o o . . . . . . . . . . . . . . . . . . . . . . . . . . . . . . . . . . . . . . . . . . . . . o o o o O O O O O O O O O O + + + O o o o o . . . . . . . . . . . . . . . . . . . . . . . . . . . . . . . . . . . . . . . . o o o o o O O O O O O O # # # O O O O O o o o o O o o o o o o o . . . . . . . . . . . . . . . . . . . . . . o o o + # # $ $ $ # # O O o o . . . . . . . . . . . . . . . . . . . . . . . . . . . . . . . . . o o O # # $ & ; : 1 5 0 1 ; $ $ # # $ $ ; < 6 h H N g g p p u 7 6 4 5 5 1 2 2 > $ O o o o o . . . . o o o o . . . . . . . . . . . . . o o o O O O O O o o o . . . . . . . . . . . . . . . . . . . o O # # $ % $ $ $ $ $ # # # $ # # $ $ $ & ; 1 1 ; & & ; 2 0 2 : : * > * * * * & & $ $ $ $ $ # # O O O O O o o o o o o o o o o o . . . . . . . . . . . . . . . . . . . . . . . . . . . . . . . . . . . . . . . . . . . . . . . . . . . . . . . . . . . . . . . . . . . . . o . . . . . o o o . . . . . . . . . . . . . . . . . . . . . . . . . . . . . . . . . . . . . . . . . . . . . . . . . . . . . . . . . . . . . . . . . . . . . . . . . . . . . . . . . . . . . . . . . . . . . . . . . . . . . . . . . . . . . . . . . . . . . . . . . . . . . o o . . . . o o o o o o o O O o o o . . . . . . . . . . .         . . . .           . .         . . . . . . . o o + O O O O O O + o o o o o o o . . . . . . . .                                                                                         ",
". . . . . . . . . . . . . . . . . . . . . . . . . . . . . . . . o o . o o o o o o o o o o O O O O O O O O # # # # # # # # # # # # # # # # # $ $ $ & & * * * * 2 - % # $ % - - $ # # # O O O o o o o o o o o o . . . . . . . . . . . . . . . . . . . . . . . . . . . . . . . . . . . . . . . . . . o o o + O O O # # O # # # # # # % % % % % # O O o o o o . . . . . . . . . . . . . . . . . . . . . . . . . . . . . . o . . . . . . o o o o o O O O O O O O O # O O o o O O o o o o o o o o o o o o . . . . . . . . . . . . . . . . . . . . . . o o O O # # # # # # O O o o . . . . . . . . . . . . . . . . . . . . . . . . . . . . . . . . . . o o o O # # $ & * ; : 1 2 > $ # # # # # & ; < 6 9 9 p p 9 0 4 3 , : : : > ; * = $ O o o o o o . . . o o o o . . . . . . . . . . . . . o o o o o o o o o . . . . . . . . . . . . . . . . . . . . . . o O O # $ $ $ $ $ $ # # # # # # $ $ $ & : 0 0 , * ; 2 2 , , : : > > ; > ; * * & & $ $ $ $ # # O O O O O o o o o o o o o o o . . . . . . . . . . . . . . . . . . . . . . . . . . . . . . . . . . . . . . . . . . . . . . . . . . . . . . . . . . . . . . . . . o o . . . . . . . . . o o . . . . . . . . . . . . . . . . . . . . . . . . . . . . . . . . . . . . . . . . . . . . . . . . . . . . . . . . . . . . . . . . . . . . . . . . . . . . . . . . . . . . . . . . . . . . . . . . . . . . . . . . . . . . . . . . . . . . . . . . . . . . . . . o . . . . o o o o o o o o O o o o . . . . . . . . . . . .         . .             . .         . .     . . . . o o O O O O O O + o o o o o o o . . . . . . . .                                                                                         ",
". . . . . . . . . . . . . . . . . . . . . . . . . . . . . . . . . o . . o o o o o o o o o o o o O O O O O O # # # # # # # # # # # # # O O O O + + + + + + o . . . . O O o o - 2 2 $ # # O o o o o o o o o o . . . . . . . . . . . . . . . . . . . . . . . . . . . . . . . . . . . . . . . . o o o + O # # # $ $ $ $ $ $ $ $ $ $ $ $ & & & $ $ $ # # O O O o o . . . . . . . . . . . . . . . . . . . . . . . . . . . . . . . . . . . o o o o o o o o O O O O O O O O O O O O O o o o O o o o o o o o . . . . . . . . . . . . . . . . . . . . . . o o + O # # # # # # O o o o . . . . . . . . . . . . . . . . . . . . . . . . . . . . . . . . . . o o o O O # $ $ & & * > 1 : $ # O O O O O $ * ; ; : : : > ; * & $ $ $ $ # # # # O O o o o o o o . . . o . . . . . . . . . . . . . . . o o o O o o o . . . . . . . . . . . . . . . . . . . . . . . . o O O O # $ # $ $ $ # # # # # # # $ $ & : 0 0 5 : 2 2 : ; : : : : > > > > ; * * & & $ $ # # # O O O O o o o o o o o o o o . . . . . . . . . . . . . . . . . . . . . . . . . . . . . . . . . . . . . . . . . . . . . . . . . . . . . . . . . . . . . . . . . . . . . . . . . o . . . . . . . . . . . . . . . . . . . . . . . . . . . . . . . . . . . . . . . . . . . . . . . . . . . . . . . . . . . . . . . . . . . . . . . . . . . . . . . . . . . . . . . . . . . . . . . . . . . . . . . . . . . . . . . . . . . . . . . . . . . . . . . . . . . . . . . . . o o o o o o o o O o o o . . . . . . . . . .   .         . .                         . . . . . . . . . . o o O O O + o o o o o o o o . . . . . . . .                                                                                         ",
". . . . . . . . . . . . . . . . . . . . . . . . . . . . . . . . . . . . o o o o o o o o o o o O O O O O O O O O O O O O O O O O O O O O O o o o o o X X X + X     . O O o o # - > = $ # O o o . . . o o o o . . . . . . . . . . . . . . . . . . . . . . . . . . . . . . . . . . . . . . o o O O # # # $ $ % $ $ $ $ & & = = & & & & & & & & & & $ $ # # O O o o . . . . . . . . . . . . . . . . . . . . . . . . . . . . . . . . . . . o o o o o o o o o o o o o O O O O O O o o o O O o o o o o o o . . . . . . . . . . . . . . . . . . . . . . o o + # # # # # # O O o o o . . . . . . . . . . . . . . . . . . . . . . . . . . . . . . . . . . . o o o O O # # $ $ $ = 2 2 $ O o o o o o o # $ & = & & $ # # O O # O O O O O O O o o o o o o o . . o o . . . . . . . . . . . . . . . o o o o o o o . . . . . . . . . . . . . . . . . . . . . . . . o o o o O # % $ $ # # # # # # # # # $ $ : 0 h 6 1 2 1 : : : ; ; : : : > > > ; * & & & $ # # O O O o o o o o o o o o o o . . . . . . . . . . . . . . . . . . . . . . . . . . . . . . . . . . . . . . . . . . . . . . . . . . . . . . . . . . . . . . . . . . . . . . . . . . o . . . . . . . . . . . . . . . . . . . . . . . . . . . . . . . . . . . . . . . . . . . . . . . . . . . . . . . . . . . . . . . . . . . . . . . . . . . . . . . . . . . . . . . . . . . . . . . . . . . . . . . . . . . . . . . . . . . . . . . . . . . . . . . . . . . . . . . . o o o o o o o o o O o o o . . . . . . . . . .             . .                         . . . .   . . . . . . . o o o o o o o o o o o . o . . . . . . .                                                                                         ",
". . . . . . . . . . . . . . . . . . . . . . . . . . . . . . . . . . o o o o o o o o o o o o O o o o o O O O O O O O O O O O O O o o o o o o o o o o . . . X . . . . o o o o o # - = $ # O o o . . . o . . . . . . . . . . . . . . . . . . . . . . . . . . . . . . . . . . . . . . . . o o O # # $ $ & & & & & & = = & & & & & & & & & & & & & $ $ $ # # O O o o . . . . . . . . . . . . . . . . . . . . . . . . . . . . . . . . . . . . . . . . . . . . o o o o o o O O O O o O O O o o o o o o o o . . . . . . . . . . . . . . . . . . . . . . o o O # # # # # # O O o o . . . . . . . . . . . . . . . . . . . . . . . . . . . . . . . . . . . . . o o O O O # # # O $ > 2 & O o o o o . o O # $ $ $ # # O O O O O O O O O O O O O o o o o o o o o . . . o o o . . . . . . . . . . . o o o o o o o . . . . . . . . . . . . . . . . . . . . . . . . o o o o O O # % # # # # # # # # # # % $ : 0 h 9 1 2 > > ; * * * ; ; > > > > > * = & $ $ # O O o o o o o o o o o o o o o . . . . . . . . . . . . . . . . . . . . . . . . . . . . . . . . . . . . . . . . . . . . . . . . . . . . . . . . . . . . . . . . . . . . . . . . . . o o . . . . . . . . . . . . . . . . . . . . . . . . . . . . . . . . . . . . . . . . . . . . . . . . . . . . . . . . . . . . . . . . . . . . . . . . . . . . . . . . . . . . . . . . . . . . . . . . . . . . . . . . . . . . . . . . . . . . . . . . . . . . . . . . . . . . o o o o o o o o o o O O o o o o . . . . . . . . . .                 . .             . . . . . .       .   . . . . . . . . . . . . . . . . . o . . . . . . . .                                                                                       ",
". . . . . . . . . . . . . . . . . . . . . . . . . . . . . . . . . . o o o o o o o o o o O o o o o o o o O O O O O o O o o o o o o o o o o o . . . o o o . . o o o o o o o o o O # # # # O O o . . . o . . . . . . . . . . . . . . . . . . . . . . . . . . . . . . . . . . . . . . . o o o O # $ & = & & & $ $ $ $ $ % $ $ $ $ $ $ $ $ $ $ $ $ $ $ # # O + o o . . . . . . . . . . . . . . . . .   .                   .     . . . . . . . . . . . . . . . . . . o o O O O o O - % O O o o o o o o o . . . . . . . . . . . . . . . . . . . . . o o o O # # # # # O O o o . . . . . . . . . . . . . . . . . . . . . . . . . . . . . . . . . . . . . . . o o O O O # O O # * > = # O o o . . . o O # # # # O O O O O O O O O O O O O O o o o o o o o o o . . . o o . . . . . . . . . . . o o o o o o o . . . . . . . . . . . . . . . . . . . . . . . . o o o o o o O # # # # # # # # # # # # $ * 1 Q q 2 > * * & & & & * * * * * * * * = = & $ # O O o o o o o o o o o o o o o . . . . . . . . . . . . . . . . . . . . . . . . . . . . . . . . . . . . . . . . . . . . . . . . . . . . . . . . . . . . . . . . . . . . . . . . . . o o . . . . . . . . . . . . . . . . . . . . . . . . . . . . . . . . . . . . . . . . . . . . . . . . . . . . . . . . . . . . . . . . . . . . . . . . . . . . . . . . . . . . . . . . . . . . . . . . . . . . . . . . . . . . . . . . . . . . . . . . . . . . . . . . . . . . o o o o o o o o o o O O o o o o . . . . . . . . . .                 . .           . . .     . .             . . . . . . . . . . . . . . . . o . . . . . . . . .                                                                                     ",
". . . . . . . . . . . . . . . . . . . . . . . . . . . . . . . . o o o o o o o o o o o o O O o O o o o o O o o o o o o o o o o o o o o o o o . . . . o o o o o o o o o o o o o O O # # # O O o o o o o o . . . . . . . . . . . . . . . . . . . . . . . . . . . . . . . . . . . . . o o O O # $ & & & & $ $ # # # # # # # # # # # # # # # # # # # O O O o o . . . . . . . . . . . . . . . .                                       . . . . . . . . . . . . . . . . . o o + + o O - - O O o o o o . . . . . . . . . . . . . . . . . . . . . . . . o o o O # % # # # O O o o . . . . . . . . . . . . . . . . . . . . . . . . . . . . . . . . . . . . . . . o o o O O O O O O $ = - $ O O o . . o O O # O O + o o o o + + + O O + + O O O O o o o o o o o o o o o o o . . . . . . . . . . . o o o o o o o . . . . . . . . . . . . . . . . . . . . . . . . . o o o o o O O # # # # # # # # % # # $ & ; 1 2 > $ $ $ $ $ $ $ $ $ $ $ $ & & * = = & $ # O o o o o o o o o . . . . . . . . . . . . . . . . . . . . . . . . . . . . . . . . . . . . . . . . . . . . . . . . . . . . . . . . . . . . . . . . . . . . . . . . . . . o . . . . o o o . . . . . . . . . . . . . . . . . . . . . . . . . . . . . . . . . . . . . . . . . . . . . . . . . . . . . . . . . . . . . . . . . . . . . . . . . . . . . . . . . . . . . . . . . . . . . . . . . . . . . . . . . . . . . . . . . . . . . . . . . . . . . . . . . . . . . o o o o o o o o o o o o o o . . . . . . . . . . .   . .         .         . . .                         . . . . . . . . . . . . . . . . . . . . . . . . . .                                                                                     ",
". . . . . . . . . . . . . . . . . . . . . . . . . . . . . . . o o o o o o o o o o o o o o O O o O o o o o o o o o o o o o o o o o o o o o o . . . . o o o o o o o o o o o o O O O O O O O O O o o o o o . . . . . . . . . . . . . . . . . . . . . . . . . . . . . . . . . . . . . o o O # # $ & & & $ $ # O O o o o o O O O O O O O O O O O O o o o . . . . . . . . . . . . . . . . . .                                               .   . . .     . . . . . . . . o o o o O - % - O o o . . . . . . . . . . . . . . . . . . . . . . . . . . o o o + O # O O O o o o . . . . . . . . . . . . . . . . . . . . . . . . . . . . . . . . . . . . . . . . o o o O O O O O # # $ - $ O O o o o o O O O o o o o . . . o o O O O O O O O O O O O o o o o o o o o o o o . . . . . . . . . . o o o o o o o o . . . . . . . . . . . . . . . . . . . . . . . . . . o o o o o O O # # # # # # # # # # # $ & * * $ $ $ $ $ # $ $ $ # # # $ $ & & & & & $ O o o o o o o o o o . . . . . . . . . . . . . . . . . . . . . . . . . . . . . . . . . . . . . . . . . . . . . . . . . . . . . . . . . . . . . . . . . . . . . . . . . . . . o o o . . . . . . . . . . . . . . . . . . . . . . . . . . . . . . . . . . . . . . . . . . . . . . . . . . . . . . . . . . . . . . . . . . . . . . . . . . . . . . . . . . . . . . . . . . . . . . . . . . . . . . . . . . . . . . . . . . . . . . . . . . . . . . . . . . . . . . . . . o o o o o o o o o o o o o . . . . . . . . . . . . . . .       . . .         . .                           . . . . . . . . . . . . . . . . . . . . . . . . .                                                                                     ",
". . . . . . . . . . . . . . . . . . . . . . . . . . . . . . . . o o o o o o o o o o o o o o o o o o o o o o o o o o o o o o o o . o o o o o o . o o o o o o o o o o o o O O O O O O O O O O O o o o o o . . . . . . . . . . . . . . . . . . . . . . . . . . . . . . . . . . . . o o O O # $ $ & = & $ # O o o o . . o o o o o o o o o o o o o . . . . . .       . . . . . . . . . . . . . . .                                                   . .         . . . . o o o o O # 4.- O o o . . . . . . . . . . . . . . . . . . . . . . . . . o . o o O O O O O o o o o . . . . . . . . . . . . . . . . . . . . . . . . . . . . . . . . . . . . . . . . o o o O O O O O # # $ - $ O O o o o o o o o o . . . . . . . o o o o O O O # # # # # # # O O O O O o o o o o o o o o . . . . o o o o o o . . . . . . . . . . . . . . . . . . . . . . . . . . . . . . . . o o o O O # # # # # # # # O # # # # # # # # # # # # # # # # # $ $ & * * * & # O o o . o o . . . . . . . . . . . . . . . . . . . . . . . . . . . . . . . . . . . . . . . . . . . . . . . . . . . . . . . . . . . . . . . . . . . . . . . . . . . . . . . . . . . . . . . . . . . . . . . . . . . . . . . . . . . . . . .   . . . . . . . . . . . . . . . . . . . . . . . . . . . . . . . . . . . . . . .         . . .         . . . . . . . . . . . . . . . . . . . . . . . . . . . . . . . . . . . . . . . . . . . . . . . . . . . . . . . . o o o o o o o o o o o o o o o . . . . . . . . . . . . .         . .     . .                                   . . .     . . . . . . . . . . . . . . . . . . . .                                                                                     ",
". . . . . . . . . . . . . . . . . . . . . . . . . . . . . . . . o o o o o o o o o o o o o o o o o o o o o o o o o o o o o o o o o o o o o o o . o o o o o o o o o o o o O O O O O O O O O o o o o o o . . . . . . . . . . . . . . . . . . . . . . . . . . . . . . . . . . . . . o o O # $ $ $ & & $ # O O o o . . . . . . . . o o o o o o o o . . . . .           . . .         .                                                                       . . . . . . . . . o O O # % + o . . . . . . . . . . . . . . . . . . . . . . . . . . o o o o o o O o o o o o . . . . . . . . . . . . . . . . . . . . . . . . . . . . . . . . . . . . . . . . . o o o O O O O O # # $ - $ O O o o o o o o . . . . . . . . . . o o O O # # # # $ $ $ $ $ $ $ # # # # O O O O O o o o o o o o o o o o o o . . o . . . . . . . . . . . . . . . . . . . . . . . . . . . . . . o o o O O # # # # # # # O O # # # # O O O O O O O # # # $ $ & & * > > > & $ O o o o o o o . . . . . . . . . . . . . . . . . . . . . . . . . . . . . . . . . . . . . . . . . . . . . . . . . . . . . . . . . . . . . . . . . . . . . . . . . . . . . . . . o . . . . . . . . . . . . . . . . . . . . . . . . . . . . . . . . . . . . . . . . . . . . . . . . . . . . . . . . . . . . . . . . . . . . . .         . .         . . . . . . . . . . . . . . . . . . . . . . . . . . . . . . . . . . . . . . . . . . . . . . . . . . . . . . . . o o o o o o o o o o o o o o . . . . . . . . . . . . . .         . .       .                                 . . . .       . . . . . . . . . . . . . . . . . .                                                                                       ",
". . . . . . . . . . . . . . . . . . . . . . . . . . . . . . . . . o o o o o o o o o o o o o o o o o o o o o o o O O O O O O o o o o O O O O o . . . o o o o o o o o o o o o O O O o O o o o o o o . o . . . . . . . . . . . . . . . . . . . . . . . . . . . . . .   . . . . . . o o O # # $ $ $ $ # O O o o o . . . . . . . . . . . . o o . . . . . . .                                                                                             .   . . . . . . . . . . o o o . . o o . . o o o . . . . . . . . . . . . . . . . . . . . o o o o o o o o o o o o . . . . . . . . . . . . . . . . . . . . . . . . . . . . . . . . . . . . . . . . o o o O O O O O O # # $ - % O o o o o o o . . . . . . . . . . . o o O # # $ $ & & & = = = = = & & & % $ $ # # # # # O O O O o o o o o o o o o o . . . . . . . . . . . . . . . . . . . . . . . . . . . . . . o o o O O O # # # # # O O O O O O O O O O O O O O O $ $ & * ; ; > > : > * $ # O o o o o o o . . . o o . . . . . . . . . . . . . . . . . . . . . . . . . . . . . . . . . . . . . . . . . . . . . . . . . . . . . . . . . . . . . . . . . . . . . . . . . . . . . . . . . . . . . . . . . . . . . . . . . . . . . . . . . . . . . . . . . . . . . . . . . . . . . . . . . . . . . . .                                             .     . . . . . . . . . . . . . . . . . . . . . . . . . . . . . . . . . . . . . . . . . . . . . . . o o o o o o o o o o o o o o o o o o . . . . . . . . . . . . . .           .     . .                             . . . . . .     . . . . . . . . . . X X . . . . . .                                                                                         ",
". . . . . . . . . . . . . . . . . . . . . . . . . . . . . . . . . . . o o o o o o o o o o o o o o o o o o O O O O O O # O O O O O O # # # O o o . . . o o o o o o o o o o o o o o o o o o o o o o . . . . . . . . . . . . . . . . . . . . . . . . . . . . . . . . . . . . . . . o o O O # $ $ $ # O O o o o . . . . . . . . . . . . . . . . . . . . . .                                                                                             . . . . . . . . . . . . . . . . . . . . . o o o o . . . . . . . . . . . . . . . . . . o o o o o o o + + O O o o o . . . . . . . . . . . . . . . . . . . . . . . . . . . . . . . . . . . . . . . o o o o O O O O O # # # - % O o o o o . . . . . . . . . . . . o o O O # $ $ & * * * * = = = = = = = = = = % % $ $ # # # O O O O o o o o o o o o . . . . . . . . . . . . . . . . . . . . . . . . . . . . . . . o o o O O O O O O O O O O O O O O O O O O O O O O $ & ; > > > > > > > * & # O o o o o o o o o o o o o o o o . . . . . . . . . . . . . . . . . . . . . . . . . . . . . . . . . . . . . . . . . . . . . . . . . . . . . . . . . . . . . . . . . . . . . . . . . . . . . . . . . . . . . . . . . . . . . . . . . . . . . . . . . . . . . . . . . . . . . . . . . . . . . . . . . . .                                             .       . . . . . . . . . . . . . . . . . . . . . . . . . . . . . . . . . . . . . . . . . . . . . . o + o o o o o o o o o o o o o o o o . . . . . . . . . . . . . .                 . .                             . . . . . . . . . . . . . . . . . . . X . . . . . .                                                                                         ",
"o o o . o o o o . . . . . . . . . . . . . . . . . . . . . . . . . . . . . . . o o o o o o o o o o o o O O # $ $ $ $ $ $ # # # # O # $ $ $ # O o o . . . . . . . . o o o o . . . o o o o . . . . . . . . . . . . . . . . . . . . . . . . . . . . . . . . . . . . . . . . . . o o o o O O # O O O O o o o . . . . . . . . . . . . . . . . . . . . .                                                         . . .                                           . . . . . . . . . . o . . . . . . . . . . . . . . . . . . . . . . . . . . . o + + . . . o O # % % # O o o o . . . . . . . . . . . . . . . . . . . . . . . . . . . . . . . . . . . . . . . . o o o O O O O O O # # % # O o o . . . . . . . . . . . . . o o O O # $ $ & & & * * * * = = = = = = = = = = % % $ $ # # O O O O o o o o o o o o . . . . . . . . . . . . . . . . . . . . . . . . . . . . . . . . . o O O O O O O O O O O O O O O O O O O o o O $ & > : : > ; ; ; ; * * $ # O o o o o o o o o o o o o o o o o o o . . . . . . . . . . . . . . . . . . . . . . . . . . . . . . . . . . . . . . . . . . . . . . . . . . . . . . . . . . . . . . . . . . . . . . . . . . . . . . . . . . . . . . . . . . . . . . . . . . . . . . . . . . . . . . . . . . . . . . . . . . . . . . . .                                                                   . . . . . . . . . . . . . . . . . . . . . . . . . . . . . . . . . . . . . o o o + + o o o o o o o o o o o o o o o . . . . . . . . . . . . . .                                                 . .         . . . . . . . . . . . . X . . . . . . . . .                                                                                     ",
"o o o . o o o o . . . . . . . . . . . . . . . . . . . . . . . . . . . . . . . o o o o o o o o o O O O # $ $ & * * * * $ $ $ # # $ $ $ & & & # O o . . . . . . . . . . . . . . . . . . . . . . . . . . . . . . . . . . . . . . . . . . . . . . . . . . . . . . . . . . . . . o o o o O O O O o o o o o . . . . . . . . . . . . . . . . . . .                                                               . . .                                             . . . . . . . . . o o o o o o o . . . . . . . . . . . . . . . . . . . . . . . . . . . o % % % % # O o o o . . . . . . . . . . . . . . . . . . . . . . . . . . . . . . . . . . . . . . . . o o o O O O O O O # # % O O o o . . . . . . . . . . . o o o o O # # $ $ & & & & & & = & & = & = % % $ $ $ $ $ $ # # # O O O O O O o o o o o o . . . . . . . . . . . . . . . . . . . . . . . . . . . . . . . . . . o o O O O o o o O O O O o o O O O O O o O $ > > , , : * & & & & & $ # + o o o o o o o o o o o o o o o o o o o . . . . . . . . . . . . . . . . . . . . . . . . . . . . . . . . . . . . . . . . . . . . . . . . . . . . . . . . . . . . . . . . . . . . . . . . . . . . . . . . . . . . . . . . . . . . . . . . . . . . . . . . . . . . . . . . . . . . . . . . . . . . . . .                                                                     . . . . . . . . . . . . . . . . . . . . . . . . . . . . . . . . . . . . o o + + + + o o o o o o o o o o o o o o . . . . . . . . . . . . . .                                                 . . .           . . . . . . . . . . X . . . . . . . . .                                                                                     ",
". . o o o o o o . . . . . . . . . . . . . . . . . . . . . . . . . . . . . . . o o o o o o O O O O # $ & & * ; ; ; ; * & $ $ # $ $ $ & * > = $ # o o . . . . . . . . . . . . . . . . . . . . . . . . . . . . . . . . . . X X . . . . . . . . . . . . . . . . . . . . . . . . o o o o o o o o o . . . . . . . . . . . . . . . . . . . . . .                                                                   . .                                             . . . . . . . . . o o o o o O O o o o o o o o o . . . . . . . . . . . . . . o o + o o + % % % O O o o o . . . . . . . . . . . . . . . . . . . . . . . . . . . . . . . . . . . . . . . . . o o o o O O O O O # # # O O o o . . . . . . . . . o o o O O # # $ $ $ $ & $ $ $ $ $ $ $ $ $ $ # # # # # # # # O O O O O O O O O O O o o o o o . . . . . . . . . . . . . . . . . . . . . . . . . . . . . . . . . . o o o o o o o o o O o o o o O O O O O O # * > , , : ; & $ $ $ $ $ # O O o o o o o o o o o o o O o o o o o o o . . . . . . . . . . . . . . . . . . . . . . . . . . . . . . . . . . . . . . . . . . . . . . . . . . . . . . . . . . . . . . . . . . . . . . . . . . . . . . . . . . . . . . . . . . . . . . . . . . . . . . . . . . . . . . . . . . . . . . . . . . . . . . .     .   . .                                 . .                     .   . . . . . . . . . . . . . . . . . . . . . . . . . . . . . . . . o o o + + + + + o o o o o o o o o o o o o o . . . . . . . . . . . . . . . .         . .                                     .           . . . . . . . . . . . . . . . . . . . .                                                                                     ",
"o o o o o o o o o . . . . . . . . . . . . . . . . . . . . . . . . . . . . . . . . o o o o O O O # $ & & * * > > > > ; = & $ # # $ $ = = 2 > = $ O o . . . . . . . . . . . . . . . . . . . . . . . . . . . . . . . . . . X X . . . . . . . . . . . . . . . . . . . . . . . . o o o o o o o . . . . . . . . . . . . . . . . . . . . . . . .                                                                     .                                             . . . . . . . . . o o o O O O O O o o o o o o o o . . . . . . . . . . . . . w UX- o + % % + + o o o . . . . . . . . . . . . . . . . . . . . . . . . . . . . . . . . . . . . . . . . . . . . o o o o O O O O # O O O o o o . . . . . . . . o o o O O # % % $ $ $ $ $ $ $ # # # # # # # O O O O O O O O o O o O O O O O O O O O O o o o o . . . . . . . . . . . . . . . . . . . . . . . . . . . . . . . . . . o o o o o o o o o o o o o o O O O O # # $ * > , : ; & $ # # # # # O O o o o o o o o o o o o o O O o o o o o o o . . . . . . . . . . . . . . . . . . . . . . . . . . . . . . . . . . . . . . . . . . . . . . . . . . . . . . . . . . . . . . . . . . . . . . . . . . . . . . . . . . . . . . . . . . . . . . . . . . . . . . . . . . . . . . . . . . . . . . . . . . . . . .   .                                         . .                     . . . . .   . . . . . . . . . . . . . . . . . . . . . . . . . . . o o o o + O + O + o o o o o o o o o o o o o o . . . . . . . . . . . . . . . .       . . .                                                   . . . . . . . . . . . . . . . . .   .                                                                                     ",
"o o o O o o o o o o o . . . . . . . . . . . . . . . . . . . . . . . . . . . . . . . o o O O # # $ $ & & * * ; ; ; * = & $ # O O # $ = = > > - % O o . . . . . . . . . . . . . . . . . . . . . . . . . . . . . . . . . . . . . . . . . . . . . . . . . . . . . . . . . . . . . . o o o o . . . . . . . . . . . . . . . .         .   .                                                                                                                     . . . . . . . . . . o o o O O O O O O O o o o o o o o . . . . . . . . o o o o 4.4.@ . o o o o . . . . . . . . . . . . . . . . . . . . . . . . . . . . . . . . o . . . . . . . . . . . . . . . . o o o O O O O O O O O o o o . . . . . . . . . o o O % % % = % $ $ # # # # # O O O O O o o o o o o o o o o o o o o O O O O O O O + o o . . . . . . . . . . . . . . . . . . . . . . . . . . . . . . . . . . . . o o O O o o o o o o o o O o O O O # # $ & * > > > * & $ # # # # O O o o o o o o o o o o o o O O o o o o o o o o . . . . . . . . . . . . . . . . . . . . . . . . . . . . . . . . . . . . .           . . . .     . . . . . . . . . . . . . . . . . . . . . . . . . . . . . . . . . . . . . . . . . . . . . . . . . . . . . . . . . . . . . . . . . . .       . . . .                                                                             . . .   . . . . . . . . . . . . . . . . . . . . . . . . . . . . . o o o o + O O O o o o o o o o o o o o o o o o . . . . . . . . . . . .         . .                                                     . . . . . . . . . . . . . . . . . . . .                                                                                         ",
"O O # # O + O O O o o . . . . . . . . . . . . . . . . . . . . . . . . . . . . . . o o o O O # # $ $ $ & & & & & & & & $ # O o o o O O $ & = = # o . . . . . . . . . . . . . . . . . . . . . . . . . . . . . . . . . . . . . . . . . . . . . . . . . . . . . . . . . . . . . . . o o o . . . . . . . . . . . . . . . . .             .                                                                                                                   .   . . . . . . . . . o o + + O O O O O O O O O O o o o o o o o o o o o o o o + + o + . . o o . . . . . . . . . . . . . . . . . . . . . . . . . . . . . . . . . . . . . . . . . . . . . . . . . . o o o o O O O O O O o o . . . . . . . . . . o o o O % % % % $ $ # O O O O O O o o o o o o o o o o o o o o o o o o o o o O O O O + + o o . . . . . . . . . . . . . . . . . . . . . . . . . . . . . . . . . . . o o O O o o o o o o o o o o O O O # # $ & * > > * & $ # # O O O O O o o o o o o o o o o o o O o o o o o o o o . . . . . . . . . . . . . . . . . . . . . . . . . . . . . . . . . . . . .             . .         . . . . . . . . . . . . . . . . . . . . . . . . . . . . . . . . . . . . . . . . . . . . . . . . . . . . . . . . . . . . . . . . . .         .   . .                                                                             . . .   . . . . . . . . . . . .   . . . . . . . . . . . . . . . . . o O O + O O o o o o o o o o o o o o o o o o . . . . . . . . . . . .         . .                                                     . . . . . . . . . . . . . . . . . . . .                                                                                         ",
"$ $ $ $ % % # O O O O o o . . . . . . . . . . . . . . . . . . . . . . . . . . . . . o o O O O # # # # # # # # # # # # O o o . . . o o o O # O o o . . . . . . . . . . . . . . . . . . . . . . . . . . . . . . . . . . . . . . . . . . . . . . . . . . . . . . . . . . . . . . . . . . . . . . . . . . . . . . . . . . .                                                                                                                                         . . . . . . o o o o + + O O # O O O # O O O O O O O o o o o o o o o o o . . + . . . . . . . . . . . . . . . . . . . . . . . . . . . . . . . . . . . . . . . . . . . . . . o . . . . . . . . . o o o O O O O O o o . . . . . . . . . o o o + # # % # # # O O o o o o o o o o o o o o o o o . . . . . . . . . . . o o O O O # % O + o . . . . . . . . . . . . . . . . . . . . . . . . . . . . . . . . . o o o O O O O O O O O O O o o O O # # $ & & * * = = $ $ # # O O O O o o o o o o o o o o o o o o o o o o o o o o . . . . . . . . . . . . . . . . . . . . . . . . . . . . . . . . . . . . .                         . . . . . . . . . . . . . . . . . . . . . . . . . . . . . . . . . . . . . . . . . . . . . . . . . . . . . . . . . . . . . . . . . .                                                                                                     . . . . . . . . . .   .   . . . . . . . . . . . . . . . . o o + O O O + o o o o o o o o o o o o o o o o . . . . . . . . . . . .                                                                 . . . . . . . . . . . . . . . . . . . .       .   .                                                                             ",
"= = = = = % % % # O O o o . . . . . . . . . . . . . . . . . . . . . . . . . . . . o o o O O O O O O O o o o o o o o o o . . . . . . . . o o o . . . . . . . . . . . . . . . . . . . . . . . . . . . . . . . . . . . . . . . . . . . . . . . . . . . . . . . . . . . . . . . . . . . . . . . . . . . . . . . . . . . . .                                                                                                                                         . . . . . . . . o o o + O O O O O O # # # # O O O O O O o o o o o o o o . . . . . . . . . . . . . . . . . . . . . . . . . . . . . . . . . . . . . . . . . . . . . . . . . . . . . . . . . . o o o o o o o o o o o . . . . . . . . . o o o + # O O O O o o o o o o o o . o o o o . . . . o . . . . . . . . . . . . . o o O # % % O o o . . . . X . . . . . . . . . . . . . . . . . . . . . . . . . . . o o o O O O O O O O O O O o O O O # # $ & & * & & & $ # # O O O o o o o o . . o o o o o o o o o o o o o o o . . . . . . . . . . . . . . . . . . . . . . . . . . . . . . . . . . . . . . .                         . . . . . . . . . . . . . . . . . . . . . . . . . . . . . . . . . . . . . . . . . . . . . . . . . . . . . . . . . . . . . . . . .                                                                                                       . . . . . . . . . . . . . . . . . . . . . . . . . . . . . o o + + + O O o o o o o o o o o o o o o o o o . . . . . . . . . . . .                                                                 . . . . . . . . . . . . . . . . . . . . . . .   . .                                                                             ",
"& = = = = = = = $ # O o o o . . . . . . . . . . . . . . . . . . . . . . . . . . . o o o o O O O o o o o o . . . o o o . . . . . . . . . . . . . . . . . . . . . . . . . . . . . . . . . . . . . . . . . . . . . . . . . . . . . . . . . . . . . . . . . . . . . . . . . . . . . . . . . . . . . . . . .         . . .   . .   .                                                                                                                                   . . . . . . . . o o o o O O O O O O # # # # # # O O O O o o o o o o o . . . . . . . . . . . . . . . . . . . . . . . . . . . . . . . . . . . . . . . . o o o o . . . o o o . . . . . o o o o o o o o o o o o o o o . . . . . . o o o o o + O O o o o o o o o o o o o o o o o o o o o o o o o o . . . . . . . . . . . o O # % % # O o o o . . . . . . . . . . . . . . . . . . . . . . . . . . . X . . o o o + + O O O O O O O O O O O O O # $ $ & & & $ $ # # O O O o o o o . . . . . . . o o o o o o o o o o . . . . . . . . . . . . . . . . . . . . . . . . . . . . . . . . . . . . . . . . .   .                     . . . . . . . . . . . . . . . . . . . . . . . . . . . . . . . . . . . . . . . . . . . . . . . . . . . . . . . . . . . . . . . . .             .                                                                                                   . . . . . . . . . . . . . . . . . . . . . X . . o o O O + + o o o o o o o o o o o o o o o o o . . . . . . . . . . . . . .                                                             . . . . . . . . . . . . . . . . . . . .           .     . . .                                                                   ",
"$ $ = = = = > = & $ O O o o . . . . . . . . . . . . . . . . . . . . . . . . . . . . o o o O O o o o . . . . . . . o . . . . . . . . . .       . . . . . . . . . . . . . . . . . . . . . . . . . . . . . . . . . . . . . . . . . . . . . . . . . . . . . . . . . . . . . . . . . . . . . . . . . . . .           . . .         .                                                                                                                                       . . . . . . . o o o o o o O O O O O # # # # # # O O O o o o o o o o . . . . . . . . . . . . . . . . . . . . . . . . . . . . . . . . . . . . . . . o o o o . . . . o o . . . . . . o o o o o o o o o o o o o . . . . . . o o o o o O + O O o o o o o o o o O O o o o o o o o o o o o o o o o . . . . . . .     . . o O % % % % O o o . . . . . . . . . . . . . . . . . . . . . . . . . . . . . . o o O + O O O O O O O O O O O O O # # $ $ $ $ $ $ # # O O O o o o . . . . . . . . . . . . . . . . . . . . . . . . . . . . . . . . . . . . . . . . . . . . . . . . . . . . . . . . . . . . . .                     . . . . . . . . . . . . . . . . . . . . . . . . . . . . . . . . . . . . . . . . . . . . . . . . . . . . . . . . . . . . . . . . .             .                                                                                                   . . . . . . . . . . . . . . . . . . . . . X . . o O O O O + o o o o . o o o o o o o o o o o . . . . . . . . . . . . . . .     .                                                       . . . . . . . . . . . . . . . . . . . .           . .   . .   .                                                                 ",
"O O # % = = > > * & # O o o . . . . . . . . . . . . . . . . . . . . . . . . . . . . o o o o o o o o . . . . . . . . . . . . . . . . o . . . . . . . . . . . . . . . . . . . . . . . . . . . . . . . . . . . . . . . . . . . . . . . . . . . . . . . . . . . . . . . . . . . . . . . . . . . . .                 . .                                                                                                                                         . .       . . . . . . . . o o o o o o o o o o O O # # # # # # # O O O o o o . . . . . . . . . . . . . . . . . . . . . . . . . . . . . . . . . . . . . . . . o o o o o . o o o o . . . . . . o o o o o o o o o o o o . . . . . . . o o o + o O O O O o o o O O O # # # # # O O O O O + + + o o o o o o o o o . . . . . . . . o o O % % % % O o o . . . . . . . . . . . . . . . . . . . . . . o o . . . . . o o O O # # # O O O O O O O O O O # # $ $ $ $ $ # # O O O O o o . . . . . . . . . . . . . . . . . . . . . . . . . . . . . . . . . . . . . . . . . . . . . . . . . . . . . . . . . . . . .         . . . .         . . . . . . . . . . . . . . . . . . . . . . . . . . . . . . . . . . . . . . . . . . . . . . . . . . . . . . . . . . . . . . . . .           . .                                                                                                 . . . . . . .   . . . . . . . . . . . . . . . . . o O O O O O o o . . . . . o o o o o o o . . . . . . . . . . . . . . .         . .                                                     . . . . . . . . . . . . . . . . .   . .                                                                                         ",
". o O # % = = > ; * $ # o o . . . . . . . . . . . . . . . . . . . . . . . . . . . . . o o o o o o o . . . . . . . . . o o o . . . . o . . . . . . . . . . . . . . . . . . . . . . . . . . . . . . . . . . . . . . . . . . . . . . . . . . . . . . . . . . . . . . . . . . . . . . . . . . . . .                   .                                                                                                                                                         . . . . . . . o o o . . . . o o O O # # $ $ $ # # + o o . . . . . . . . . . . . . . . . . . . . . . . . . . . . . . . . . . . . . . . . . . o o o o o o o o o o . . . . . . o o o o o o o o o o o . . . . . . . o o o o + O O O O o o o o O # # $ $ % % % % % % % % % % + + + o o o o o o o . . . . . . . . o o o + # % % # + o . . . . . . . . . . . . . . . o o o o o o o o o o o o o o o O O # # # # # O O O O O O O O O # # # # # # # # O O o o o o o . . . . . . . . . . . . . . . . . . . . . . . . . . . . . . . . . . . . . . . . . . . . . . . . . . . . . . . . . . . . . .       . . . .         . . . . . . . . . . . . . . . . . . . . . . . . . . . . . . . . . . . . . . . . . . . . . . . . . . . . . . . . . . . . . . . . .           . .                                                                                                 . . . . . . .   . . . . . . . . . . . . . . . . . o o o o o o o o . . . . . o o o o o o . . . . . . . . . . . . . . . .         . .                                                     . . . . . . . . . . . . . . . . . . . .                                                                                         ",
". . o O # & = * ; * & # O o . . . . . . . . . . . . . . . . . . . . . . . . . . . . . . o o o o . . . . . . . . . . . . . . . . . . . . . . . . . . . . . . . . . . . . . . . . . . . . . . . . . . . . . . . . . . . . . . . . . . . . . . . . . . . . . . . . . . . . . . . . . . . . . . .                                                                                                                                                                                 . . . . . . o o o o . . . . o O O # $ & & $ % % + o . . . . . . . . . . . . . . . . . . . . . . . . . . . . . . . . . . . . . . . o o o o . . . . . . . o o o . . o o . . . . . . o o o o o o o . . . . . . o o o o O O O O O o o o o o O # % % % % % % % % % % % % % + + o o o o o o o o . . . . . . . . . . o o O % % # O o . . . . . . . . o o o o o o o o O O O O O O o o o o o o O O O # # $ $ # # O O O O O O O O O O # # # # O O O O o o o o o . . . . . . . . . . . . . . . . . . . . . . . . . . . . . . . . . . . . . . . . . . . . . . . . . . . . . . . . . . . . . . . . . . . . . . . . . . . . . . . . . . . . . . . . . . . . . . . . . . . . . . . . . . . . . . . . . . . . . . . . . . . . . . . . . . . . . . . . . . .             .                                                                                         .     . . . . . . . . . . . .   . . . . . . . . . . . . . . o o o o o o . . . . . . . o o o o o o o . . . . . . . . . . . . . .                                                             . .   . . . . . . . . . . . . . . . . . . . .                                                                                       ",
"  . . o O $ & = * * & $ O o . . . . . . . . . . . . . . . . . . . . . . . . . . . . . . . . . . . . . . . . . . . . . . . . . . . . . . . . . . . . . . . . . . . . . . . . . . . . . . . . . . . . . . . . . . . . . . . . . . . . . . . . . . . . . . . . . . . . . . . . . . . . . .                                                                                                                                                                                         . . . . o o o o o o . . . . o O # - 2 = $ # o o . . . . . . . . . . . . . . . . . . . . . . . . . . . . . . . . . . . . . . . . o o o o . . . . . . o o o o . . o o . . . . . . o o o o o o o . . . . . . o o O O O O O O o o o o o o O # # # # # # O O + + + O + + + + o o o o o o o o . . . . . . . . . . . o O # % # O o o . . o o o o o o o o o O O O O O O O O O O O O O O O O O # # # $ $ $ # # O O O O O O O O O O O O O O O O o o o o o o o . . . . . . . . . . . . . . . . . . . . . . . . . . . . . . . . . . . . . . . . . . . . . . . . . . . . . . . . . . . . . . . . . . . . . . . . . . . . . . . . . . . . . . . . . . . . . . . . . . . . . . . . . . . . . . . . . . . . . . . . . . . . . . . . . . . . . . . . . . .           . .                                                                                             . . .   . . . . . . . . .   . . . . . . . . . . . . . . o o o o o o . . . . . . o o o o o o o o . . . . . . . . . . . . . .         .                                                   . . . . . . . . . . . . . . . . . . . . . . .                                                                                       ",
". . . . o O # & = = = $ # o o . . . . . . . . . . . . . . . . . . . . . . . . . . . . . . . . . . . . . . . . . . . . . . . . . . . . . . . . . . . . . . . . . . . . . . . . . . . . . . . . . . . . . . . . . . . . . . . . . . . . . . . . . . . . . . . . . . . . . .   . .                                                                                                                                                                                                 . . . . o o o o o o o . . . O # $ > - $ O o . . . . . . . . . . . . . . . . . . . . . . . . . . . . . . . . . . . . . . . . o o o o o o o o o o . . o o o o o o o o . . . . . . o o o o o o o . . . . . o o o O O O O O O O o o O O O O O O O O o o o o o o o o o o o o o o o o o o o . . . . . . . . . . . o o o O % % % + o . o . o o O O O O # # # # # # # # # # # # # # # # # # # $ $ $ $ $ $ $ # # O O O O O O O O O O O O O o o o o o o o o o o o . . . . . . . . . . . . . . . . . . . . . . . . . . . . . . . . . . . . . . . . . . . . . . . . . . . . . . . .   . . . . . . . . . . . . . . . . . . . . .     . . . . . . . . . . . . . . . . . . . . . . . . . . . . . . . . . . . . . . . . . . . . . . . . . . . . . . . . .           . .                                                                                               . .   . . . . .   . . . . . . . . . . . . . . . . . o o o o o o . . . . . . . o . . . o O o o o . . . . . . . . . . . . .         . .                                                 . . . . . . . . . . . . . . . . . . . . . . .                                                                                       ",
". . . . o o O # & = = & # O o . . . . . . . . . . . . . . . . . . . . . . . . . . . . . . . . . . . . . . . . . . . . . . . . . . . . . . . . . . . . . . . . . . . . . . . . . . . . . . . . . . . . . . . . . . . . . . . . . . . . . . . . . . . . . . . . . . . . . . . . .                                                                                                                                                                                                   . . . o o o o o o o . . o O $ = % # o . . . . . . . . . . . . . . . . . . . . . . . . . . . . . . . . . . . . . . . . . . o . o o o o o o o o . o o o o o o o o o . . . . . . . . . o o o o . . . . . o o o O O O O O O O o O O O O O o o o o . . . . . . . . o . . . . o . . . . . . . . . . . . . . . . o o o O # % % O o o o o o o O O # # $ $ $ # # # # # # # # # # # # # # # $ $ $ & & & $ $ # # O O O O o o o o o o O o o o o o o o o o o o o o . . . . . . . . . . . . . . . . . . . . . . . . . . . . . . . . . . . . . . . . . . . . . . . . . . . . . . . . . . . . . . . .   . . . . . . . . . . . . .     . . . . . . . . . . . . . . . . . . . . . . . . . . . . . . . . . . . . . . . . . . . . . . . . . . . . . . . . .           . .                                                                                                 . . . . . . .   . . . . . . . . . . . . . . . . . . o o o o . . . . . . . . . . . . + O O o o . . . . . . . . . . . . .       . . .                                                 . . . . . . . . . . . . . . . . . . . . . . .                                                                                       ",
". . . . . . o O # = = & $ O o o . . . . . . . . . . . . . . . . . . . . . . . . . . . . . . . . . . . . . . . . . . . . . . . . . . . . . . . . . . . . . . . . . . . . . . . . . . . . . . . . . . . . . . . . . . . . o o . . . . . . . . . . . . . . . . . .                                                                                                                                                                                                                   . . . . . o o . . . o O # % % O O o . . . . . . . . . . . . . . . . . . . . . . . . . . . . . . . . . . . . . . . . . . . . . . . . . . . . . o o o o o o o o o o o o o o o o . . . . . . . . . . . . o o o O O # # O O O O O O O O o o . . . . . . . . . . . . . . . . . . . . . . . . . . . . . . . . . o o o o O % # # O o o o o O O # $ & = = $ $ # # # # # # # # O # # # # # % $ $ $ & $ $ $ # # # O O o o o o o o o o o o o o o o o o o o . . . . . . . . . . . . . . . . . . . . . . . . . . . . . .   . . . . . . . . . .   . . . . . . . . . . . . . . . . . . . . .   . . . . . . . . . . . . . . .         . . . . . . . . . . . . . . . . . . . . . . . . . . . . . . . . . . . . . . . . . . . . . . . . . . . . . . . . .           . .                                                                                             . . . . . . . . . . . . . . . . . . . . . . . . . . . . o o o o . . . . . . . . . . o o - $ O o o . . . X X . . . . . . . . . . . . .                                                   . . . . . . . . . . . . . . . . . . . . . . . .                                                                                     ",
". . . . . . . o O $ = = & # O o . . . . . . . . . . . . . . . . . . . . . . . . . . . . . . . . . . . . . . . . . . . . . . . . . . . . . . . . . . . . . . . . . . . . . . . . . . . . . . . . . . . . . . . . . . . . o o . . . . . . . . . . . . . . . . . .                                                                                                                                                                                                                 . . . . . . o o o . . o % % # O o . . . . . . . . . . . . . . . . . . . . . . . . . . . . . . . . . . . . . . . . . . . . . . . . . . . . . . . o o o o o o o o o o o o o o o o . . . . . . . . . . . . o o o O O # # O O O O O O o o o o . . . .   . . . . . . . . . . . . . . . . . . . . . . . . . . . . o o o o O # # # O O o o O O # # % = = = $ # # O O O + + O O O O O O O O # # $ $ $ $ $ # # # O O O o o o o o o o o o o o o o o o o o . . . . . . . . . . . . . . . . . . . . . . . . . . . . . . . . . . . . . . . . . . . . . . . . . . . . . . . . . . . . . . . .   . . . . .       . . . . . . .         . . . . . . . . . . . . . . . . . . . . . . . . . . . . . . . . . . . . . . . . . . . . . . . . . . . . . . . . .   . .     . .                                                                                             . . . . . . . . .   . .   . . . . . . . . . . . . . . . o o o o . . . . . . . . . . O % - % O o o . . . X X . . . . . . . . . .   . . .                                                 . . . . . . . . . . . . . . . . . . . . . . . .                                                                                     ",
". . . . . . . . o # = = = $ O o . . . . . . . . . . . . . . . . . . . . . . . . . . . . . . . . . . . . . . . . . . . . . . . . . . . . . . . . . . . . . . . . . . . . . . . . . . . . . . . . . . . . . . . . . . . . o o o . . . . . . . . . . . . . . . . .                                                                                                                                                                                                                 . . . . . . o o + + O O % O o . . . . . . . . . . . . . . . . . . . . . . . . . . . . . . . . . . . . . . . . . . . . . . . . . . . . . . . . . o o . . o o o o . . . . o o o o . . . . . . . . . . . . o o o O O O O O O O O o o o o o . . . . . . . . . . . . . . . . . . . . . . . . . . . . . . . . . . o o . o o O # # O + + + O O # $ = = = = $ # O o o o o o o o . . . . o o o O O O # # # # # # O O o o o . . . . . . . . o o o o o o o . . . . . . . . . . . . . . . . . . . . . . . . . . . . . . . . . . . . . . . . . . . . . . . . . . . . . . . . . . . . . . . . . . . . . . . .   . . . . .   .         . . . . . . . . . . . . . . . . . . . . . . . . . . . . . . . . . . . . . . . . . .     . . . . . . . . . . . . .                                                                                                           . . . . . . . . .   . . . . . . . . . . . . . . . . . . . . o o . . . . . . . . . . # > 2 % o o . . . . . . . . . . . . . .                                                         . . . . . . . . . . . . . . . . . . . . . . . . . . . .                                                                                 ",
". . . . . . . . o O & = = & # o . . . . . . . . . . . . . . . . . . . . . . . . . . . . . . . . . . . . . . . . . . . . . . . . . . . . . . . . . . . . . . . . . . . . . . . . . . . . . . . . . . . . . . . . . . . . o o o . . . . . . . . . . . . . . . . .                                                                                                                                                                                                                 . . . . . o o + + % % O o o . . . . . . . . . . . . . . . . . . . . . . . . . . . . . . . . . . . . . . . . . . . . . . . . . o . . . . . . . . . . . . . . o o o . . . o o o . . . . . . . . . . . . o o o o o O O O O O O o o o . . . . . . . . . . . . . . . . . . . . . . . . . . . . . . . . . . . . . . . . . o O # # # O O + O O # $ = = = % $ O o o . . . . . . . . . . . . . o o o O O O O # O O O o o o . . . . . . . . . . . . o o . . . . . . . . . . . . . . . . . . . . . . . . . . . . . . . . . . . . . . . . . . . . . . . . . . . . . . . . . . . . . .   . . . . . . . . . . . . . . . . .           . . .   . . . . . . . . . . . . . . . . . . . . . . . . . . . . . . . . . . . . . . . . . . . . . . . . . . . . .                                                                                                           . . . . . . . . . . . . . . . . . . . . . . . . . . . . . . o o . . . . . . . . . o % > - % o . . . . . . . . . . . . . . .                                                         . . . . . . . . . . . . . . . . . . . . . . . . . . . .                                                                                 ",
". . .         . . o $ = = = $ O o . . . . . . . . . . . . . . . . . . . . . . . . . . . . . . . . . . . . . . . . . . . . . . . . . . . . . . . . . . . . . . . . . . . . . . . . . . . . . . . . . . . . . . . . . . . . . . . . . . . . . . . . . . . . . .                                                                                                                                                                                                                   . . . . . o + + % % O O o . . . . . . . . . . . . . . . . . . . . . . . . . . . . . . . . . . . . . . . . . . . . . . . . . . . . . . . . . . o . . . . o . . . . . . . . . . . . . . . . . . . . . . . o o o o o o o O o o o . . . . . . . . . . . . . . . . .               . . . . . . . . . . . . . . . . . . . o O O # # # O O O # % $ % % % $ # O o o . . . . . . . . . . . . . . . . o o o O O O O o o o . . . . . . . . . . . . . . . . . . . . . . . . . . . . . . . . . . . . . . . . . .         . . . . . . . . .       .   . .     . . . . . . . . . . . . . . . .         .     .         . . . . . . . . . . . . . . . . . . . . . . . . . . . . . . . . . . . . . . . . . . . . . . . . . . . . . . . . . . . . . . . . . . .                                                                                                                                   . . . . . . . . . . . . . . . . . . . . . . . . . . . o % - % + . . . . . . . . . . . .                                                             . . .       . . . . . . . . . . . . . . . . . . . . . . . . . .                                                                             ",
". . .           . o # = = = % # o . . . . . . . . . . . . . . . . . . . . . . . . . . . . . . . . . . . . . . . . . . . . . . . . . . . . . . . . . . . . . . . . . . . . . . . . . . . . . . . . . . . . . . . . . . . . . . . . . . . . . . . . . . . . . . .                                                                                                                                                                                                                   . . . . o + + % % o o . . . . . . . . . . . . . . . . . . . . . . . . . . . . . . . . . . . . . . . . . . . . . . . . . . . . . . . . . . o . . . . . o . . . . . . . . . . . . . . . . . . . . . . . . o o o o o o o o o o . . . . . . . . . . . . . . . . .                 . . . . . . . . . . . . . . . . . . o o O # # # # O O # # % % % # # O o o . . . . . . . . . . . . . . . . . o o o o o o o o o o . . . . . . . . . . . . . . . . . . . . . . . . . . . . . . . . . . . . . . . . .         . . . . . . . . .             . .     . . . . . . . . . . . . . . . .             . .         . . . . . . . . . .   . . . . . . . . . . . . . . . . . . . . . . . . . . . . . . . . . . . . . . . . . . . . . . . . . . . . . . .                                                                                                                                     . . . . . . . . . . . . . . . . . . . . . . . . . . . . % % O o . . . . . . . .   . . .                                                             . .         . . . . . . . . . . . . . . . . . . . . . . . . . .                                                                             ",
"                . . O $ = = % # O o o . . . . . . . . . . . . . . . . . . . . . . . . . .   . . . . . . . . . . . . . . . . . . . . . . . . . . . . . . . . . . . . . . . . . . . . . . . . . . . . . . . . . . . . . . . . . . . . . . . . . . . . . . . . . .                                                                                                                                                                                                                   . . . . o + + + O o o . . . . . . . . . . . . . . . . . . . . . . . . . . . . . . . . . . . . . . . . . . . . . . . . . . . . . . . . . . . . . . . . . . . . . . . . . . . . . . . . . . . . . . . . . o . . o o o o . . . . . . . . . . . . . . . .                     . . . . . .     . . . . . . . . . . . o o o O # $ $ # # O O # # O O O O o o o . . . . . . . . . . . . . . . . . . o o o o o o o o o o o . . . . . . . . . . . . . . . . . . . . . . . . . . . . . . . . . . . . . . . .         . . . . . . . .             .       . . . . . . . . . . . . . . . .               .     . . . . . . . . . . . . . . . . . . . .   . . . . . . . . . . . . . . . . . . . . . . . . . . . . . . . . .     . . . . . . . . . . . .                                                                                                                                 . . . . . . . . . . . . . . . . . . . . . . . . . . . . . . o o o . . . . . . . .       . .     .                                                                   . . . . . . . . . . . . . . . .         . . . . .                                                                               ",
"                . . O # & = % # O o o . . . . . . . . . . . . . . . . . . . . . . . . . .   . . . . . . . . . . . . . . . . . . . . . . . . . . . . . . . . . . . . . . . . . . . . . . . . . . . . . . . . . . . . . . . . . . . . . . . . . . . . . . . . . .                                                                                                                                                                                                                     . . . o o + + o o o . . . . . . . . . . . . . . . . . . . . . . . . . . . . . . . . . . . . . . . . . . . . . . . . . . . . . . . . . . . . . . . . . . . . . . . . . . . . . . . . . . . . . . . . . . . . . . . . . . . . . . . . . . . . . . . .                     . .   . .       . . . . . . . . . . . o o O O # $ $ $ # # O O O O o o o o o . . . .     . . . . . . . . . . . . . . . o o o o o o . . . . . . . . . . . . . . . . . . . . . . . . . . . . . . . . . . . . . . . . . . .             . . . . . .                     . . . . . . . . . . . . . . . .                       . . . . . . . . . . . . . . . . . . . . . . . . . . . . . . . . . . . . . . . . . . . . . . . . . . . . .     . . . . . . . . . . .                                                                                                                                   . . . . . . . . . . . . . . . . . . . . . . . . . . . . . . . . . . . . . . . . . .             . .                                                     .           . . . . . . . . . . . . . . . .         . . . . . . .                                                                           ",
"                . . o O # % % % O o . . . . . . . . . . . . . . . . . . . . . . . . . . . . . . . . . . . . . . . . . . . . . . . . . . . . . . . .         . .                                       .         . . . . . . . . . . . . . . . . . . . . . .                                                                                                                                                                                                                         . . . . o o o o o o . . . . . . . . . . . . . . . . . . . . . . . . . . . . . . . . . . . . . . . . . . . . . . . . . . . . . . . . . . . . . . . . . . . . . . . . . . . . . . . . . . . . . . . . . . . . . . . . . . . . . . . . . . . .     .           . .         . .             . . . . X . . . . o o o o O # $ & & $ % O O o o o . . . . . . . .           . . . . . . . . . . . . . . . . . . . . . . . . . . . . . . . . . . . . . . . . . . . . . . . . . . . . . . . . . . . .                 . . . . . .     . .         . . . . . . . . . . . . . . . . . .                     . . . . . . . . . . . . . . . . . . . . . . . . . . . . . . . . . . . . . . . . . . . . . . . . . . . . . . . . . . . . . . . . . . . .                                                                                                                     . . . .         . . . . . . . . . . . . . . . . . . . . . . . . . . . . . . . . . . . . . .   .                                                                         . . . .                                         . . . . . . . .   . . .                                                                 ",
"                . . . o # # $ # O o . . . . . . . . . . . . . . . . . . . . . . . . . . . . . . . . . . . . . . . . . . . . . . . . . . . . . . . .         . .         .                             .         . . . . . . . . . . . . . . . . . . . . . .                                                                                                                                                                                                                         . . . . o o o o o o . . . . . . . . . . . . . . . . . . . . . . . . . . . . . . . . . . . . . . . . . . . . . . X . . . . . . . . . . . . . . . . . . . . . . . . . . . . . . . . . . . . . . . . . . . . . . . . . . . . . . . . . .       . . . . .       . .         . .             . . . . X X . . o o o o o O # $ & & % % O o o . . . . . . . . . .           . . . . . . . . . . . . . . . . . . . . . . . . . . . . . . . . . . . . . . . . . . . . . . . . . . . . . . . . . . . .                 . . . . . .     . .           . . . . . . . . . . . . . . . . .                     . . . . . . . . . . . . . . . . . . . . . . . . . . . . . . . . . . . . . . . . . . . . . . . . . . . . . . . . . . . . . . . . . . . .                                                                                                                     . . . .         . . . . . . . . . . . . . . . . . . . . . . . . . . . . . . . . . . . . . .                                                                             . . . .                                         . . . . . . . .     . .                                                                 ",
"                  . . o O # % % O o . . . . . . . . . . . . . . . . . . . . . . . . . . . . . . . . . . . . . . . . . . . . . . . . . . . . .                           .   .                 .                         . . . . . . . . . . . . . . . . . .                                                                                                                                                                                                                         . . . . o o o o o o . . . . . . . . . . . . . . . . . . . . . . . . . . . . . . . . . . . . . . . . . . . . . . . . . . . . . . . . . . . . . . . . . . . . . . . . . . . . . . . . . . . . . . . . . . . . . . . . . . .                   .                                               . . X . . . . . o o o O # $ & = % % + o . . . . . . . . . . .           . . . . . . . . . . . . . . . . . . . . . . . . . . . . . . . . . . . . . . . . . . . . . . . . . . . . . . . . . . . .               .         . .       .         . . . . . . . . . . . . . . . . . .         . . . .                                         . . . . . . . . . . . . . . . . . . . . . . . . . . . . . . . . . . . . . . . . . o o o . . . . .                                                                                                                                       . . . . . . . . . . . . . . . . . . . . . . . . . . . .       . . .             . .                                                                     . . . .             . .         . . . .     . . . . . . . . . . . . . . .   . .                                                         ",
"                  . . . o O # # O O . . . . . . . . . . . . . . . . . . . . . . . . . . . . . . . . . . . . . . . . . . . . . . . . . . . .                             . .                   .                         . . . . . . . . . . . . . . . . . .                                                                                                                                                                                                                         . . . . . . o o o o . . . . . . . . . . . . . . . . . . . . . . . . . . . . . . . . . . . . . . . . . . . . . . . . . . . . . . . . . . . . . . . . . . . . . . . . . . . . . . . . . . . . . . . . . . . . . . . . . .                                                                 .       . . . . . . o o o O # $ & = % % O o . . . . . . . .   .             . . . . . . . . . . . . . . . . . . . . . . . . . . . . . . . . . . . . . . . . . . . . . . . . . . . . . . . . . . . .               .         . .                 . . . . . . . . . . . . . . . . . .         . . . .                                         . . . . . . . . . . . . . . . . . . . . . . . . . . . . . . . . . . . . . . . . . o o o . . . . .                                                                                                                                       . . . . . . . . . . . . . . . . . . . . . . . . . . . .           .               .                                                                     . . . .           .   .         . . .       . .     . . . . . . . . . . . . . .                                                         ",
"                    . . o O # # O O o . . . . . . . . . . . . . . . . . . . . . . . . . .   . . . . . . . . . . . . . . . . . . . . . . . .                             . . . . . . .                                     . . . . . . . . . . . . . . . . .                                                                                                                                                                                                                         . . . . . . o o o o . . . . . . . . . . . . . . . . . . . . . . . . . . . . . . . . . . . . . . . . . . . . . . . . . . . . . . . . . . . . . . . . . . . . . . . . . . . . . . . . . . . . . . . . . . . . . .     . .                                                                     . . . . . . . . . o o O # $ & % % O o o . .       . .                   .     . . . . . . . . . . . . . . . . . . . . . . . . . . . . . . . . . . . . . . . . . . . . . . . . . . . . . . . . . . .         . .               . . . .           . . . . . . . . . . . . . . . . . . . . . .             . . .                     . . . . . . . . . . . . . . . . . . . . o o o o o o o o . . X . . . . . . . . . . . . . o o o . . . . .                                                                                                               . . . .         . . . . . . . . . . . . . . . . . .     . . . . . . . . . . . .               .   .                                                                     . . . . . . . . . .       . . .                             .   . . . . . . . .                                                                 ",
"                    . . o O # # O O o . . . . . . . . . . . . . . . . . . . . . . . . . .   . . . . . . . . . . . . . . . . . . . . . . . .                             . .   . . .                                     . . . . . . . . . . . . . . . . . .                                                                                                                                                                                                                       . . . . . . . . o o o . . . . . . . . . . . . . . . . . . . . . . . . . . . . . . . . . . . . . . . . . . . . . . . . . . . . . . . . . . . . . . . . . . . . . . . . . . . . . . . . . . . . . . . . . . . . . .     . .                                                                         .   . . . . . . o o # # $ # O o o . .           .                   . . . . . . . . . . . . . . . . . . . . . . . . . . . . . . . . . . . . . . . . . . . . . . . . . . . . . . . . . . . . . .         . .             . . . .             . . . . . . . . . . . . . . . . . . . . . .                 . .                 . . . . . . . . . . . . . . . . . o o o O O # # # # # O + + + o . . . . . . . . . . . . . o o o . . . . .                                                                                                               . . . .   .     . . . . . . . . . . . . . . . . . .     . . . .     .   . . .                                                                                           . .   . . . . . .         . . .                             .   . . . . . . . .                                                                 ",
"                    . . o O # # O o o . . . . . . . . . . . . . . . . . . . . . . . . . . . . .     . . . . . . . . . . . . . .   .                                               .                                     . . . . . . . . . . . . . . . . . . . .                                                                                                                                                                                                                 . . . . . . . . . . . . . . . X . . . . . . . . . . . . . . . . . . . . . . . . . . . . . . . . . . . . . . . . . . . . . . . . . . . . . . . . . . . . . . . . . . . . . . . . . . . . . . . . . . . . . . . . . . . . . .                                                                           .     . . . . . o O O # O O o o . .           .                   . . . . . . . . . . . . . . . . . . . . . . . . . o . . . . . . . . . . . . . . . . o . . . . . . . . . . . . . . . . . . .           .                                 . . . . . . . . . . . . . . . . . . . . . .     . .             . .             . . . . . . . . . . . . . . o o o O O # # $ $ $ $ $ $ $ % % # O O o o o . . . . . . . . . . o o . . . . .                                                                                                                       . .     . . . . . . . . . . . . . .                                                                                                                                     . . . .             . . .   . .                         . . . . . . . . . .                                                             ",
"                    . . o O + O O O o . . . . . . . . . . . . . . . . . . . . . . . . . . . . .     . . . . . . . . . . . . . .                                                                                         . . . . . . . . . . . . . . . . . . .                                                                                                                                                                                                                 . . . . . . . . . . . . . . . X X . . . . . . . . . . . . . . . . . . . . . . . . . . . . . . . . . . . . . . . . . . . . . . . . . . . . . . . . . . . . . . . . . . . . . . . . . . . . . . . . . . . . . . . . . . . .   .                                                                                 . . . . . . o o O o o o . . .                               . . . . . . . . . . . . . . . . . . . . . o o o o o o o o o o o o o o o o o o o o o o o o . . . . . . . . . . . . . . . . .                                             . . . . . . . . . . . . . . . . . . . . . .     . .             . . .         . . . . . . . . o . . . . o o o O O # $ $ & & & & & & * = = = $ $ # O O o o o . . . . . . . . . . . . . . .                                                                                                                       . . .   . . . . . . . . . . . . . .                                                                                                                                     . . . .               . . . . .                         . . . . . . . . . .                                                             ",
"                    . . o o O O O o o o . . . . . . . . . . . . . . . . . . . . . . . . .   . .     . . . . . . . . .   . . . .                                                                                 . .   . . . . . . . . . . . X X . . . . .                                                                                                                                                                                                   . . . . . . . . . . . . . . . . . . . . . . . . . .     . . . . . . . . . . . . . . . . . . . . . . . . . . . . . . . . . . . . . . . . . . . . . . . . . . . . . . . . . . . . . . . . . . . . . . . . . . . . . . . . . . . . . .                                                                                               . . . . . . . o o o o . . .                       . . . . . . . . . . . . . . . . . . . . . . o o o o o o o o o o O O O O O O O O O O o o o o o o o o . . . . . . . . . . X X . . . .                                     . . . . . . . . . . . . . . . . . . . . . . . . . .     .               . .     . . . . . . . . o o o o o o o O O O # # # $ & & & * * * * * * * * * = = & $ # # O o o o . . . . . . . . . . . . .                                                                                                                               . . . . . . . . . . .   . . .       . .           .                                                                                                               .     . . . .                                             . . . . . . . . . . .   . .                                                 ",
"                    . X o o + O o o o . . . . . . . . . . . . . . . . . . . . . . . . . .   . .     . . .   . . . . . . . . . .                                             .                                   . .     . . . . . . . . . . X . . . . .                                                                                                                                                                                                     . . . . . . . . . . . . . . . . . . . . . . . . . .       . . . . . . . . . . . . . . . . . . . . . . . . . . . . . . . . . . . . . . . . . . . . . . . . . . . . . . . . . . . . . . . . . . . . . . . . . . . . . . . . . . . . .                                                                                                 . . . . . . . . o o . . .                     . . . . . . . . . . . . . . . . . . . . . . . o o o o o o o O O O O O # # # # # # O O O O O O O o o o o . . . . . . . . . X X . . . .                         . .         . . . . . . . . . . . . . . . . . . . . . . . . . .                           . . . . . . . . . o o o O O O # # # # $ $ $ & * * & & & & & * * * * * ; ; * * & $ # # O o o o o . . . . . . . . . .                                                                                                                               . . . . . . . . . .     . . .         .           .                                                                                                             . .     . . .                                               . . . . . . . . . . . . . .                                                 ",
"                    . . . o + O o o o o . . . . . . . . . . . . . . . . . . . . . . . . . . . .     . .     . . . . . . . . . . .   . .                                     . . .   . .                         .       . . . . . . . . . . . . . . . .                                                                                                                                                                                 .       . . . . . . . . . . . . . . . . . . . . . . . . . . . . . . . . . . . . . . . . . . . . . . . . . . . . . . . . . . . . . . . . . . . . . . . . . . . . . . . . . . . . . . . . . . . . . . . . . . . . . . . . . . . . . . . . . . . . . . . .                                                                                                 . . . . . . . . . . . . . .                 . . . . . . . . . . . . . . . . . . . . . . . . o o o o O O O O # # # # $ $ $ $ $ $ $ $ $ # # O O O o o o o . . . . . . . . X X . . . . . .         . . . .           . . . . . . . . . . . . . . . . . . . . . . . . . . . . .                       . . . . . . . . o o o O O O O # $ $ $ $ $ & & * * > > & & $ $ $ & $ & & * ; ; ; ; ; * & $ # O o o o . . . . . . . . . .                                                                                                                 . . .         . . . . . . . . . .     . .                                     .   . .                                                                                         . .                                                         . . . . . . . . . . . . . .                                                 ",
"                    . . . o + O o o o o . . . . . . . . . . . . . . . . . . . . . . . . . . . .     . . . . . . . . . . . . . . . . . .                                   . . . . . . .                         . .     . . . . . . . . . . . . . . . .                                                                                                                                                                                 . .     . . . . . . . . . . . . . . . . . . . . . . . . . . . . . . . . . . . . . . . . . . . . . . . . . . . . . . . . . . . . . . . . . . . . . . . . . . . . . . . . . . . . . . . . . . . . . . . . . . . . . . . . . . . . . . . . . . . . . . . .                                                                                                 . . . . .   . . . . . . . .             .   . . . . . . . . .   . . . . . . . . . . . . o o o o O O O # # # $ $ $ $ & & & & & $ $ $ $ $ $ # # O O o o o o . . . . . . . . . . . . . . . . . . . . . . . . . . . . . . . . . . . . . . . . . . . . . . . . . . . . . . . . .             . . .   . . . . . . . . . o o O O # # $ $ & & & & & * * * ; > * = $ $ $ # $ # $ $ & * * ; > ; ; = & $ # O o o . .     . . . . . .                                                                                                                 . . .           . .   . . . . . .       .                         . .         . . . .                                                                                         . .                                                         . . . . . . . . . . . . . .                                                 ",
"                    . . o o + + O o o o . . . . . . . . . . . . . . . . . . . . . . . . . . . .         . . .         . . . .                                                                                               . . . . . . . . . . . . . .                                                                                                                                                                                 . . . . . . . . . . . . . . . . . . . . . . . . . . . . . . . . . . . . . . . . . . . . . . . . . . X X . . . . . . . . . . . . . . . . . . . . . . . . . . . . . . . . . . . . . . . . . . . . . . . . . . . . . . . . . . . . . . . . . .                                                                                                             . . . . . . . . . . . . .           . . . . . . . . . . . . . . . . . . . . . . . . . . o o O O O # $ $ % $ & = = * * * * = = = & & & & $ $ $ # # # O O O o o . . . . . . . . . . . . . . . . . . . . . . . . . . . . . . . . . . . . . . . . . . . . . . . . .     . .               . . . . . . . . . . . . . o o o O # $ & * * * * * * * * * * * * & % # O O O o O O # # $ $ & * ; ; * = = & # O o o . . . . . . . . .                                                                                                                       . .                                                                                                                                                                                                                             . . . . . . . . . . . . . .                                                     ",
"                    . . . o + + O o o o . . . . . . . . . . . . . . . . . . X . . . . . . . . .         . . . .         . .                                                                                                 . . . . . . . . . . . . . .                                                                                                                                                                                 . . . . . . . . . . . . . . . o . . . . . . . . . . . . . . . . . . . . . . . . . . . . . . . . . . . . . . . . . . . . . . . . . . . . . . . . . . . . . . . . . . . . . . . .   . . . . . . . . . . .   . . . . . . . . . . . . . . . . .                                                                                                             . . . . . . . . . . . . . .         . . . . . . . . . . . .   . . . . . . . . . . . o o o O O # # $ = & = = * * * * * * * * * * & & & & & $ $ $ $ $ # # # O o o o o . . . . o o o o o o o o o o o o o o o o o o o o o o . . . . . . . . . . . . . . . . . . . .                     . . . . . . . . . . . . . . o o O O $ & * > ; ; ; * * * * * * * & $ # O o o o . o o O O O O # $ = = * ; * & & # O o . . . . . . . . .                                                                                                                       . .                                                                                                                                                                                                                             . . . . . . . . . . . . . .                                                     ",
"                    . . . o + + O o o o . . . . . . . . . . . . . . . . . . X . . . . . . . . .                                     . .                                                                                     . . . . . . . . . . . .                                                                                                                                                                                     . . . . . . . . . . . . . . . . . . . . . . . . . . . . . . . . .   . .             . . . . . . . . . . . . . . . . . . . . . . . . . . . . . . . . . . . . . . . . . . . . . .         . . . . . . . . .   . . . . . . . . . . . . . . . .     .   . . .   . .                                                                                         . . . . . . . . . . . . . . . .     . . . . . . . . . . . . . . . . . . . . . . o o o o O O # # $ = = * * * ; ; ; ; ; ; * * * * * * * * & & * & & & & $ $ # O O O O O o O O O O o o o O O O O O O O O O O O O O O o o o o o o o o . . .   . . . . . . . . . . .       .             . . . . . . . . . . . . . . o o O # & * > > > > > ; * & & & $ $ # O O o . . . . . . . . . o o O # $ = > ; ; * & # O o . . .     . . .                                                                                                                       . .             .   . .                                                                                                                                                                                                         .   . . . . . . . . . . . .     . .                                             ",
"                    . . . o + + O o o o . . . . . . . . . . . . . . . . . . . . . . . . . . . .                                 . . . .                                                                                     . . . . . . . . . . . .                                                                                                                                                                                   . . . . . . . . . . . . . . . . . . . . . . . . . . . . . . . . .   . . .             . . . . . . . . . . . . . . . . . . . . . . . . . . . . . . . . . .   . . . . . . . . . . .         . . . . . . . . . . . . . . . . . . . . . . . . . .             . . . .                                                                                         . . . . . . . . . . . . . . . .     . . . . . . . . . . . . . . . . . . . o o o o o o O O # $ $ & * * ; > > : > > ; ; ; ; ; ; ; * * * * * * * * * * * = = $ $ # # # # # # # # # # # # # # # # # # # # # # # # # # # O O O O o o o . . . . . . . . . . . . . . .     .               . . . . . . . . . . . . . o o O # $ * > > > > > ; * & $ $ # # # O o o . . .   .   . . . . . . o o # $ & = = = = % # o . . . .   . . .                                                                                                                       . .             . . . .                                                                                                                                                                                                         .   . . . . . . . . . . . . .   . .                                             ",
"                      . . o + + O o o o . . . . . . . . . . . . . . . . X . . . . . . . . . . . .                                                                                                                           . . . . . . . . . . .                                                                                                                                                                               . . . . . . . . . . . . . . . . . . . . . . . . . . . . . . . . . . . .                             . . . . . . . . . . . . . . . . . . . . . . . . . . . . . . . . . . . . . . . . . .         . . . .                 . . . . . . . . . .     . . .                                                                                                                         .     . .                         . . . . . . . . . . o o o o O O O O # # # $ & & * * ; > > > : : : : : ; ; ; ; ; ; ; ; * ; * ; ; > > ; ; = = & & $ $ $ $ $ $ $ $ $ $ $ $ $ $ $ $ $ $ $ $ $ $ $ $ $ $ $ # # # O O O o o . . . . . . . . . . . . . . . . . . . . . . . . . . . . . . . . . . . o o O # % = = > > > > ; * & $ # # # o o o . . . .     .   .     . . . . o o O # % = & & % # + . . . .                                                                                                                                                                                                                                                                                                                                                               . . . . . . o . . . . . . . . . . .                                             ",
"                      . . o + o o o o o . . . . . . . . . . . . . . . . . . . . . . . . . . . .   .     .                                                                                                                   . . . . . . . . . . .                                                                                                                                                                               . . . . . . . . . . . . . . . . . . . . . . . . . . .   . . . .   . .                               . . . . . . . . . . . . . . . . . . . . . . . . . . . . . . . . . . . . . . . . . .         . .   .                 . . . . . . . . . .     . .                                                                                                                         .       . .                         . .   . . . . . . . o o O O # # # # $ $ $ & * * * ; ; > > : : : : : : : ; ; ; ; ; ; ; ; ; ; ; ; : : ; ; ; ; * * * * * * & & & $ & & & & & & & & & & & & & & & & & = & & & $ $ # # O o o o . . . . . . . . . . . . . . . . . . . . . . . . . . . . . . . . o o O # & = = > > > > = * & $ # O O o o . . . . . .   . .             . . . . . o O # # # # O o . . .                                                                                                                                                                                                                                                                                                                                                                 . . . . . . o o . . . . . . . .                                                 ",
"                      . . o o o o o o o . . . . . . . . . . . . . . X . . X . . . . . . .       .       . .                                                                                                                 . . . . . . . . . . .                                                                                                                                                                               . . . . . . . . . . . . . . . . . .                     . . . .                         . .         . . . . . . . . . . X X X . . . . . . . . . . . . . . . . . . . . .                     . .         .   . .         . .                     .                                                                                                                                   . . . . . .     . . . . . . . . . . . . . . o o o O # # $ $ $ $ $ & * * * ; ; ; > > > : : : : : : : ; ; ; ; ; ; ; ; ; ; : : : : : : ; ; ; ; ; ; ; ; ; ; * * * * * * * * * * * * * * * * * * * * * = = & & & $ # # O o o . . . . . . . . . . . . . . . . . . . . . . . . . . . . . . . o O # & > > > > > - - = $ # O O O o o . . . . . . . . . . .             . . . . . . o o O o o . . . .                                                                                                                                                                                                                                                                                                                                                                 . . . . . . o o . . . . . . . .                                                 ",
"                      . . o o o o o o o . . . . . . . . . . . . . . . . . . . . . . . .                 . .                                                                                                                 . . . . . . . . . . .                                                                                                                                                                               . . . . . . . . . . . . . . . .                         . . . .                         . .         . . . . . . . . . . X X X X . . . . . . . . . . . . . . . . . . . .                   . . .         . . .           . .                                                                                                                                                         . . . . .       . . . . . . . . . . . . . o o o O # $ $ $ & & & & * * ; ; ; ; ; ; ; ; ; > > ; ; ; ; ; ; ; ; ; * ; ; ; ; : : : : : : ; ; ; ; ; ; : : : : ; ; ; ; ; ; ; ; ; ; ; ; ; ; ; ; * * * * * * * * * = = & % % O O o o . . . . . . . . . . . . . . . . . . . .   . . . . . . . o O # & ; > 2 > = - - = $ # O O o o . . . . . . . . . . . .                 . . . . . . o o . . . . .                                                                                                                                                                                                                                                                                                                                                                     . . . . . o o . . . . . . . .                                                 ",
"                    . . . . o o o o o o . . . .     . . . . . . . . . . . . . . . . . . . . . . . . . .         . .                                                                                                             . . . . . . . .                                                                                                                                                                                 . . . . . . . . . . .       . .                                                                       . . . . . . . . . . . . . . . . . . . . . . . . . . . . .             . . . . .         .       . . .             . .             . .                                                                                                                             . . .   . . . . . . .       . . . . . . . . . . o o O O O # # $ $ & & * * * * * * ; * * * * * * * * * * * * * * * * * * * * * * * ; ; ; : : : ; ; ; ; ; ; : : : : : : : : ; ; ; ; ; ; ; ; ; ; ; ; ; ; ; ; ; ; * * ; ; ; * = = = $ O O o o . . . . . . . . . . . . . . . X X X .     . . o . . o O # & * > > > > = = % # O O o o o . .     . . . . . . . . .                     . . . . . . . . . . . . .     .                                     . .                                                                                                                                                                         . .             . .                                                                                                                       . . . . . . . . . . . . . . . . .                                             ",
"                    . . . . o o o o o . . . . .     . . . . . . . . . . . . . . . . . . . . . . . . . .         . .                                                                                                               .                                                                                                                                                                                             . . . . . . . . . .                                                                                     . .         . . . . . . . . . . . . . . . . . . . . . .             . . . . . .             . . . .             . .             . .                                                                                                                             . .     . . . . . . . . . . . . . . . . . . o o o O # # $ $ & & * * * * * * * * * * * & & & & & & & & & & & & & $ $ $ $ $ $ & & & * ; ; ; ; ; ; ; ; ; ; ; : : , , , , , : : : : : : : : : : : : : ; ; ; ; ; ; * * * ; * * * = = % # O O o o . . . . . . . . . . . . . . X X X .     . . o o O O # $ * > 1 > > > = % # O o o o . . . .       . . . . . . . .                     . . . . . . . . . . . . .     .                                     . .                                                                                                                                                                         . .             . .                                                                                                                       . . . . . . . . . . . . . . . . .                                             ",
"                    . . . . o o o o o . . . . . .   . . . . . . . . . . . . . . . . . . . . . . . . . . . .     .                                                                                                                                                                                                                                                                                                               . . . . . . . . .                                                                                                     . . . . . . . . . . . . . . . . . . . . .                                         . .                                                                                                                                                                     . . . o . . . . . . . . . . . . o o O O # # $ & & & * * ; ; ; ; ; * * * & & $ $ $ $ $ $ $ $ $ $ # # # # # # # # # # $ $ $ & & * * * * * * * ; ; : : : , , , , , , , : : : : : : : : : : ; ; ; ; ; ; * * * * * * * * = = % % % O o o . . . . . . . . . . . . . . X X X .     . . o O % = * * > > 2 2 > * = # O o o o o . .   .   .     . . . . . . .             .     . . . . . . . . . . . . . . .                                                                                                                                                                                                                     .               . .     . . .                                     . . .                                                                   . . . . . . . . . . . . . . . . .                                             ",
"                    . . . . o o o o . . . . . . . . . . . . . . . . . . . . . . . . . . . . . . . . . . . .     . .                                                                                                                                                                                                                                                                                                             . . . . . . . .                                                                                                         . . . . . . . . . . . . . . . . . . . .                                           .                                                                                                                                                                 . . . . o o o o . . . . . . . . . o o O # # $ $ & * * * ; ; ; > > ; ; * * & $ $ # # # # # # # O O O O O O O O O O O O O O # # $ $ $ $ & & & & & * * ; > : : , , , , , , , , , , : : : : : : ; ; ; ; * * * * & & & & & & & & % $ % O o o o . . . . . . . . . . . . . . . . . . . . . o O = > > > > > 2 > > = $ # + o o . . . . . . . . . . . . . . . . . .           . . . . . . . . . . . . . . . . . . .                             . . .                                                                                                                                                                                 . .     .         .     . .                                       . . .                                                                   . . . . . . . . . . . . . . .   .                                             ",
"                .   . . . . o o o o . . . .     . . . . .     . . . . . . . . . . . . . . .   . . . . . . .                                                                                                                                                                                                                                                                                                                     . . . . . . . .                                                                                                             . . . . . . . . . . . . . . . . . .     . .                                     . . . .                                                                                                                                                 .   . . . . . o O # # O o o . . . o . o o o O # $ $ & & * * ; ; ; ; > ; ; * * & & $ # O O O o O O O o o o o o o o o o o o o o o o O O # # # $ $ $ $ $ $ & & * * ; ; : : , , , , , , , , : : : : : : ; ; ; * * * & & & $ $ $ $ $ $ $ $ $ # O O o o o . . . . . . . . . . . . . . . o O O O o o O % = > > > > > > = $ # O O o o o o o . . . . . . . . . . . . . . . . . . . . . . . . . . . . . . . . . . . . . . . .                 . .     . . .                                                                                                   . .           .                                                                   . . . .                   . .                                     . .             . .                                                 . . . . . . . . . . . . . . . .                                                 ",
"                . . . . . . o o o o . . . .     . . . . .       . . . . . . . . . . . . . . . . . . . . . .                                                                                                                                                                                                                                                                                                                     . . .   . . . .                                                                                                             . . . . . . . . . . . . . . . . . .     .                                         . . .                                                                                                                                                     . . . . o o # $ $ # O O o o o o o o O O # $ & & * * * ; ; ; ; ; * * = = & $ # O O o o o o o o o o o o o . . o o o o . . . o o o O O O # # # # # # # # $ $ & & & * ; > : : , , : : : : : : : : ; ; ; ; * * * & & & $ $ $ $ $ $ $ # # # # O O o . . . . . . . . . . . . . . . o O $ & $ O O # # = * ; > > = = $ # # O O o o o o O O O O o o . . . . . . . . . . . . . . . . . . . . . . . . . . . . . . . . . . .                 . .     . . . .                                                                                                 . .             .                                                                 . . . . .       .           .                   . . .   . . . . . . . . . . . . . . .                                                 . . . . . . . . . . . . . . . .                                                 ",
"                . . . . o o o o o o . . . .     . . . . .       . . . . . . . . . . . . . . . . . . . . . . . .                                                                                                                         . .                                                                                                                                                                                     . . . . . . . .                                                                                                         . . . . . . . . . . . . . . . . . . . .     .                                             .                                                                                                                                                     . . . . o O $ % & $ $ # O O O O O O # $ $ & * * * * ; ; ; ; * = & = % $ # O O O o o o o . . . . . . . . . . . . . . . . . . . o o o O O O O O O O O O # # # $ $ & & * * ; > : > > > : : : ; ; ; ; ; ; * * & & & $ $ $ $ $ $ $ # # # # # O O o o . . . . . . . .     . . . o O $ * > = $ # O O O $ = & & & $ # O O O o o O o O O # $ $ # O o o . . . . . . . . . . . . . . . . . . . . . . . . . . . . . . . . . . . . .         .   . . . . . . . . . . . . . . . . . .                                                                                         . .                                                                 . .         . .         . .               . . . . . . . . . . .     . . . . . . . .     . .                                         . . . . . . . . . . . . . . . .                                                 ",
"                . . . . o o o o o o . . . .     . . . . .       . . . . . . . . . . . . . . . . . . . . . . . .                                                                                                                         . .                                                                                                                                                                                     . . . . . . . .                                                                                                         . . . . . . . . . . . . . . . . . . . .     . .                                                                                                                                                                                               . . . . . o # $ = & & & $ $ # # # $ $ $ $ & * * ; ; ; ; ; ; * * & $ # # O O o o o o o . . . . . . . . . . . . . . . . . . . . . . o o o o o o o o o o o O O # # # # $ $ & & * * ; > > > > ; ; ; ; ; ; * * * * & & $ $ $ $ $ $ # # # # # # O O o o . . . .     . . . . . . O # $ & > 2 > = % + o o O # # $ # # O o o o o o O O O $ & = & $ # O o . . . . . . . . . . . . . . . . . . . . . . . . . . . . . . . . . . . . .             . . . . . . . . . . . . . . . . . . . . .                                                                                   . .                                                                             . .   .     . .             . . . . . . . . . . . . . . . . X . . . . . .   . .                                         . . . . . . . . . . . . . . . . .                                               ",
".               . . . . o o o o o o . . . . . . . . .   . .   . . . . . . .                     . . . . . . .                                                                                                                                                                                                                                                                                                                         . .       . .                                                                                                                 . . . . . . . . . . . . . . . . . . . .                             . .             . . .   . .                                                                                                                                 . . . . . . o O $ & * * * & & $ $ $ $ & & & * * * * ; * * * * & & $ # O o o o . o . . . . . . . . . . . . . . . . . . . . . . . . . . . . . . o o o o o o o O O + O # # # # $ $ & * * ; ; > ; > ; * ; * * * * & & & $ $ $ $ # # # # $ % # # O O o o . . X           o o O O # $ & * > w 4.> O o . . . o o o o o . . . o . o o O O O & = 2 > = # O o o . . . . . . . . . . . . . . . . . . . . . . . . . . . . . . . . . . . . . . . . . . . . . . . . . . . . . . . . . . . . . . . . . . . . . . .                                               . . .                                                                     . .                                             . . . . . . . . . . . . . . . . . o . . . . . . . . . .                                 .       . . . . . . . . . . . . . .                 .                                   ",
". .           . . . . . o o o o o o . . . . . . . . .   . .   . . . . . . .                     .   .   . .                                                                                                                                                                                                                                                                                                                                     . .                                                                                                                 . . . . . . . . . . . . . . . . . . . .                             . .             . .     . .                                                                                                                                     . . . . o O $ & & * * * * & & & & & * * * * * * * * * & & $ $ # O o o . . . . . . . . . . . . . . . . . . . . . . . . . . . . . . . . . . . . . o o o o o o + + O O O O # # $ $ & & * * ; ; ; ; ; ; * * * * & & $ $ $ $ # # # # % $ # # O O o o o . . .     . o # # $ $ $ $ & & * > q = o . . . . . . . . . . . . . . . o o o o # - w w q % O o o . . . . . . . . . . . . . . . . . . . . . . . . . . . . . . . . . . . . . . . . . . . . . . . . . . . . . . . . . . . . . . . . . . . . . . . . . .                                       . . . .                                                                     . .               .                             . . . . . . o o . . . . . . . . . o o . . . . . . . . .                                 . .     . . . . . . . . . . . . . .                                                     ",
"              . . . . o o o o o o o . . . . . .           .   . . . . . . .         .   . .     . . . . . .                                                                                                                                                                                                                                                                                                                                                                                                                                                             . . . . . . . . . . . . . . . . . .                                               .     . .     . .                                                                                                                             . . . . o O $ & & * * * * * * & & * * * * * * & & $ $ $ $ # # O O o . . . . . . . . . . . . . .                     . .   . . . . . . . . . . . . . . . o o o o o O O O O # # # $ $ & & = = * = > = ; * * * & & $ $ $ # # # # # $ $ $ # O O O o o o . .     # = * * & & $ $ $ $ # O O o . . . . . . . . . . . . . . . X . o o . o O $ 2 q - O o o . . . . . . . . . . . . . . . . . . . . o o o . o . . . . . . . . . . . . . . . . . . . . . . . o . . . . . . . . . . . . . . . . . . . . . . . . . . .                                       .                                                                       . .     . .     . .                                 . . . . o o o . . . . . . . . . . . . . . . . . . .                                 . .     . . . . . . . . . . . . . .         . .                                         ",
"              . . . . o o o o o o o . . . . . .                   . . . . .         . . . .     . . . . . .                                                                                                                                                                                                                                                                                                                                                                                                                                                             . . . . . . . . . . . . . . . . . .                                                     . .     . .                                                                                                         . . . .           . . . o o O # $ & & * * * * * * * * * * * * * & & $ # # # # O O o o . . . . . . . . . . . . . . .                                 . . . . . . . . . . . . . . o o o o o o o O O O # # $ $ % & = = = = > > * * * & $ $ $ # # # # # # # # # O O O O O o o o   o & > : > * $ $ # O O o o             . . . . . . . . . . . . X X X . . . o o o O o o o o . . . . . . . . . . . . . . . . . . o o o o . o . . . . . . . . . . . . . . . . . . . . . . o o o o o . o o o . . . . . . . . . . . . . . . . . . . .                             .                                                                                 . .     . .     . .                                 . . X . . . . . . . . . . . . . . . . . . . . .         .                           . .     . . . . . . . . . . . . . .         . . . .                                     ",
"            . . . . . o o o o o o o . . . . . .         . .             . . .     . . . . . .   . . . . . .                                                                                                                                                                                                                                                                                                                     . . .       . .             . .                                                                                                                 . . . . . . . . . . . . . .                                             . .                                                                                                                     . . . . . . . . . . . . o o O O # $ $ & & & * * * * * * * * * & = = $ # # O O o o o o o . . . . . . . . . . .           .                                     . . . . . . . . . . . . . . . . . . o o o O O O # % $ % & = = > ; * * * & $ $ $ # # # # # # # # # O O O O O # $ O O q q 1 ; ; & # O + o . X             . . . . . . . . . . . . . X X . . . . . . . . . . o o o o . . X X . . . . . . . . . . . . o o . . . . . . . . . . . . . . . . . . . . . . o o o o o o o o o o o o o o o o o o o o . . o o . . . . . . . . . .         . .         . .     . . .   . . . . . .     . .                                                       . . .                                               . . X . X . . . . . . . . . . . . . . . .         . . . .                         . .     . . . . . . . . . . .               . . . .                                     ",
"            . . . . . o o o O o o . . . . . . .         . .             . . . .     . . . .     . . . . . .                                                                                                                                                                                                                                                                                                                     . . .       . .             . .                                                                                                                 . . . . . . . . . . . . . .                                             . .                                                                                                                   . . . . . . . . . o o o O O # # $ $ $ & & & & & & & & * * * * & & & % # O O O o o o . . . . . . . . . .   . .                                                   .   . . . . . . . . . . . . . . . . . . . o o o O O # # $ & & * * * ; * & & $ $ # # # # # # # # O O O O O O $ $ $ 4.<XJ : * & # o o . X X X           . . . . . . . . . . . . . . . . . . . .           . . o o o . . X X . . . . . . . . . . . . o o . . . . . . . . . . . . . . . . . . . . . . o o o o o o o o o o o o o o o o o o o o o o o o o o o . . . . . . . .                   . .     . . .   . .   .   .     . .                                                       . . .                                                 . . . X .               . .       . . .         . . . .                         . .     . . . . . . . . . .           .     . . . .                                     ",
"            . . . . o o O O O O o . . . . . . .         .                           .     .     .     . . .                                                                                                                                                                                                                                                                                                                                 . . . . . .                                                                                                                         . . . . . . . . . . . . .                                               .           . .                                                                                                     . . . . . . o o o O O # # $ $ & & & * * & & & & & & & & & & * & & & % # O O o o . . . . . . . . .                                                                     .       . .   . . . . . . .       . . . . . . o O O # $ & & * = = = = = & $ $ # # # # # # # O O O O # # # * 4.iXb 1 > $ O o . X X X X X X X . . . . . . . . . . . . . . .         . . . . . .       X . . . . . . . X . . . . . . . . . . . . . . . . . . . . . . . . . . . . . . . . . . . . o o o o o o o o o o o o + + + O + + + + + + o o o o o o o . . . . . . .                                     . .                         . .                                                                                               . . .                                                                                           . . . . .         . .                                                 ",
"            . . . o o o O O O o o . . . . . . .         . .                                     . . . . . .                                                                                                                                                                                                                                                                                                                                 . . . . . .                                                                                                                         . . . . . . . . . . . . . .                                             . .         . .                                                                                                   . . . . . o o O O # $ $ & & * * ; ; ; ; * * * & & & & & & & & & & & % # O O o . . .       . . . . .                                                                                       . . . . .       . . . . . . . o O O # $ $ & & = = = = & & $ $ $ # # # # O O + + O # # $ q iX).9 1 & O o .   X X X X X X . X . . . . . . . . . . . . . .       . . . . . . .     . . . . . . . . . . . . . . . . . . . . . . . . . . . . . . . . . . . . . . . . . . . . . . . . o o o o o o o o o o o o o o + + o o o o o o o o o o o . . . . . . .                                     . .                         . .                                                                                                 . .                                                                                                 .           . .                                                 ",
"          . . . o o o o o o o o o . . . . . . .                                         . .     . . . . . . . . . .                                                                                                                                                                                                                                                                                                                                     . .                                                                                                             . . . . . . . . . . . . . . . . . . . . . .                                                                                                                                                   . . . . . o o O # $ & & * * > : > , , , , : ; ; * * & & & & * & & & & $ $ # O o . .           . . .                                                                                                             . . . . . . o o o O # # $ $ & = = & & & $ $ $ # # # # O O O O O # $ * w ).H r 1 & o   . X X . .   X . . X . . .   . . . . . . . . . . . . . . . . . . . . . . . . . . . . . . . . . . . . . . . . . . . . . . . . . . . . . . . . . . . .       . . . . . . . . . . . . . o o o o o o o o o o o o o o o o o o o . . . . . . . . . . . . .                 . . . .                                 . . .                                                                                                                                                                                       .           . . .                                                           ",
"        . . . . o o o o o o o o . . . . . . . .                                         . .     .   . . . . . . . .                                                                                                                                                                                                                                                                                                                                     . .                                                                                                             . .   . . . . . . . . . . . . . . . . . . .                                                                                                                                       . . . . . . . . o o o O # $ & * * ; : : , 1 1 1 1 1 1 , : ; * * * & & & & & & & $ $ # O O o .                                                                                                                                 . . . . . o o o o O O O # $ = = = & % % $ $ # # # # O O O O O # = > 0 Q J u : O .   X X X X         . .         . . . . . . . . . . . . . . . . . . . . . . . . . . . . . . . . . . . . . . . . . . . . . . . . . . . . . . . .   . . .         . . . . . . . . . . . . . . . . . . . . o o o o . . . . . . . . . . . . . . . . . . . .                 . . . .                                 . .                                                                                                                                                                                         .           . . . .                                                         ",
"        . . . . o o o o o o o o . . . . . . . .   .                                     .         . . . . . . . .                                                                                                                       . . .       . .                                                                                                                                                                                                 . .                                                                                                                     . . . . . . . . . . . . . . . . . . .   . .   .                                                                                                                     . . . . . . . . o o O O # # $ & = > : : , , 1 3 5 5 3 3 < < 1 , : ; * * & & & & & & & $ # O O o o .                                                                                                                                 . . . . . . o o o o o O O # $ = = = & & $ $ $ # $ # # O O O # $ & ; : 1 0 1 $ .       X X . .   . . . .                 . . . . . . . . . . . . . . . . . . . . . . . . . . . . . . . . . . . . . . . . . . . . . . .                                   . . . . . . . . . . . . . . . . . . . . . . . . . . . . . . . . . . . . . . . .                                                           .                                                                                                                                                                                                                                                                     ",
"        . . . . o o o . o o o . . . . . . . . . . .                                     . .     . . . . . . . . . .                                                                                                                     . . . . .   . .                                                                                                                                                                                                                                                                                                                         . . .   . . . . . . . . . . . . . .     . . . .                                                                                                                   . . . . . . . o o O O # $ $ & & * > > , , 1 < 3 5 5 5 5 3 3 < 1 , : ; * * & & & & & $ $ # # O O o . .                                                                                                                                 . . . . . . . . o o o o o O # $ % = & & & $ $ $ $ # # # # O # # $ & ; > $ # o         X X . .   . . . .                 . . . . . . . . . . . . . . . . . . . . . . . . . . . . . . . . . . . . . . . .         . .                                               . . . . . . . . . . . . . . . . . . . . . . . . . . . . . . . . . . .                                                                                                                                                                                                                                                                                                                                 ",
"        . . . . . . . . . . . . . . . . . . . . .                                               . . . . . . . .                                                                                                                     . . . . . . . . . .                                                                                                                                                         X X     X X X X                                                                                                                                                 . . .   . . . . . . . . . . . . . . . .                                                                                                                           . . . . o o O O # $ & & * * ; > : : , , 1 1 < 1 3 3 3 3 3 < < 1 > ; * * & & & & $ $ $ # O O O o o . . .               . . . . . .                                                                                                 . .   . . . . . . . . . . . o o O # $ $ & & & & $ $ $ $ $ # # # # # $ $ % # o .             X .                               . . .     . . . . . . . . .   .   . . . . . . . .           . .                                                                                 . . . . . . .                         . . . . .                                                                       . .                                                             . .                                                                                                                                                                                                     ",
"        . . . . . . . . . . . . . . . . . . . .                                                 . . . . . . . .                                                                                                                     . . . . . . . . .                                                                                                                                                           X X .   X X X X                                                                                                                                             .   . . .   . . . . . . . . . . . . . . . .                                                                                                                           . . . o O O # # $ * * > > : : : : : : , , , , , , , , , < , , , > ; * & & & $ $ $ $ # # O o o o . . .                 . . . . . .           .                                                                                     . .       . . . . . . . . . . o o O # # $ % $ & & & & & $ $ $ $ $ $ # # % + X               X                               . . . . . . . . . . . . . . .           . . . .                 .                                                                                                                                                                                                       . .                                                             . .                                                                                                                                                                                                     ",
"        . . . . . . . . . . . . . . . . . . . .                                                     . . . . . .     .                                                                                                           . . . . . . . . . . .                                                                                                                                                           X X                                     . . . .                                                                                                             . . . . . . .   . . . . . . . . . . . . . .                                                                                                         . .             . . . o O # # $ & * > > , , 1 , , : : : : > : : : : : : : : : : : ; * & & & $ $ # # # # O O o o o . . .                     .   . .         . .                                                                                                     . . . . . . . . . o o O # # $ $ & & & & & $ $ $ $ $ # O + X X X                 . .                         . . . . . . . . . . . . . . .           . . . .                 . .             . . .           . .                                                                                                         . .                                                         .                                                               .                                                                                                                                                                                                       ",
"        . . . . . . . . . . . . . . . . . . . .                                                 . . . . . . . .     . .                                                                                                         . . . . . . . . . . . .                                                                                                                                                                                                 . . . .                                                                                                           . . . . . . . . . . . . . . . . . . . . . . .                                                                                                 . . . . . . . .         . . o O # $ & & ; : , 1 1 1 1 1 : : > ; * * * * * * ; ; ; ; ; ; ; * & & $ $ $ $ # # O O O o o o o . . .                         . .         . .                                                                                                   . . . . . . . . . . . o o o O # $ $ & & * * & = & $ $ # O o X X   X X X X         . . .                       . . . . . . . . . . . . . . .           . . . .                 . .             . . .       . . . . .                                                                                                     . . .                                                         . .                                                             . .                                                                                                                                                                                                     ",
"        . . . . . . . . . . . . . . . .                                                                                                                                                                                     .   . . . . . . o . . . . . .                                                                                                                                                                                                                                                                                                                               . .     . . . . . . . . . . . .                                                                                                 . . . . . . . . . . . . . o O # $ & * > , , 1 1 1 1 1 : : ; * & & & & & & & & & & * * * * & & $ $ # # O O O O o o . . . . . . . .                                                                                                                                                     . . . . . . . . . O O $ $ & * * * * & & $ # O X . X X X X .           .       . .                                 . . . . . .       . . . . . .       . . . .                                                                                                                                                                                                                                                                                                                                                                                                                                                                                     ",
"        . . . . . . . . . . . . . . . .                                                                                                                                                                                     .   . . . . . o o o o . . . . .                                                                                                                                                                                                                                                                                                                             . .     . . . . . . . . . . . .                                                                                                 . . . . . . . . o o o o o O $ $ & * : , 1 1 < 1 1 , : ; * & & $ $ $ $ $ $ $ $ $ $ & & = & $ $ $ # # O O O o o o . . . . . . . .                                                                                                                                                         . . . . . . . . . O O $ & * * * * * = $ # O o . X X X . . .         .       .                                   .     .           . . . . . .       .   . .                                                                                                                                                                                                                                                                                                                                                                                                                                                                                     ",
"        . . . .                                                                                                                                                                                                                   . . . o o o o o . . . . .                                                                                                                                                                                                                                                                                                                             . .         .   . . . . . . . .                                                                                                 . . . . . . o o o o o O O # $ * * : 1 1 3 3 < 1 , > * & $ $ $ # # # # # # # # # # $ $ $ $ $ # # # O O o o o . . . . . . . . . .                                                                                                                                                                     . . . . o # $ & * * * * & $ # O o . . . . . . .                                                                                                                                                                                                                                 . .                                                                                                                                                                                                                                                                                                                                                 ",
"          . . .                                                                                                                                                                                                                 . . . o o o o o o . . . . .                                                                                                                                                                                                                                                                                                                             . .             . . . . . . . .                                                                                                 . . . . . o o O O O O # $ $ * > > , 1 3 3 < 1 : > * & $ $ # O O O O # # # # # # # # # # # # # # O o o o . . . . . . . . . . . .                                                                                                                                                                       . . . o O # $ & & & & & $ # + o . . . . . . .                                                                                                                                                                                                                             . . . .                                                                                                                                                                                                                                                                                                                                                 ",
"    . .         . . .                                                                                                                                                                                                           . . . o o o + o o o . . .                                                                                                                                                                                                                                                                                                                                           .   . . . . . . . .                                                                                         . . . . . . . . . o o O # # $ & & ; > 2 1 0 0 5 1 , : * & $ $ O O O O O O O O O O O O O O O O O O O O O o o . . . . . . . . .                                                                                                                                                                                 . . . o o O O # $ $ $ $ $ # O o . . . . . . .     . .                                                                       .         . .                                                                                                                             . . . .                                                                                                                                                                                                                                                                                                                             . . . .                 ",
"      .         . . . .                                                                                                                                                                                                         . . . o o o + o o . . . . .                                                                                                                                                                                                                                                                                                                                         . . . . . . . . . .                                                                                         . . . . . . . . . o O # # $ * ; ; : 1 1 0 0 1 1 > > & $ # O O o o o o o o o o o o o o o o o o o o O O o o . . . . .             .                                                                                                                                                                           . . . . . . o + O # # $ $ # # O + o . . . . . .     . .                                                                     . .           .                                                                                                                             . . . .                                                                                                                                                                                                                                                                                                                         .   . .   .                 ",
"                                                                                                                                                                                                                                . . o + + + + o o . . . . .                                                                                                                                                                                                                                                                                                                                           . . . . . . . . . .                                                                                           . . . . . . o O O # $ * ; , 1 < 5 0 0 1 > > = % # # O O o o o o o o . . . . . . . . . . . o o o o . . . . . .                                                                                                                                                                                           . . . . . . . o o O # # # # # O + o . . . . . .     . .                                                                     . .         . .                                                                                                                                                                                                                                                                                                                                                                                                                                                                             . .         ",
"                                                                                                                                                                                                                                . . o o o o o o . . . . . .                                                                                                                                                                                                                                                                                                                                         . . . . . . . . . . .                                                                                           . . . . o o O O # $ * ; , < 3 5 0 5 1 : * & $ # O o o o o o . . . . . . . . . . . . . . . . . . . . . .   .                                                                                                                                                                                             . . . . . . . . o o O O O O O O o o . . . . . .     . .                                                                     . .         . .                                                                                                                                                                                                                                                                                                                                                                                                                                                         . .               . . .         ",
"                                                                                                                                                                                                                          . . . . . . . o o o o o . . . . .                                                                                                                                                                                                                                                                                                                                             . . . . . . . .                                                                                           . . . o o O O # $ & * : , < 3 5 5 3 < : * & # O o . . . . . . . . . . . . . . . . . . . . . . . . . . . .                                                                                                                                                                                             . .       . . . . . . . o o o o o o o . . . . . .                                                                                                                                                                                                                                                                                                                                                                                                                                                                                               . . . .             X X                 . . . . . . . . . . . . . . . . . . . . . . . . ",
"                                                                                                                                                                                                                          . . . . . . . . o o o . . . . . .                                                                                                                                                                                                                                                                                                                                               . . . . . . .                                                                               .     .   . . . . o O # $ & * ; : 1 < 5 4 5 3 < : * & # O o . . . . . . . . . . . . . . .     . .           . .   . .                                                                                                                                                                                             . .     . .   . . . . . . . o o o . . . . . . . . .                                                                                                                                                                                                                                                                                                                                                                                                                                                                                     . . . . . . . . . . . . . . . . . . . . . . . . . . . . . . . . . . . . . . . . . . . . . . . . ",
"                                                                                                                                                                                                                            . . . . . . . . . . . . . . .       . . .                                                                                                                                                                                                                                                                                                                                   . . . . . . . . .                                                                           . . . . . . . X o O # $ & * ; : , < 5 5 5 5 3 < : ; & $ O o . . . . . . . . . . . .                                                                                                                                                                                                                                 . .           . . . . . . . . . o . . . . . . . . .                                                                                                                                                                                                                                                                                                                                                                                                                                                                       . .   .   . . . . . . . . . . . . . . . . . . . . . . . . . . . . . . . . . . . . . . . . . . . . . . . . . . ",
"                                                                                                                                                                                                                            . . . . . . . . . . . . . . .       . . .                                                                                                                                                                                                                                                                                                                                   .   . . . . . . .                                                                         . . . . . . . X o + # $ & * ; : , < 3 5 3 5 3 , : ; & $ # o . . . . . . . . . . . . .                                                                                                                                                                                                                                                 . . . . . . . . . . . . . . . . . .                                                                                                                                                                                                                                                                                                                                                                                                                                                                   . . . . . . . . . . . . . . . . . . . . . . . . . o o o o o o o o o o . . . . . . . . . . . . . . . . . . . . . . ",
"                                                                                                                                                                                                                                . . . . . . . . . . . . . . . .     . .                                                                                                                                                                                                                                                                                                                                 . . . . . . . . .                                                                       . . . . . . . . o O # $ & ; : , < < 3 3 3 3 1 1 ; * & $ O o o . . . . . . . . . . . . .     . .     .                                                                                                                                                                                                                                 .   . . . . . . . . . . . . .                                                                                                                                                                                                                                                                                                                                                                                                                                                                         . . . . . . . . . . . . o o o o o o o o o o o o o o o o o o o o O O o o o o o o o . . . . . . . . . . . . . . . . . ",
"                                                                                                                                                                                                                                . . . . . . . . . . . . . . . .       .                                                                                                                                                                                                                                                                                                                                 . . . . . . . . .                                                                       . . . . . . . o O O $ & * ; , < < 3 < < 1 1 : > * $ # O o o . . . . . . . . . . . . . .       .     . .                                                                                                                                                                                                                                 . . . . . . . .                                                                                                                                                                                                                                                                                                                                                                                                                                                                                     . . . . . . . o o o o o O O O O O O O O O O O O # O O O O O O O O O O O o o o o o o . . . . . . . . . . . . . . . . ",
"                                                                                                                                                                                                                                . . X . . . o o . . . . . . . .     . .                                                                                                                                                                                                                                                                                                                                 . . . . . . . . . . .                                                                   . . . . . . o o O $ & * ; : , < < < < < 1 : ; * $ # O o o . X . . . . . . . . . . . . .     . .     . .                                                                                                                                                                                                                 . . . .         .       . . . .                                                                                                                                                                                                                                                                                                                                                                                                                                                                             .     . . . . . o o o O O O O # # # # # # # # $ $ $ $ $ # # # # # # # # # O O O O O O o o o o o . . . . . . . . . . . . . . ",
"                                                                                                                                                                                                                                . . . . . . o o . . . . . . . .     . .                                                                                                                                                                                                                                                                                                                                 . . . . . . . . . . . .                                                         .       . . . . . . o O # $ & * ; : < < < < < , : ; & $ # O o . . X X X . . . . . . . . . . . .     . .     . .                                                                                                                                                                                                                 . . . .                 . .                                                                                                                                                                                                                                                                                                                                                                                                                                                                               . . . . . . . . o o o O O # # # # $ $ $ $ $ $ $ $ $ $ $ $ $ $ # # # # # # # O O O O O O o o o . . . . . . . . . . . . . . . . ",
"                        . .                                                                                                                                                                                                 . . . . . . . o o o o . . . . . .                                                                                                                                                                                                                                                                                                                                               . . . . . . . . . . . . . .                                                 . . . . . . . . o o O O # $ & * : , , < < < , : ; & $ # O o . . . X X X . .         . . . .                                                                                                                                                                                                                                                     . .                                                                                                                                                                                                                                                                                                                                                                                                                                                                                 . . . . . . . . o o o O O O # # $ $ $ $ $ $ $ $ $ $ $ $ $ $ $ $ $ $ # # # # O O O O o O o o o o . . . . . . . . . . . . . . . . . . ",
"                        . . .                                                                                                                                                                                               . . . . . . . o o o o . . . . .                                                                                                                                                                                                                                                                                                                                                 . . . . . . . . . . . . . .                                                 . . . . . . . . o o O # $ & * ; : , , < < , : ; * $ # O o o . . . X X X   .         . . . .                                                                                                                                                                                                                                                     . .                                                                                                                                                                                                                                                                                                                                                                                                                                                                                 . . . . . . o o O O O # # # # $ $ $ $ $ $ $ $ $ $ $ # # $ # # # # O O O O o o o o . . . . . . . . . . . . . . . . . . . . . . . . . ",
"                        . .                                                                                                                                                                                                 . . . . . . . o o o o . . . . .                                                                                                                                                                                                                                                                                                                                                 . . . . . . . . . . . . . .                                                     . . . . . o o O O # $ & * ; : : , , , , ; * & # O o o . . . .                     .                                                                                                                                                                                                                                                         . .                                                                                                                                                                                                                                                                                                                                                                                                                                                                                 . . . . . o + + # # # # # $ $ $ $ $ & $ $ $ # # # O O O O O o o o o o . . . . . . . . . . . . . . . . . . . . . . . . . . . . . . . ",
"                          .                                                                                                                                                                                                 . .   . . . . o o o o o . . . .                                                                                                                                                                                                                                                                                                                                                   . . . . . . . . . . . . . .                                             .     . . . . . o o O # # $ & * ; > : : : : ; * & # O o . . . . . .             .                                                                                                                                                                                                                                                                   .                                                                                                                                                                                                                                                                                                                                                                                                                                                                                 . . . . o O # # # $ $ $ $ $ $ $ $ $ $ $ $ # O O o o o o . . . . . . . . . . .                       . . . . . . . . . . . . . . . . ",
"                                . .                                                                                                                                                                                         . .   . . . o o o o o o o . . .                                                                                                                                                                                                                                                                                                                                                     . . . . . . . . . . . . . .                                             . . . . . . o o o O # # $ * * ; > : : : > * & $ O o . . . . . .                                                                                                                                                                                                                                                                                                 . . . .                                                                                                                                                                                                                                                                                                                                                                                                                                                           . . . o o O # # $ $ $ # # # # # $ $ $ # # O O O o o . . . . . . . . .                                     . . . . . . . . . . . . . o ",
"                                                                                                                                                                                                                            . .   . . . o o o o o o o . . . .                                                                                                                                                                                                                                                                                                                                                   . . . . . . . . . . . . . .                                             . . . . . . o o o O # $ & * * ; ; > > ; * & $ O o . . . . . . .                                                                                                                                                                                                                                                                                                 . . . .                                                                                                                                                                                                                                                                                                                                                                                                                                                           . . . o O # $ $ $ $ $ # # # # # # # # O O O o o . . . . . . .     .                                       . . . . . . . . . . . . . . ",
"                        . .                                                                                                                                                                                                 . .   . . . o o o o o o o . . . .                                                                                                                                                                                                                                                                                                                                                   . . . . . . . . . . . . . .                                             . . . . . o o o O O # $ & * ; ; ; > ; * & $ # o . . . . . . . .                                                                                                                                                                                                                                                                                                                                                                                                                                                                                                                                                                                                                                                                                                                                                                   . . . o # $ $ $ $ $ $ # # O O O O O + + o o o . . . . . . . . . . . .                           . .   . . . . . . . . . . . . . . . . ",
"                        . . .                                                                                                                                                                                               . . . . . . o o o o o o o . . . .                                                                                                                                                                                                                                                                                                                                               .   . . . . . . . . . . . . . .                                             . . . . . . o o O O # $ & * ; > ; ; ; * & $ O o . . . . .   . .                                                                                                                                                                                                                                                                                                                                                                                                                                                                                                                                                                                                                                                                                                                                                                     . o O $ $ $ & & $ $ # O O O o o o o o o o . . X X X . . . . . . . .                 . .         .   . . . . . . . . . . . . . . . . "
};
