/* XPM */
static char *nota_azul_xpm[] = {
"60 60 3 1",
"  c #FF00FF",
". c #111111",
"X c #0080FF",
"                                                            ",
"                                                            ",
"                              .                             ",
"                       ...............                      ",
"                    .....................                   ",
"                  .........................                 ",
"                ..............X..............               ",
"               .........XXXXXXXXXXXXX.........              ",
"             ........XXXXXXXXXXXXXXXXXXX........            ",
"            .......XXXXXXXXXXXXXXXXXXXXXXX.......           ",
"           ......XXXXXXXXXXXXXXXXXXXXXXXXXXX......          ",
"          ......XXXXXXXXXXXXXXXXXXXXXXXXXXXXX......         ",
"         ......XXXXXXXXXXXXXXXXXXXXXXXXXXXXXXX......        ",
"        ......XXXXXXXXXXXXXXXXXXXXXXXXXXXXXXXXX......       ",
"        .....XXXXXXXXXXXXXXXXXXXXXXXXXXXXXXXXXXX.....       ",
"       .....XXXXXXXXXXXXXXXXXXXXXXXXXXXXXXXXXXXXX.....      ",
"      .....XXXXXXXXXXXXXXXXXXXXXXXXXXXXXXXXXXXXXXX.....     ",
"      ....XXXXXXXXXXXXXXXXXXXXXXXXXXXXXXXXXXXXXXXXX....     ",
"     .....XXXXXXXXXXXXXXXXXXXXXXXXXXXXXXXXXXXXXXXXX.....    ",
"     ....XXXXXXXXXXXXXXXXXXXXXXXXXXXXXXXXXXXXXXXXXXX....    ",
"    .....XXXXXXXXXXXXXXXXXXXXXXXXXXXXXXXXXXXXXXXXXXX.....   ",
"    ....XXXXXXXXXXXXXXXXXXXXXXXXXXXXXXXXXXXXXXXXXXXXX....   ",
"    ....XXXXXXXXXXXXXXXXXXXXXXXXXXXXXXXXXXXXXXXXXXXXX....   ",
"   .....XXXXXXXXXXXXXXXXXXXXXXXXXXXXXXXXXXXXXXXXXXXXX.....  ",
"   ....XXXXXXXXXXXXXXXXXXXXXXXXXXXXXXXXXXXXXXXXXXXXXXX....  ",
"   ....XXXXXXXXXXXXXXXXXXXXXXXXXXXXXXXXXXXXXXXXXXXXXXX....  ",
"   ....XXXXXXXXXXXXXXXXXXXXXXXXXXXXXXXXXXXXXXXXXXXXXXX....  ",
"   ....XXXXXXXXXXXXXXXXXXXXXXXXXXXXXXXXXXXXXXXXXXXXXXX....  ",
"   ....XXXXXXXXXXXXXXXXXXXXXXXXXXXXXXXXXXXXXXXXXXXXXXX....  ",
"   ....XXXXXXXXXXXXXXXXXXXXXXXXXXXXXXXXXXXXXXXXXXXXXXX....  ",
"  ....XXXXXXXXXXXXXXXXXXXXXXXXXXXXXXXXXXXXXXXXXXXXXXXXX.... ",
"   ....XXXXXXXXXXXXXXXXXXXXXXXXXXXXXXXXXXXXXXXXXXXXXXX....  ",
"   ....XXXXXXXXXXXXXXXXXXXXXXXXXXXXXXXXXXXXXXXXXXXXXXX....  ",
"   ....XXXXXXXXXXXXXXXXXXXXXXXXXXXXXXXXXXXXXXXXXXXXXXX....  ",
"   ....XXXXXXXXXXXXXXXXXXXXXXXXXXXXXXXXXXXXXXXXXXXXXXX....  ",
"   ....XXXXXXXXXXXXXXXXXXXXXXXXXXXXXXXXXXXXXXXXXXXXXXX....  ",
"   ....XXXXXXXXXXXXXXXXXXXXXXXXXXXXXXXXXXXXXXXXXXXXXXX....  ",
"   .....XXXXXXXXXXXXXXXXXXXXXXXXXXXXXXXXXXXXXXXXXXXXX.....  ",
"    ....XXXXXXXXXXXXXXXXXXXXXXXXXXXXXXXXXXXXXXXXXXXXX....   ",
"    ....XXXXXXXXXXXXXXXXXXXXXXXXXXXXXXXXXXXXXXXXXXXXX....   ",
"    .....XXXXXXXXXXXXXXXXXXXXXXXXXXXXXXXXXXXXXXXXXXX.....   ",
"     ....XXXXXXXXXXXXXXXXXXXXXXXXXXXXXXXXXXXXXXXXXXX....    ",
"     .....XXXXXXXXXXXXXXXXXXXXXXXXXXXXXXXXXXXXXXXXX.....    ",
"      ....XXXXXXXXXXXXXXXXXXXXXXXXXXXXXXXXXXXXXXXXX....     ",
"      .....XXXXXXXXXXXXXXXXXXXXXXXXXXXXXXXXXXXXXXX.....     ",
"       .....XXXXXXXXXXXXXXXXXXXXXXXXXXXXXXXXXXXXX.....      ",
"        .....XXXXXXXXXXXXXXXXXXXXXXXXXXXXXXXXXXX.....       ",
"        ......XXXXXXXXXXXXXXXXXXXXXXXXXXXXXXXXX......       ",
"         ......XXXXXXXXXXXXXXXXXXXXXXXXXXXXXXX......        ",
"          ......XXXXXXXXXXXXXXXXXXXXXXXXXXXXX......         ",
"           ......XXXXXXXXXXXXXXXXXXXXXXXXXXX......          ",
"            .......XXXXXXXXXXXXXXXXXXXXXXX.......           ",
"             ........XXXXXXXXXXXXXXXXXXX........            ",
"               .........XXXXXXXXXXXXX.........              ",
"                ..............X..............               ",
"                  .........................                 ",
"                    .....................                   ",
"                       ...............                      ",
"                              .                             ",
"                                                            "
};
